; Fabric CNC G-code
; Machine: fabric_cnc_v1
; Units: mm
; Generated by Fabric CNC

G21 ; Set units to millimeters
G90 ; Set absolute positioning
G94 ; Set feed rate mode to units per minute
G28 ; Home all axes
G0 Z5 ; Move to safe Z height

; Toolpath execution

N1 G0 X100.000 Y100.000
G1 Z-1.000 F100.0 ; Tool down
N2 G1 X100.000 Y100.000 F100.0
N3 G1 X200.000 Y100.000 F100.0
N4 G1 X200.000 Y200.000 F100.0
N5 G1 X100.000 Y200.000 F100.0
N6 G1 X100.000 Y100.000 F100.0
G1 Z5.000 F100.0 ; Tool up
N7 G0 X100.000 Y100.000

; End of program
G28 ; Home all axes
M2 ; End of program