; Fabric CNC Toolpath
; Generated by ToolpathGenerator

G20 ; Set units to inches
G90 ; Set absolute positioning
G28 ; Home all axes

G0 Z5.0 ; Move to safe height

; Shape: merged_shape_0
G0 X1.000 Y17.050 ; Move to start
G0 Z-2.0 ; Plunge to cutting height
G1 X1.000 Y15.925 A-90.000 F1000.0 ; Cut to next point
G1 X1.000 Y1.000 A-90.000 F1000.0 ; Cut to next point
G0 Z5.0 ; Raise Z for corner
G0 A0.000 ; Rotate Z for corner
G0 X6.068 Y1.000 ; Move to next point
G1 Z-2.0 F200.0 ; Lower Z to cutting height
G0 Z5.0 ; Raise Z for corner
G0 A90.000 ; Rotate Z for corner
G0 X6.068 Y13.875 ; Move to next point
G1 Z-2.0 F200.0 ; Lower Z to cutting height
G1 X6.067 Y13.967 A90.736 F1000.0 ; Cut to next point
G1 X6.064 Y14.033 A92.207 F1000.0 ; Cut to next point
G1 X6.059 Y14.112 A93.675 F1000.0 ; Cut to next point
G1 X6.050 Y14.216 A95.139 F1000.0 ; Cut to next point
G1 X6.033 Y14.346 A97.333 F1000.0 ; Cut to next point
G1 X6.005 Y14.500 A100.244 F1000.0 ; Cut to next point
G1 X5.969 Y14.652 A103.143 F1000.0 ; Cut to next point
G1 X5.912 Y14.852 A106.032 F1000.0 ; Cut to next point
G1 X5.822 Y15.096 A110.349 F1000.0 ; Cut to next point
G1 X5.707 Y15.330 A116.069 F1000.0 ; Cut to next point
G1 X5.601 Y15.511 A120.347 F1000.0 ; Cut to next point
G1 X5.515 Y15.642 A123.194 F1000.0 ; Cut to next point
G1 X5.423 Y15.770 A126.038 F1000.0 ; Cut to next point
G1 X5.340 Y15.872 A128.882 F1000.0 ; Cut to next point
G1 X5.270 Y15.952 A131.016 F1000.0 ; Cut to next point
G1 X5.217 Y16.011 A132.438 F1000.0 ; Cut to next point
G1 X5.171 Y16.059 A133.859 F1000.0 ; Cut to next point
G1 X5.133 Y16.097 A134.926 F1000.0 ; Cut to next point
G1 X5.075 Y16.152 A135.993 F1000.0 ; Cut to next point
G1 X5.036 Y16.189 A137.058 F1000.0 ; Cut to next point
G1 X4.987 Y16.233 A138.121 F1000.0 ; Cut to next point
G1 X4.926 Y16.285 A139.533 F1000.0 ; Cut to next point
G1 X4.843 Y16.352 A140.940 F1000.0 ; Cut to next point
G1 X4.737 Y16.432 A143.045 F1000.0 ; Cut to next point
G1 X4.606 Y16.521 A145.831 F1000.0 ; Cut to next point
G1 X4.470 Y16.604 A148.601 F1000.0 ; Cut to next point
G1 X4.285 Y16.705 A151.356 F1000.0 ; Cut to next point
G1 X4.044 Y16.815 A155.468 F1000.0 ; Cut to next point
G1 X3.794 Y16.901 A160.915 F1000.0 ; Cut to next point
G1 X3.589 Y16.956 A164.993 F1000.0 ; Cut to next point
G1 X3.434 Y16.990 A167.710 F1000.0 ; Cut to next point
G1 X3.276 Y17.017 A170.429 F1000.0 ; Cut to next point
G1 X3.143 Y17.033 A173.153 F1000.0 ; Cut to next point
G1 X3.036 Y17.042 A175.203 F1000.0 ; Cut to next point
G1 X2.956 Y17.046 A176.571 F1000.0 ; Cut to next point
G1 X2.888 Y17.049 A177.940 F1000.0 ; Cut to next point
G1 X2.834 Y17.050 A178.970 F1000.0 ; Cut to next point
G1 X1.000 Y17.050 A179.995 F1000.0 ; Cut to next point
G1 X1.000 Y17.050 A0.000 F1000.0 ; Close shape
G0 Z5.0 ; Raise Z after shape


G0 Z5.0 ; Move to safe height
G28 ; Home all axes
M2 ; End program