; Fabric CNC Toolpath
; Generated by ToolpathGenerator

G21 ; Set units to millimeters
G90 ; Set absolute positioning
G28 ; Home all axes

G0 Z5.0 ; Move to safe height

; Shape: merged_shape_0
G0 X-10.443 Y-22.803 ; Move to start
G0 Z-2.0 ; Plunge to cutting height
G1 X-10.443 Y-23.928 A-90.000 F1000.0 ; Cut to next point
G1 X-10.443 Y-38.853 A-90.000 F1000.0 ; Cut to next point
G0 Z5.0 ; Raise Z for corner
G0 A0.000 ; Rotate Z for corner
G0 X-5.375 Y-38.853 ; Move to next point
G1 Z-2.0 F200.0 ; Lower Z to cutting height
G0 Z5.0 ; Raise Z for corner
G0 A90.000 ; Rotate Z for corner
G0 X-5.375 Y-25.978 ; Move to next point
G1 Z-2.0 F200.0 ; Lower Z to cutting height
G1 X-5.377 Y-25.885 A90.736 F1000.0 ; Cut to next point
G1 X-5.379 Y-25.820 A92.207 F1000.0 ; Cut to next point
G1 X-5.384 Y-25.741 A93.675 F1000.0 ; Cut to next point
G1 X-5.394 Y-25.636 A95.139 F1000.0 ; Cut to next point
G1 X-5.410 Y-25.507 A97.333 F1000.0 ; Cut to next point
G1 X-5.438 Y-25.353 A100.244 F1000.0 ; Cut to next point
G1 X-5.474 Y-25.200 A103.143 F1000.0 ; Cut to next point
G1 X-5.531 Y-25.000 A106.032 F1000.0 ; Cut to next point
G1 X-5.622 Y-24.756 A110.349 F1000.0 ; Cut to next point
G1 X-5.736 Y-24.522 A116.069 F1000.0 ; Cut to next point
G1 X-5.842 Y-24.342 A120.347 F1000.0 ; Cut to next point
G1 X-5.928 Y-24.210 A123.194 F1000.0 ; Cut to next point
G1 X-6.020 Y-24.083 A126.038 F1000.0 ; Cut to next point
G1 X-6.103 Y-23.980 A128.882 F1000.0 ; Cut to next point
G1 X-6.173 Y-23.900 A131.016 F1000.0 ; Cut to next point
G1 X-6.226 Y-23.842 A132.438 F1000.0 ; Cut to next point
G1 X-6.273 Y-23.794 A133.859 F1000.0 ; Cut to next point
G1 X-6.310 Y-23.756 A134.926 F1000.0 ; Cut to next point
G1 X-6.368 Y-23.700 A135.993 F1000.0 ; Cut to next point
G1 X-6.407 Y-23.664 A137.058 F1000.0 ; Cut to next point
G1 X-6.457 Y-23.619 A138.121 F1000.0 ; Cut to next point
G1 X-6.517 Y-23.568 A139.533 F1000.0 ; Cut to next point
G1 X-6.600 Y-23.501 A140.940 F1000.0 ; Cut to next point
G1 X-6.706 Y-23.421 A143.045 F1000.0 ; Cut to next point
G1 X-6.837 Y-23.332 A145.831 F1000.0 ; Cut to next point
G1 X-6.973 Y-23.249 A148.601 F1000.0 ; Cut to next point
G1 X-7.158 Y-23.148 A151.356 F1000.0 ; Cut to next point
G1 X-7.399 Y-23.038 A155.468 F1000.0 ; Cut to next point
G1 X-7.649 Y-22.951 A160.915 F1000.0 ; Cut to next point
G1 X-7.854 Y-22.896 A164.993 F1000.0 ; Cut to next point
G1 X-8.010 Y-22.862 A167.710 F1000.0 ; Cut to next point
G1 X-8.167 Y-22.836 A170.429 F1000.0 ; Cut to next point
G1 X-8.300 Y-22.820 A173.153 F1000.0 ; Cut to next point
G1 X-8.407 Y-22.811 A175.203 F1000.0 ; Cut to next point
G1 X-8.487 Y-22.806 A176.571 F1000.0 ; Cut to next point
G1 X-8.555 Y-22.804 A177.940 F1000.0 ; Cut to next point
G1 X-8.609 Y-22.803 A178.970 F1000.0 ; Cut to next point
G1 X-10.443 Y-22.803 A179.995 F1000.0 ; Cut to next point
G1 X-10.443 Y-22.803 A0.000 F1000.0 ; Close shape
G0 Z5.0 ; Raise Z after shape


G0 Z5.0 ; Move to safe height
G28 ; Home all axes
M2 ; End program