; Fabric CNC Toolpath
; Generated by ToolpathGenerator

G21 ; Set units to millimeters
G90 ; Set absolute positioning
G28 ; Home all axes

G0 Z5.0 ; Move to safe height

; Shape: merged_shape_0
G0 X5.919 Y-38.637 ; Move to start
G0 Z-2.0 ; Plunge to cutting height
G1 X5.919 Y-38.583 A90.000 F1000.0 ; Cut to next point
G1 X5.919 Y-38.529 A90.000 F1000.0 ; Cut to next point
G1 X5.919 Y-38.475 A90.000 F1000.0 ; Cut to next point
G1 X5.919 Y-38.420 A90.000 F1000.0 ; Cut to next point
G1 X5.919 Y-38.366 A90.000 F1000.0 ; Cut to next point
G1 X5.919 Y-38.312 A90.000 F1000.0 ; Cut to next point
G1 X5.919 Y-38.258 A90.000 F1000.0 ; Cut to next point
G1 X5.919 Y-38.203 A90.000 F1000.0 ; Cut to next point
G1 X5.919 Y-38.149 A90.000 F1000.0 ; Cut to next point
G1 X5.919 Y-38.095 A90.000 F1000.0 ; Cut to next point
G1 X5.919 Y-38.041 A90.000 F1000.0 ; Cut to next point
G1 X5.919 Y-37.986 A90.000 F1000.0 ; Cut to next point
G1 X5.919 Y-37.932 A90.000 F1000.0 ; Cut to next point
G1 X5.919 Y-37.878 A90.000 F1000.0 ; Cut to next point
G1 X5.919 Y-37.824 A90.000 F1000.0 ; Cut to next point
G1 X5.919 Y-37.769 A90.000 F1000.0 ; Cut to next point
G1 X5.919 Y-37.715 A90.000 F1000.0 ; Cut to next point
G1 X5.919 Y-37.661 A90.000 F1000.0 ; Cut to next point
G1 X5.919 Y-37.607 A90.000 F1000.0 ; Cut to next point
G1 X5.919 Y-37.552 A90.000 F1000.0 ; Cut to next point
G1 X5.919 Y-37.498 A90.000 F1000.0 ; Cut to next point
G1 X5.919 Y-37.444 A90.000 F1000.0 ; Cut to next point
G1 X5.919 Y-37.390 A90.000 F1000.0 ; Cut to next point
G1 X5.919 Y-37.336 A90.000 F1000.0 ; Cut to next point
G1 X5.919 Y-37.281 A90.000 F1000.0 ; Cut to next point
G1 X5.919 Y-37.227 A90.000 F1000.0 ; Cut to next point
G1 X5.919 Y-37.173 A90.000 F1000.0 ; Cut to next point
G1 X5.919 Y-37.119 A90.000 F1000.0 ; Cut to next point
G1 X5.919 Y-37.064 A90.000 F1000.0 ; Cut to next point
G1 X5.919 Y-37.010 A90.000 F1000.0 ; Cut to next point
G1 X5.919 Y-36.956 A90.000 F1000.0 ; Cut to next point
G1 X5.919 Y-36.902 A90.000 F1000.0 ; Cut to next point
G1 X5.919 Y-36.847 A90.000 F1000.0 ; Cut to next point
G1 X5.919 Y-36.793 A90.000 F1000.0 ; Cut to next point
G1 X5.919 Y-36.739 A90.000 F1000.0 ; Cut to next point
G1 X5.919 Y-36.685 A90.000 F1000.0 ; Cut to next point
G1 X5.919 Y-36.630 A90.000 F1000.0 ; Cut to next point
G1 X5.919 Y-36.576 A90.000 F1000.0 ; Cut to next point
G1 X5.919 Y-36.522 A90.000 F1000.0 ; Cut to next point
G1 X5.919 Y-36.468 A90.000 F1000.0 ; Cut to next point
G1 X5.919 Y-36.413 A90.000 F1000.0 ; Cut to next point
G1 X5.919 Y-36.359 A90.000 F1000.0 ; Cut to next point
G1 X5.919 Y-36.305 A90.000 F1000.0 ; Cut to next point
G1 X5.919 Y-36.251 A90.000 F1000.0 ; Cut to next point
G1 X5.919 Y-36.196 A90.000 F1000.0 ; Cut to next point
G1 X5.919 Y-36.142 A90.000 F1000.0 ; Cut to next point
G1 X5.919 Y-36.088 A89.999 F1000.0 ; Cut to next point
G1 X5.919 Y-36.034 A89.999 F1000.0 ; Cut to next point
G1 X5.919 Y-35.980 A89.999 F1000.0 ; Cut to next point
G1 X5.919 Y-35.925 A89.999 F1000.0 ; Cut to next point
G1 X5.919 Y-35.871 A89.999 F1000.0 ; Cut to next point
G1 X5.919 Y-35.817 A89.999 F1000.0 ; Cut to next point
G1 X5.919 Y-35.763 A89.999 F1000.0 ; Cut to next point
G1 X5.919 Y-35.708 A89.999 F1000.0 ; Cut to next point
G1 X5.919 Y-35.654 A89.999 F1000.0 ; Cut to next point
G1 X5.919 Y-35.600 A89.999 F1000.0 ; Cut to next point
G1 X5.919 Y-35.546 A89.999 F1000.0 ; Cut to next point
G1 X5.919 Y-35.491 A89.999 F1000.0 ; Cut to next point
G1 X5.919 Y-35.437 A89.999 F1000.0 ; Cut to next point
G1 X5.919 Y-35.383 A89.999 F1000.0 ; Cut to next point
G1 X5.919 Y-35.329 A89.999 F1000.0 ; Cut to next point
G1 X5.919 Y-35.274 A89.999 F1000.0 ; Cut to next point
G1 X5.919 Y-35.220 A89.999 F1000.0 ; Cut to next point
G1 X5.919 Y-35.166 A89.999 F1000.0 ; Cut to next point
G1 X5.919 Y-35.112 A89.999 F1000.0 ; Cut to next point
G1 X5.919 Y-35.057 A89.998 F1000.0 ; Cut to next point
G1 X5.919 Y-35.003 A89.998 F1000.0 ; Cut to next point
G1 X5.919 Y-34.949 A89.998 F1000.0 ; Cut to next point
G1 X5.919 Y-34.895 A89.998 F1000.0 ; Cut to next point
G1 X5.919 Y-34.840 A89.998 F1000.0 ; Cut to next point
G1 X5.919 Y-34.786 A89.998 F1000.0 ; Cut to next point
G1 X5.919 Y-34.708 A89.838 F1000.0 ; Cut to next point
G1 X5.919 Y-34.654 A89.659 F1000.0 ; Cut to next point
G1 X5.920 Y-34.600 A89.445 F1000.0 ; Cut to next point
G1 X5.921 Y-34.547 A89.172 F1000.0 ; Cut to next point
G1 X5.922 Y-34.493 A88.892 F1000.0 ; Cut to next point
G1 X5.923 Y-34.439 A88.645 F1000.0 ; Cut to next point
G1 X5.924 Y-34.385 A88.409 F1000.0 ; Cut to next point
G1 X5.926 Y-34.332 A88.176 F1000.0 ; Cut to next point
G1 X5.928 Y-34.278 A87.944 F1000.0 ; Cut to next point
G1 X5.930 Y-34.224 A87.709 F1000.0 ; Cut to next point
G1 X5.933 Y-34.170 A87.464 F1000.0 ; Cut to next point
G1 X5.935 Y-34.117 A87.216 F1000.0 ; Cut to next point
G1 X5.938 Y-34.063 A86.975 F1000.0 ; Cut to next point
G1 X5.941 Y-34.009 A86.745 F1000.0 ; Cut to next point
G1 X5.944 Y-33.955 A86.521 F1000.0 ; Cut to next point
G1 X5.948 Y-33.902 A86.286 F1000.0 ; Cut to next point
G1 X5.952 Y-33.848 A86.043 F1000.0 ; Cut to next point
G1 X5.955 Y-33.795 A85.800 F1000.0 ; Cut to next point
G1 X5.960 Y-33.741 A85.569 F1000.0 ; Cut to next point
G1 X5.964 Y-33.687 A85.351 F1000.0 ; Cut to next point
G1 X5.969 Y-33.633 A85.131 F1000.0 ; Cut to next point
G1 X5.973 Y-33.580 A84.901 F1000.0 ; Cut to next point
G1 X5.978 Y-33.526 A84.665 F1000.0 ; Cut to next point
G1 X5.984 Y-33.473 A84.435 F1000.0 ; Cut to next point
G1 X5.989 Y-33.419 A84.219 F1000.0 ; Cut to next point
G1 X5.995 Y-33.365 A84.008 F1000.0 ; Cut to next point
G1 X6.000 Y-33.312 A83.793 F1000.0 ; Cut to next point
G1 X6.007 Y-33.258 A83.569 F1000.0 ; Cut to next point
G1 X6.013 Y-33.205 A83.344 F1000.0 ; Cut to next point
G1 X6.019 Y-33.151 A83.131 F1000.0 ; Cut to next point
G1 X6.026 Y-33.097 A82.927 F1000.0 ; Cut to next point
G1 X6.033 Y-33.044 A82.720 F1000.0 ; Cut to next point
G1 X6.040 Y-32.990 A82.512 F1000.0 ; Cut to next point
G1 X6.047 Y-32.937 A82.304 F1000.0 ; Cut to next point
G1 X6.054 Y-32.883 A82.097 F1000.0 ; Cut to next point
G1 X6.062 Y-32.830 A81.896 F1000.0 ; Cut to next point
G1 X6.070 Y-32.776 A81.706 F1000.0 ; Cut to next point
G1 X6.078 Y-32.723 A81.515 F1000.0 ; Cut to next point
G1 X6.086 Y-32.669 A81.315 F1000.0 ; Cut to next point
G1 X6.094 Y-32.616 A81.116 F1000.0 ; Cut to next point
G1 X6.103 Y-32.562 A80.925 F1000.0 ; Cut to next point
G1 X6.112 Y-32.509 A80.745 F1000.0 ; Cut to next point
G1 X6.120 Y-32.456 A80.569 F1000.0 ; Cut to next point
G1 X6.129 Y-32.402 A80.384 F1000.0 ; Cut to next point
G1 X6.139 Y-32.349 A80.198 F1000.0 ; Cut to next point
G1 X6.148 Y-32.295 A80.016 F1000.0 ; Cut to next point
G1 X6.158 Y-32.242 A79.851 F1000.0 ; Cut to next point
G1 X6.167 Y-32.189 A79.697 F1000.0 ; Cut to next point
G1 X6.177 Y-32.135 A79.525 F1000.0 ; Cut to next point
G1 X6.187 Y-32.082 A79.333 F1000.0 ; Cut to next point
G1 X6.197 Y-32.029 A79.129 F1000.0 ; Cut to next point
G1 X6.208 Y-31.976 A78.948 F1000.0 ; Cut to next point
G1 X6.218 Y-31.922 A78.809 F1000.0 ; Cut to next point
G1 X6.229 Y-31.869 A78.712 F1000.0 ; Cut to next point
G1 X6.240 Y-31.814 A78.652 F1000.0 ; Cut to next point
G1 X6.257 Y-31.732 A78.346 F1000.0 ; Cut to next point
G1 X6.268 Y-31.679 A78.149 F1000.0 ; Cut to next point
G1 X6.279 Y-31.627 A78.083 F1000.0 ; Cut to next point
G1 X6.290 Y-31.574 A77.984 F1000.0 ; Cut to next point
G1 X6.301 Y-31.523 A77.850 F1000.0 ; Cut to next point
G1 X6.313 Y-31.471 A77.696 F1000.0 ; Cut to next point
G1 X6.324 Y-31.419 A77.539 F1000.0 ; Cut to next point
G1 X6.336 Y-31.367 A77.394 F1000.0 ; Cut to next point
G1 X6.348 Y-31.315 A77.264 F1000.0 ; Cut to next point
G1 X6.359 Y-31.263 A77.147 F1000.0 ; Cut to next point
G1 X6.371 Y-31.211 A77.036 F1000.0 ; Cut to next point
G1 X6.383 Y-31.159 A76.932 F1000.0 ; Cut to next point
G1 X6.396 Y-31.107 A76.831 F1000.0 ; Cut to next point
G1 X6.408 Y-31.055 A76.729 F1000.0 ; Cut to next point
G1 X6.420 Y-31.003 A76.627 F1000.0 ; Cut to next point
G1 X6.433 Y-30.951 A76.527 F1000.0 ; Cut to next point
G1 X6.445 Y-30.899 A76.429 F1000.0 ; Cut to next point
G1 X6.458 Y-30.847 A76.335 F1000.0 ; Cut to next point
G1 X6.471 Y-30.795 A76.244 F1000.0 ; Cut to next point
G1 X6.483 Y-30.743 A76.157 F1000.0 ; Cut to next point
G1 X6.496 Y-30.691 A76.073 F1000.0 ; Cut to next point
G1 X6.509 Y-30.639 A75.992 F1000.0 ; Cut to next point
G1 X6.522 Y-30.587 A75.914 F1000.0 ; Cut to next point
G1 X6.535 Y-30.535 A75.840 F1000.0 ; Cut to next point
G1 X6.549 Y-30.483 A75.769 F1000.0 ; Cut to next point
G1 X6.562 Y-30.431 A75.701 F1000.0 ; Cut to next point
G1 X6.575 Y-30.379 A75.636 F1000.0 ; Cut to next point
G1 X6.589 Y-30.327 A75.574 F1000.0 ; Cut to next point
G1 X6.602 Y-30.275 A75.515 F1000.0 ; Cut to next point
G1 X6.615 Y-30.223 A75.459 F1000.0 ; Cut to next point
G1 X6.629 Y-30.171 A75.407 F1000.0 ; Cut to next point
G1 X6.643 Y-30.119 A75.358 F1000.0 ; Cut to next point
G1 X6.656 Y-30.067 A75.312 F1000.0 ; Cut to next point
G1 X6.670 Y-30.015 A75.269 F1000.0 ; Cut to next point
G1 X6.684 Y-29.963 A75.229 F1000.0 ; Cut to next point
G1 X6.697 Y-29.911 A75.192 F1000.0 ; Cut to next point
G1 X6.711 Y-29.859 A75.159 F1000.0 ; Cut to next point
G1 X6.725 Y-29.807 A75.128 F1000.0 ; Cut to next point
G1 X6.739 Y-29.755 A75.101 F1000.0 ; Cut to next point
G1 X6.753 Y-29.703 A75.077 F1000.0 ; Cut to next point
G1 X6.767 Y-29.651 A75.057 F1000.0 ; Cut to next point
G1 X6.781 Y-29.599 A75.039 F1000.0 ; Cut to next point
G1 X6.795 Y-29.546 A75.024 F1000.0 ; Cut to next point
G1 X6.809 Y-29.494 A75.013 F1000.0 ; Cut to next point
G1 X6.823 Y-29.442 A75.004 F1000.0 ; Cut to next point
G1 X6.837 Y-29.390 A74.999 F1000.0 ; Cut to next point
G1 X6.851 Y-29.338 A74.997 F1000.0 ; Cut to next point
G1 X6.864 Y-29.285 A74.997 F1000.0 ; Cut to next point
G1 X6.878 Y-29.233 A74.997 F1000.0 ; Cut to next point
G1 X6.892 Y-29.181 A74.997 F1000.0 ; Cut to next point
G1 X6.906 Y-29.129 A74.997 F1000.0 ; Cut to next point
G1 X6.920 Y-29.077 A74.997 F1000.0 ; Cut to next point
G1 X6.934 Y-29.024 A74.997 F1000.0 ; Cut to next point
G1 X6.948 Y-28.972 A74.997 F1000.0 ; Cut to next point
G1 X6.962 Y-28.920 A74.997 F1000.0 ; Cut to next point
G1 X6.919 Y-28.891 A146.280 F1000.0 ; Cut to next point
G0 Z5.0 ; Raise Z for corner
G0 A-179.998 ; Rotate Z for corner
G0 X6.868 Y-28.891 ; Move to next point
G1 Z-2.0 F200.0 ; Lower Z to cutting height
G1 X6.817 Y-28.891 A-179.998 F1000.0 ; Cut to next point
G1 X6.765 Y-28.891 A-179.998 F1000.0 ; Cut to next point
G1 X6.714 Y-28.891 A-179.998 F1000.0 ; Cut to next point
G1 X6.663 Y-28.891 A-179.998 F1000.0 ; Cut to next point
G1 X6.612 Y-28.891 A-179.998 F1000.0 ; Cut to next point
G1 X6.560 Y-28.891 A-179.998 F1000.0 ; Cut to next point
G1 X6.509 Y-28.891 A-179.998 F1000.0 ; Cut to next point
G1 X6.458 Y-28.891 A-179.998 F1000.0 ; Cut to next point
G1 X6.407 Y-28.891 A-179.998 F1000.0 ; Cut to next point
G1 X6.355 Y-28.891 A-179.998 F1000.0 ; Cut to next point
G1 X6.304 Y-28.891 A-179.998 F1000.0 ; Cut to next point
G1 X6.253 Y-28.891 A-179.998 F1000.0 ; Cut to next point
G1 X6.202 Y-28.891 A-179.998 F1000.0 ; Cut to next point
G1 X6.150 Y-28.891 A-179.998 F1000.0 ; Cut to next point
G1 X6.099 Y-28.891 A-179.998 F1000.0 ; Cut to next point
G1 X6.048 Y-28.891 A-179.998 F1000.0 ; Cut to next point
G1 X5.997 Y-28.891 A-179.998 F1000.0 ; Cut to next point
G1 X5.945 Y-28.891 A-179.998 F1000.0 ; Cut to next point
G1 X5.894 Y-28.891 A-179.998 F1000.0 ; Cut to next point
G1 X5.843 Y-28.891 A-179.998 F1000.0 ; Cut to next point
G1 X5.792 Y-28.891 A-179.998 F1000.0 ; Cut to next point
G1 X5.740 Y-28.891 A-179.998 F1000.0 ; Cut to next point
G1 X5.689 Y-28.891 A-179.998 F1000.0 ; Cut to next point
G1 X5.638 Y-28.891 A-179.998 F1000.0 ; Cut to next point
G1 X5.587 Y-28.891 A-179.998 F1000.0 ; Cut to next point
G1 X5.535 Y-28.891 A-179.998 F1000.0 ; Cut to next point
G1 X5.484 Y-28.891 A-179.998 F1000.0 ; Cut to next point
G1 X5.433 Y-28.891 A-179.998 F1000.0 ; Cut to next point
G1 X5.382 Y-28.891 A-179.998 F1000.0 ; Cut to next point
G1 X5.330 Y-28.891 A-179.998 F1000.0 ; Cut to next point
G1 X5.279 Y-28.891 A-179.998 F1000.0 ; Cut to next point
G1 X5.228 Y-28.891 A-179.998 F1000.0 ; Cut to next point
G1 X5.177 Y-28.891 A-179.998 F1000.0 ; Cut to next point
G1 X5.125 Y-28.891 A-179.998 F1000.0 ; Cut to next point
G1 X5.074 Y-28.891 A-179.998 F1000.0 ; Cut to next point
G1 X5.023 Y-28.891 A-179.998 F1000.0 ; Cut to next point
G1 X4.972 Y-28.891 A-179.998 F1000.0 ; Cut to next point
G1 X4.920 Y-28.891 A-179.998 F1000.0 ; Cut to next point
G1 X4.869 Y-28.891 A-179.998 F1000.0 ; Cut to next point
G1 X4.818 Y-28.891 A-179.998 F1000.0 ; Cut to next point
G1 X4.767 Y-28.891 A-179.998 F1000.0 ; Cut to next point
G1 X4.715 Y-28.891 A-179.998 F1000.0 ; Cut to next point
G1 X4.664 Y-28.891 A-179.998 F1000.0 ; Cut to next point
G1 X4.613 Y-28.891 A-179.998 F1000.0 ; Cut to next point
G1 X4.562 Y-28.891 A-179.998 F1000.0 ; Cut to next point
G1 X4.510 Y-28.891 A-179.998 F1000.0 ; Cut to next point
G1 X4.459 Y-28.891 A-179.998 F1000.0 ; Cut to next point
G1 X4.408 Y-28.891 A-179.998 F1000.0 ; Cut to next point
G1 X4.357 Y-28.891 A-179.998 F1000.0 ; Cut to next point
G1 X4.305 Y-28.891 A-179.998 F1000.0 ; Cut to next point
G1 X4.254 Y-28.891 A-179.998 F1000.0 ; Cut to next point
G1 X4.203 Y-28.891 A-179.998 F1000.0 ; Cut to next point
G1 X4.152 Y-28.891 A-179.998 F1000.0 ; Cut to next point
G1 X4.101 Y-28.891 A-179.998 F1000.0 ; Cut to next point
G1 X4.049 Y-28.891 A-179.998 F1000.0 ; Cut to next point
G1 X3.998 Y-28.891 A-179.998 F1000.0 ; Cut to next point
G1 X3.947 Y-28.891 A-179.998 F1000.0 ; Cut to next point
G1 X3.896 Y-28.891 A-179.998 F1000.0 ; Cut to next point
G1 X3.844 Y-28.891 A-179.998 F1000.0 ; Cut to next point
G1 X3.793 Y-28.891 A-179.998 F1000.0 ; Cut to next point
G1 X3.712 Y-28.891 A-179.999 F1000.0 ; Cut to next point
G1 X3.657 Y-28.891 A-179.999 F1000.0 ; Cut to next point
G1 X3.602 Y-28.891 A-179.999 F1000.0 ; Cut to next point
G1 X3.547 Y-28.891 A-179.999 F1000.0 ; Cut to next point
G1 X3.492 Y-28.891 A-179.999 F1000.0 ; Cut to next point
G1 X3.437 Y-28.891 A-179.999 F1000.0 ; Cut to next point
G1 X3.382 Y-28.891 A-179.999 F1000.0 ; Cut to next point
G1 X3.327 Y-28.891 A-179.999 F1000.0 ; Cut to next point
G1 X3.272 Y-28.891 A-179.999 F1000.0 ; Cut to next point
G1 X3.217 Y-28.891 A-179.999 F1000.0 ; Cut to next point
G1 X3.162 Y-28.891 A-179.999 F1000.0 ; Cut to next point
G1 X3.107 Y-28.891 A-179.999 F1000.0 ; Cut to next point
G1 X3.052 Y-28.891 A-179.999 F1000.0 ; Cut to next point
G1 X2.997 Y-28.891 A-179.999 F1000.0 ; Cut to next point
G1 X2.942 Y-28.891 A-179.999 F1000.0 ; Cut to next point
G1 X2.887 Y-28.891 A-179.999 F1000.0 ; Cut to next point
G1 X2.832 Y-28.891 A-179.999 F1000.0 ; Cut to next point
G1 X2.777 Y-28.891 A-179.999 F1000.0 ; Cut to next point
G1 X2.722 Y-28.891 A-179.999 F1000.0 ; Cut to next point
G1 X2.667 Y-28.891 A-179.999 F1000.0 ; Cut to next point
G1 X2.612 Y-28.891 A-179.999 F1000.0 ; Cut to next point
G1 X2.557 Y-28.891 A-179.999 F1000.0 ; Cut to next point
G1 X2.502 Y-28.891 A-179.999 F1000.0 ; Cut to next point
G1 X2.447 Y-28.891 A-179.999 F1000.0 ; Cut to next point
G1 X2.392 Y-28.891 A-179.999 F1000.0 ; Cut to next point
G1 X2.337 Y-28.891 A-179.999 F1000.0 ; Cut to next point
G1 X2.282 Y-28.891 A-179.999 F1000.0 ; Cut to next point
G1 X2.227 Y-28.891 A-179.999 F1000.0 ; Cut to next point
G1 X2.172 Y-28.891 A-179.999 F1000.0 ; Cut to next point
G1 X2.117 Y-28.891 A-180.000 F1000.0 ; Cut to next point
G1 X2.062 Y-28.891 A-180.000 F1000.0 ; Cut to next point
G1 X2.007 Y-28.891 A-180.000 F1000.0 ; Cut to next point
G1 X1.952 Y-28.891 A-180.000 F1000.0 ; Cut to next point
G1 X1.897 Y-28.891 A-180.000 F1000.0 ; Cut to next point
G1 X1.842 Y-28.891 A-180.000 F1000.0 ; Cut to next point
G1 X1.787 Y-28.891 A-180.000 F1000.0 ; Cut to next point
G1 X1.732 Y-28.891 A-180.000 F1000.0 ; Cut to next point
