; Fabric CNC Toolpath
; Generated by ToolpathGenerator

G21 ; Set units to millimeters
G90 ; Set absolute positioning
G28 ; Home all axes

G0 Z5.0 ; Move to safe height

; Shape: merged_shape_0
G0 X6.484 Y-21.215 ; Move to start
G0 Z-2.0 ; Plunge to cutting height
G1 X6.490 Y-21.185 Z-2.0 A78.188 F1000.0 ; Cut to next point
G1 X6.496 Y-21.156 Z-2.0 A78.177 F1000.0 ; Cut to next point
G1 X6.502 Y-21.127 Z-2.0 A78.155 F1000.0 ; Cut to next point
G1 X6.509 Y-21.098 Z-2.0 A78.124 F1000.0 ; Cut to next point
G1 X6.515 Y-21.068 Z-2.0 A78.084 F1000.0 ; Cut to next point
G1 X6.521 Y-21.039 Z-2.0 A78.033 F1000.0 ; Cut to next point
G1 X6.527 Y-21.011 Z-2.0 A77.971 F1000.0 ; Cut to next point
G1 X6.533 Y-20.982 Z-2.0 A77.899 F1000.0 ; Cut to next point
G1 X6.539 Y-20.953 Z-2.0 A77.817 F1000.0 ; Cut to next point
G1 X6.546 Y-20.924 Z-2.0 A77.732 F1000.0 ; Cut to next point
G1 X6.552 Y-20.895 Z-2.0 A77.643 F1000.0 ; Cut to next point
G1 X6.558 Y-20.866 Z-2.0 A77.555 F1000.0 ; Cut to next point
G1 X6.565 Y-20.838 Z-2.0 A77.472 F1000.0 ; Cut to next point
G1 X6.571 Y-20.809 Z-2.0 A77.394 F1000.0 ; Cut to next point
G1 X6.578 Y-20.780 Z-2.0 A77.320 F1000.0 ; Cut to next point
G1 X6.584 Y-20.751 Z-2.0 A77.251 F1000.0 ; Cut to next point
G1 X6.591 Y-20.722 Z-2.0 A77.185 F1000.0 ; Cut to next point
G1 X6.597 Y-20.693 Z-2.0 A77.121 F1000.0 ; Cut to next point
G1 X6.604 Y-20.664 Z-2.0 A77.060 F1000.0 ; Cut to next point
G1 X6.611 Y-20.636 Z-2.0 A77.000 F1000.0 ; Cut to next point
G1 X6.617 Y-20.607 Z-2.0 A76.943 F1000.0 ; Cut to next point
G1 X6.624 Y-20.578 Z-2.0 A76.887 F1000.0 ; Cut to next point
G1 X6.631 Y-20.549 Z-2.0 A76.831 F1000.0 ; Cut to next point
G1 X6.638 Y-20.520 Z-2.0 A76.775 F1000.0 ; Cut to next point
G1 X6.645 Y-20.491 Z-2.0 A76.718 F1000.0 ; Cut to next point
G1 X6.651 Y-20.462 Z-2.0 A76.661 F1000.0 ; Cut to next point
G1 X6.658 Y-20.433 Z-2.0 A76.605 F1000.0 ; Cut to next point
G1 X6.665 Y-20.404 Z-2.0 A76.549 F1000.0 ; Cut to next point
G1 X6.672 Y-20.376 Z-2.0 A76.494 F1000.0 ; Cut to next point
G1 X6.679 Y-20.347 Z-2.0 A76.440 F1000.0 ; Cut to next point
G1 X6.686 Y-20.318 Z-2.0 A76.387 F1000.0 ; Cut to next point
G1 X6.693 Y-20.289 Z-2.0 A76.335 F1000.0 ; Cut to next point
G1 X6.700 Y-20.260 Z-2.0 A76.284 F1000.0 ; Cut to next point
G1 X6.707 Y-20.231 Z-2.0 A76.234 F1000.0 ; Cut to next point
G1 X6.714 Y-20.202 Z-2.0 A76.185 F1000.0 ; Cut to next point
G1 X6.721 Y-20.174 Z-2.0 A76.138 F1000.0 ; Cut to next point
G1 X6.729 Y-20.145 Z-2.0 A76.091 F1000.0 ; Cut to next point
G1 X6.736 Y-20.116 Z-2.0 A76.045 F1000.0 ; Cut to next point
G1 X6.743 Y-20.087 Z-2.0 A76.000 F1000.0 ; Cut to next point
G1 X6.750 Y-20.058 Z-2.0 A75.957 F1000.0 ; Cut to next point
G1 X6.757 Y-20.029 Z-2.0 A75.914 F1000.0 ; Cut to next point
G1 X6.765 Y-20.000 Z-2.0 A75.872 F1000.0 ; Cut to next point
G1 X6.772 Y-19.971 Z-2.0 A75.832 F1000.0 ; Cut to next point
G1 X6.779 Y-19.943 Z-2.0 A75.792 F1000.0 ; Cut to next point
G1 X6.787 Y-19.914 Z-2.0 A75.753 F1000.0 ; Cut to next point
G1 X6.794 Y-19.885 Z-2.0 A75.716 F1000.0 ; Cut to next point
G1 X6.801 Y-19.856 Z-2.0 A75.679 F1000.0 ; Cut to next point
G1 X6.809 Y-19.827 Z-2.0 A75.643 F1000.0 ; Cut to next point
G1 X6.816 Y-19.798 Z-2.0 A75.608 F1000.0 ; Cut to next point
G1 X6.824 Y-19.769 Z-2.0 A75.574 F1000.0 ; Cut to next point
G1 X6.831 Y-19.740 Z-2.0 A75.541 F1000.0 ; Cut to next point
G1 X6.838 Y-19.712 Z-2.0 A75.509 F1000.0 ; Cut to next point
G1 X6.846 Y-19.683 Z-2.0 A75.478 F1000.0 ; Cut to next point
G1 X6.853 Y-19.654 Z-2.0 A75.447 F1000.0 ; Cut to next point
G1 X6.861 Y-19.625 Z-2.0 A75.418 F1000.0 ; Cut to next point
G1 X6.869 Y-19.596 Z-2.0 A75.390 F1000.0 ; Cut to next point
G1 X6.876 Y-19.567 Z-2.0 A75.363 F1000.0 ; Cut to next point
G1 X6.884 Y-19.538 Z-2.0 A75.337 F1000.0 ; Cut to next point
G1 X6.891 Y-19.509 Z-2.0 A75.311 F1000.0 ; Cut to next point
G1 X6.899 Y-19.480 Z-2.0 A75.287 F1000.0 ; Cut to next point
G1 X6.906 Y-19.451 Z-2.0 A75.264 F1000.0 ; Cut to next point
G1 X6.914 Y-19.423 Z-2.0 A75.242 F1000.0 ; Cut to next point
G1 X6.922 Y-19.394 Z-2.0 A75.220 F1000.0 ; Cut to next point
G1 X6.929 Y-19.365 Z-2.0 A75.200 F1000.0 ; Cut to next point
G1 X6.937 Y-19.336 Z-2.0 A75.181 F1000.0 ; Cut to next point
G1 X6.945 Y-19.307 Z-2.0 A75.162 F1000.0 ; Cut to next point
G1 X6.952 Y-19.278 Z-2.0 A75.145 F1000.0 ; Cut to next point
G1 X6.960 Y-19.249 Z-2.0 A75.128 F1000.0 ; Cut to next point
G1 X6.968 Y-19.220 Z-2.0 A75.113 F1000.0 ; Cut to next point
G1 X6.975 Y-19.191 Z-2.0 A75.098 F1000.0 ; Cut to next point
G1 X6.983 Y-19.162 Z-2.0 A75.085 F1000.0 ; Cut to next point
G1 X6.991 Y-19.133 Z-2.0 A75.072 F1000.0 ; Cut to next point
G1 X6.999 Y-19.104 Z-2.0 A75.061 F1000.0 ; Cut to next point
G1 X7.006 Y-19.075 Z-2.0 A75.050 F1000.0 ; Cut to next point
G1 X7.014 Y-19.046 Z-2.0 A75.041 F1000.0 ; Cut to next point
G1 X7.022 Y-19.017 Z-2.0 A75.032 F1000.0 ; Cut to next point
G1 X7.029 Y-18.988 Z-2.0 A75.024 F1000.0 ; Cut to next point
G1 X7.037 Y-18.959 Z-2.0 A75.017 F1000.0 ; Cut to next point
G1 X7.045 Y-18.930 Z-2.0 A75.012 F1000.0 ; Cut to next point
G1 X7.053 Y-18.901 Z-2.0 A75.007 F1000.0 ; Cut to next point
G1 X7.061 Y-18.872 Z-2.0 A75.003 F1000.0 ; Cut to next point
G1 X7.068 Y-18.843 Z-2.0 A75.000 F1000.0 ; Cut to next point
G1 X7.076 Y-18.814 Z-2.0 A74.998 F1000.0 ; Cut to next point
G1 X7.084 Y-18.785 Z-2.0 A74.997 F1000.0 ; Cut to next point
G1 X7.092 Y-18.756 Z-2.0 A74.997 F1000.0 ; Cut to next point
G1 X7.099 Y-18.727 Z-2.0 A74.997 F1000.0 ; Cut to next point
G1 X7.107 Y-18.698 Z-2.0 A74.997 F1000.0 ; Cut to next point
G1 X7.115 Y-18.669 Z-2.0 A74.997 F1000.0 ; Cut to next point
G1 X7.123 Y-18.640 Z-2.0 A74.997 F1000.0 ; Cut to next point
G1 X7.131 Y-18.611 Z-2.0 A74.997 F1000.0 ; Cut to next point
G1 X7.138 Y-18.582 Z-2.0 A74.997 F1000.0 ; Cut to next point
G1 X7.146 Y-18.553 Z-2.0 A74.997 F1000.0 ; Cut to next point
G1 X7.154 Y-18.524 Z-2.0 A74.997 F1000.0 ; Cut to next point
G1 X7.162 Y-18.495 Z-2.0 A74.997 F1000.0 ; Cut to next point
G1 X7.169 Y-18.466 Z-2.0 A74.997 F1000.0 ; Cut to next point
G1 X7.177 Y-18.437 Z-2.0 A74.997 F1000.0 ; Cut to next point
G1 X7.185 Y-18.408 Z-2.0 A74.997 F1000.0 ; Cut to next point
G1 X7.193 Y-18.379 Z-2.0 A74.997 F1000.0 ; Cut to next point
G1 X7.200 Y-18.350 Z-2.0 A74.997 F1000.0 ; Cut to next point
G1 X7.208 Y-18.321 Z-2.0 A74.997 F1000.0 ; Cut to next point
G1 X7.208 Y-18.321 Z-2.0 A0.000 F1000.0 ; Cut to next point
G1 X7.176 Y-18.321 Z-2.0 A-179.998 F1000.0 ; Cut to next point
G1 X7.144 Y-18.321 Z-2.0 A-179.998 F1000.0 ; Cut to next point
G1 X7.112 Y-18.321 Z-2.0 A-179.998 F1000.0 ; Cut to next point
G1 X7.080 Y-18.321 Z-2.0 A-179.998 F1000.0 ; Cut to next point
G1 X7.048 Y-18.321 Z-2.0 A-179.998 F1000.0 ; Cut to next point
G1 X7.016 Y-18.321 Z-2.0 A-179.998 F1000.0 ; Cut to next point
G1 X6.984 Y-18.321 Z-2.0 A-179.998 F1000.0 ; Cut to next point
G1 X6.952 Y-18.321 Z-2.0 A-179.998 F1000.0 ; Cut to next point
G1 X6.920 Y-18.321 Z-2.0 A-179.998 F1000.0 ; Cut to next point
G1 X6.888 Y-18.321 Z-2.0 A-179.998 F1000.0 ; Cut to next point
G1 X6.856 Y-18.321 Z-2.0 A-179.998 F1000.0 ; Cut to next point
G1 X6.824 Y-18.321 Z-2.0 A-179.998 F1000.0 ; Cut to next point
G1 X6.792 Y-18.321 Z-2.0 A-179.998 F1000.0 ; Cut to next point
G1 X6.760 Y-18.321 Z-2.0 A-179.998 F1000.0 ; Cut to next point
G1 X6.728 Y-18.321 Z-2.0 A-179.998 F1000.0 ; Cut to next point
G1 X6.696 Y-18.321 Z-2.0 A-179.998 F1000.0 ; Cut to next point
G1 X6.664 Y-18.321 Z-2.0 A-179.998 F1000.0 ; Cut to next point
G1 X6.632 Y-18.321 Z-2.0 A-179.998 F1000.0 ; Cut to next point
G1 X6.600 Y-18.321 Z-2.0 A-179.998 F1000.0 ; Cut to next point
G1 X6.568 Y-18.321 Z-2.0 A-179.998 F1000.0 ; Cut to next point
G1 X6.536 Y-18.321 Z-2.0 A-179.998 F1000.0 ; Cut to next point
G1 X6.504 Y-18.321 Z-2.0 A-179.998 F1000.0 ; Cut to next point
G1 X6.472 Y-18.321 Z-2.0 A-179.998 F1000.0 ; Cut to next point
G1 X6.440 Y-18.321 Z-2.0 A-179.998 F1000.0 ; Cut to next point
G1 X6.408 Y-18.321 Z-2.0 A-179.998 F1000.0 ; Cut to next point
G1 X6.376 Y-18.321 Z-2.0 A-179.998 F1000.0 ; Cut to next point
G1 X6.343 Y-18.321 Z-2.0 A-179.998 F1000.0 ; Cut to next point
G1 X6.311 Y-18.321 Z-2.0 A-179.998 F1000.0 ; Cut to next point
G1 X6.279 Y-18.321 Z-2.0 A-179.998 F1000.0 ; Cut to next point
G1 X6.247 Y-18.321 Z-2.0 A-179.998 F1000.0 ; Cut to next point
G1 X6.215 Y-18.321 Z-2.0 A-179.998 F1000.0 ; Cut to next point
G1 X6.183 Y-18.321 Z-2.0 A-179.998 F1000.0 ; Cut to next point
G1 X6.151 Y-18.321 Z-2.0 A-179.998 F1000.0 ; Cut to next point
G1 X6.119 Y-18.321 Z-2.0 A-179.998 F1000.0 ; Cut to next point
G1 X6.087 Y-18.321 Z-2.0 A-179.998 F1000.0 ; Cut to next point
G1 X6.055 Y-18.321 Z-2.0 A-179.998 F1000.0 ; Cut to next point
G1 X6.023 Y-18.321 Z-2.0 A-179.998 F1000.0 ; Cut to next point
G1 X5.991 Y-18.321 Z-2.0 A-179.998 F1000.0 ; Cut to next point
G1 X5.959 Y-18.321 Z-2.0 A-179.998 F1000.0 ; Cut to next point
G1 X5.927 Y-18.321 Z-2.0 A-179.998 F1000.0 ; Cut to next point
G1 X5.895 Y-18.321 Z-2.0 A-179.998 F1000.0 ; Cut to next point
G1 X5.863 Y-18.321 Z-2.0 A-179.998 F1000.0 ; Cut to next point
G1 X5.831 Y-18.321 Z-2.0 A-179.998 F1000.0 ; Cut to next point
G1 X5.799 Y-18.321 Z-2.0 A-179.998 F1000.0 ; Cut to next point
G1 X5.767 Y-18.321 Z-2.0 A-179.998 F1000.0 ; Cut to next point
G1 X5.735 Y-18.321 Z-2.0 A-179.998 F1000.0 ; Cut to next point
G1 X5.703 Y-18.321 Z-2.0 A-179.998 F1000.0 ; Cut to next point
G1 X5.671 Y-18.321 Z-2.0 A-179.998 F1000.0 ; Cut to next point
G1 X5.639 Y-18.321 Z-2.0 A-179.998 F1000.0 ; Cut to next point
G1 X5.607 Y-18.321 Z-2.0 A-179.998 F1000.0 ; Cut to next point
G1 X5.575 Y-18.321 Z-2.0 A-179.998 F1000.0 ; Cut to next point
G1 X5.543 Y-18.321 Z-2.0 A-179.998 F1000.0 ; Cut to next point
G1 X5.511 Y-18.321 Z-2.0 A-179.998 F1000.0 ; Cut to next point
G1 X5.479 Y-18.321 Z-2.0 A-179.998 F1000.0 ; Cut to next point
G1 X5.447 Y-18.321 Z-2.0 A-179.998 F1000.0 ; Cut to next point
G1 X5.415 Y-18.321 Z-2.0 A-179.998 F1000.0 ; Cut to next point
G1 X5.383 Y-18.321 Z-2.0 A-179.998 F1000.0 ; Cut to next point
G1 X5.351 Y-18.321 Z-2.0 A-179.998 F1000.0 ; Cut to next point
G1 X5.319 Y-18.321 Z-2.0 A-179.998 F1000.0 ; Cut to next point
G1 X5.287 Y-18.321 Z-2.0 A-179.998 F1000.0 ; Cut to next point
G1 X5.255 Y-18.321 Z-2.0 A-179.998 F1000.0 ; Cut to next point
G1 X5.223 Y-18.321 Z-2.0 A-179.998 F1000.0 ; Cut to next point
G1 X5.190 Y-18.321 Z-2.0 A-179.998 F1000.0 ; Cut to next point
G1 X5.158 Y-18.321 Z-2.0 A-179.998 F1000.0 ; Cut to next point
G1 X5.126 Y-18.321 Z-2.0 A-179.998 F1000.0 ; Cut to next point
G1 X5.094 Y-18.321 Z-2.0 A-179.998 F1000.0 ; Cut to next point
G1 X5.062 Y-18.321 Z-2.0 A-179.998 F1000.0 ; Cut to next point
G1 X5.030 Y-18.321 Z-2.0 A-179.998 F1000.0 ; Cut to next point
G1 X4.998 Y-18.321 Z-2.0 A-179.998 F1000.0 ; Cut to next point
G1 X4.966 Y-18.321 Z-2.0 A-179.998 F1000.0 ; Cut to next point
G1 X4.934 Y-18.321 Z-2.0 A-179.998 F1000.0 ; Cut to next point
G1 X4.902 Y-18.321 Z-2.0 A-179.998 F1000.0 ; Cut to next point
G1 X4.870 Y-18.321 Z-2.0 A-179.998 F1000.0 ; Cut to next point
G1 X4.838 Y-18.321 Z-2.0 A-179.998 F1000.0 ; Cut to next point
G1 X4.806 Y-18.321 Z-2.0 A-179.998 F1000.0 ; Cut to next point
G1 X4.774 Y-18.321 Z-2.0 A-179.998 F1000.0 ; Cut to next point
G1 X4.742 Y-18.321 Z-2.0 A-179.998 F1000.0 ; Cut to next point
G1 X4.710 Y-18.321 Z-2.0 A-179.998 F1000.0 ; Cut to next point
G1 X4.678 Y-18.321 Z-2.0 A-179.998 F1000.0 ; Cut to next point
G1 X4.646 Y-18.321 Z-2.0 A-179.998 F1000.0 ; Cut to next point
G1 X4.614 Y-18.321 Z-2.0 A-179.998 F1000.0 ; Cut to next point
G1 X4.582 Y-18.321 Z-2.0 A-179.998 F1000.0 ; Cut to next point
G1 X4.550 Y-18.321 Z-2.0 A-179.998 F1000.0 ; Cut to next point
G1 X4.518 Y-18.321 Z-2.0 A-179.998 F1000.0 ; Cut to next point
G1 X4.486 Y-18.321 Z-2.0 A-179.998 F1000.0 ; Cut to next point
G1 X4.454 Y-18.321 Z-2.0 A-179.998 F1000.0 ; Cut to next point
G1 X4.422 Y-18.321 Z-2.0 A-179.998 F1000.0 ; Cut to next point
G1 X4.390 Y-18.321 Z-2.0 A-179.998 F1000.0 ; Cut to next point
G1 X4.358 Y-18.321 Z-2.0 A-179.998 F1000.0 ; Cut to next point
G1 X4.326 Y-18.321 Z-2.0 A-179.998 F1000.0 ; Cut to next point
G1 X4.294 Y-18.321 Z-2.0 A-179.998 F1000.0 ; Cut to next point
G1 X4.262 Y-18.321 Z-2.0 A-179.998 F1000.0 ; Cut to next point
G1 X4.230 Y-18.321 Z-2.0 A-179.998 F1000.0 ; Cut to next point
G1 X4.198 Y-18.321 Z-2.0 A-179.998 F1000.0 ; Cut to next point
G1 X4.166 Y-18.321 Z-2.0 A-179.998 F1000.0 ; Cut to next point
G1 X4.134 Y-18.321 Z-2.0 A-179.998 F1000.0 ; Cut to next point
G1 X4.102 Y-18.321 Z-2.0 A-179.998 F1000.0 ; Cut to next point
G1 X4.069 Y-18.321 Z-2.0 A-179.998 F1000.0 ; Cut to next point
G1 X4.037 Y-18.321 Z-2.0 A-179.998 F1000.0 ; Cut to next point
G1 X4.005 Y-18.321 Z-2.0 A-179.999 F1000.0 ; Cut to next point
G1 X4.005 Y-18.321 Z-2.0 A0.000 F1000.0 ; Cut to next point
G1 X3.950 Y-18.321 Z-2.0 A-179.999 F1000.0 ; Cut to next point
G1 X3.895 Y-18.321 Z-2.0 A-179.999 F1000.0 ; Cut to next point
G1 X3.840 Y-18.321 Z-2.0 A-179.999 F1000.0 ; Cut to next point
G1 X3.785 Y-18.321 Z-2.0 A-179.999 F1000.0 ; Cut to next point
G1 X3.730 Y-18.321 Z-2.0 A-179.999 F1000.0 ; Cut to next point
G1 X3.675 Y-18.321 Z-2.0 A-179.999 F1000.0 ; Cut to next point
G1 X3.620 Y-18.321 Z-2.0 A-179.999 F1000.0 ; Cut to next point
G1 X3.565 Y-18.321 Z-2.0 A-179.999 F1000.0 ; Cut to next point
G1 X3.510 Y-18.321 Z-2.0 A-179.999 F1000.0 ; Cut to next point
G1 X3.455 Y-18.321 Z-2.0 A-179.999 F1000.0 ; Cut to next point
G1 X3.400 Y-18.321 Z-2.0 A-179.999 F1000.0 ; Cut to next point
G1 X3.345 Y-18.321 Z-2.0 A-179.999 F1000.0 ; Cut to next point
G1 X3.290 Y-18.321 Z-2.0 A-179.999 F1000.0 ; Cut to next point
G1 X3.235 Y-18.321 Z-2.0 A-179.999 F1000.0 ; Cut to next point
G1 X3.180 Y-18.321 Z-2.0 A-179.999 F1000.0 ; Cut to next point
G1 X3.125 Y-18.321 Z-2.0 A-179.999 F1000.0 ; Cut to next point
G1 X3.070 Y-18.321 Z-2.0 A-179.999 F1000.0 ; Cut to next point
G1 X3.015 Y-18.321 Z-2.0 A-179.999 F1000.0 ; Cut to next point
G1 X2.960 Y-18.321 Z-2.0 A-179.999 F1000.0 ; Cut to next point
G1 X2.905 Y-18.321 Z-2.0 A-179.999 F1000.0 ; Cut to next point
G1 X2.850 Y-18.321 Z-2.0 A-179.999 F1000.0 ; Cut to next point
G1 X2.795 Y-18.321 Z-2.0 A-179.999 F1000.0 ; Cut to next point
G1 X2.740 Y-18.321 Z-2.0 A-179.999 F1000.0 ; Cut to next point
G1 X2.685 Y-18.321 Z-2.0 A-179.999 F1000.0 ; Cut to next point
G1 X2.630 Y-18.321 Z-2.0 A-179.999 F1000.0 ; Cut to next point
G1 X2.575 Y-18.321 Z-2.0 A-179.999 F1000.0 ; Cut to next point
G1 X2.520 Y-18.321 Z-2.0 A-179.999 F1000.0 ; Cut to next point
G1 X2.465 Y-18.321 Z-2.0 A-179.999 F1000.0 ; Cut to next point
G1 X2.410 Y-18.321 Z-2.0 A-179.999 F1000.0 ; Cut to next point
G1 X2.355 Y-18.321 Z-2.0 A-180.000 F1000.0 ; Cut to next point
G1 X2.300 Y-18.321 Z-2.0 A-180.000 F1000.0 ; Cut to next point
G1 X2.245 Y-18.321 Z-2.0 A-180.000 F1000.0 ; Cut to next point
G1 X2.190 Y-18.321 Z-2.0 A-180.000 F1000.0 ; Cut to next point
G1 X2.135 Y-18.321 Z-2.0 A-180.000 F1000.0 ; Cut to next point
G1 X2.080 Y-18.321 Z-2.0 A-180.000 F1000.0 ; Cut to next point
G1 X2.025 Y-18.321 Z-2.0 A-180.000 F1000.0 ; Cut to next point
G1 X1.970 Y-18.321 Z-2.0 A-180.000 F1000.0 ; Cut to next point
G1 X1.915 Y-18.321 Z-2.0 A-180.000 F1000.0 ; Cut to next point
G1 X1.860 Y-18.321 Z-2.0 A-180.000 F1000.0 ; Cut to next point
G1 X1.805 Y-18.321 Z-2.0 A-180.000 F1000.0 ; Cut to next point
G1 X1.750 Y-18.321 Z-2.0 A-180.000 F1000.0 ; Cut to next point
G1 X1.695 Y-18.321 Z-2.0 A-180.000 F1000.0 ; Cut to next point
G1 X1.640 Y-18.321 Z-2.0 A-180.000 F1000.0 ; Cut to next point
G1 X1.585 Y-18.321 Z-2.0 A-180.000 F1000.0 ; Cut to next point
G1 X1.530 Y-18.321 Z-2.0 A-180.000 F1000.0 ; Cut to next point
G1 X1.475 Y-18.321 Z-2.0 A-180.000 F1000.0 ; Cut to next point
G1 X1.420 Y-18.321 Z-2.0 A-180.000 F1000.0 ; Cut to next point
G1 X1.365 Y-18.321 Z-2.0 A-180.000 F1000.0 ; Cut to next point
G1 X1.310 Y-18.321 Z-2.0 A180.000 F1000.0 ; Cut to next point
G1 X1.255 Y-18.321 Z-2.0 A180.000 F1000.0 ; Cut to next point
G1 X1.200 Y-18.321 Z-2.0 A180.000 F1000.0 ; Cut to next point
