; Fabric CNC Toolpath
; Generated by ToolpathGenerator

G21 ; Set units to millimeters
G90 ; Set absolute positioning
G28 ; Home all axes

G0 Z5.0 ; Move to safe height

; Shape: merged_shape_0
G0 X22.631 Y-18.288 ; Move to start
G0 Z-2.0 ; Plunge to cutting height
G1 X22.649 Y-18.342 A-71.763 F1000.0 ; Cut to next point
G1 X22.667 Y-18.396 A-71.774 F1000.0 ; Cut to next point
G1 X22.684 Y-18.451 A-71.795 F1000.0 ; Cut to next point
G1 X22.702 Y-18.505 A-71.827 F1000.0 ; Cut to next point
G1 X22.720 Y-18.559 A-71.869 F1000.0 ; Cut to next point
G1 X22.738 Y-18.613 A-71.922 F1000.0 ; Cut to next point
G1 X22.755 Y-18.668 A-71.986 F1000.0 ; Cut to next point
G1 X22.773 Y-18.722 A-72.060 F1000.0 ; Cut to next point
G1 X22.790 Y-18.776 A-72.145 F1000.0 ; Cut to next point
G1 X22.808 Y-18.831 A-72.240 F1000.0 ; Cut to next point
G1 X22.825 Y-18.885 A-72.347 F1000.0 ; Cut to next point
G1 X22.842 Y-18.940 A-72.463 F1000.0 ; Cut to next point
G1 X22.859 Y-18.994 A-72.591 F1000.0 ; Cut to next point
G1 X22.876 Y-19.048 A-72.729 F1000.0 ; Cut to next point
G1 X22.893 Y-19.103 A-72.877 F1000.0 ; Cut to next point
G1 X22.910 Y-19.158 A-73.037 F1000.0 ; Cut to next point
G1 X22.926 Y-19.212 A-73.206 F1000.0 ; Cut to next point
G1 X22.943 Y-19.267 A-73.387 F1000.0 ; Cut to next point
G1 X22.959 Y-19.322 A-73.578 F1000.0 ; Cut to next point
G1 X22.975 Y-19.376 A-73.780 F1000.0 ; Cut to next point
G1 X22.990 Y-19.431 A-73.992 F1000.0 ; Cut to next point
G1 X23.006 Y-19.486 A-74.215 F1000.0 ; Cut to next point
G1 X23.021 Y-19.541 A-74.446 F1000.0 ; Cut to next point
G1 X23.036 Y-19.596 A-74.663 F1000.0 ; Cut to next point
G1 X23.051 Y-19.651 A-74.850 F1000.0 ; Cut to next point
G1 X23.066 Y-19.706 A-75.015 F1000.0 ; Cut to next point
G1 X23.081 Y-19.762 A-75.174 F1000.0 ; Cut to next point
G1 X23.095 Y-19.817 A-75.334 F1000.0 ; Cut to next point
G1 X23.109 Y-19.872 A-75.494 F1000.0 ; Cut to next point
G1 X23.124 Y-19.927 A-75.654 F1000.0 ; Cut to next point
G1 X23.138 Y-19.983 A-75.815 F1000.0 ; Cut to next point
G1 X23.151 Y-20.038 A-75.975 F1000.0 ; Cut to next point
G1 X23.165 Y-20.094 A-76.136 F1000.0 ; Cut to next point
G1 X23.179 Y-20.149 A-76.297 F1000.0 ; Cut to next point
G1 X23.192 Y-20.204 A-76.458 F1000.0 ; Cut to next point
G1 X23.205 Y-20.260 A-76.620 F1000.0 ; Cut to next point
G1 X23.218 Y-20.316 A-76.782 F1000.0 ; Cut to next point
G1 X23.231 Y-20.371 A-76.944 F1000.0 ; Cut to next point
G1 X23.244 Y-20.427 A-77.106 F1000.0 ; Cut to next point
G1 X23.256 Y-20.483 A-77.268 F1000.0 ; Cut to next point
G1 X23.269 Y-20.538 A-77.431 F1000.0 ; Cut to next point
G1 X23.281 Y-20.594 A-77.594 F1000.0 ; Cut to next point
G1 X23.293 Y-20.650 A-77.757 F1000.0 ; Cut to next point
G1 X23.305 Y-20.706 A-77.920 F1000.0 ; Cut to next point
G1 X23.317 Y-20.761 A-78.084 F1000.0 ; Cut to next point
G1 X23.329 Y-20.817 A-78.248 F1000.0 ; Cut to next point
G1 X23.340 Y-20.873 A-78.412 F1000.0 ; Cut to next point
G1 X23.351 Y-20.929 A-78.576 F1000.0 ; Cut to next point
G1 X23.363 Y-20.985 A-78.740 F1000.0 ; Cut to next point
G1 X23.374 Y-21.041 A-78.905 F1000.0 ; Cut to next point
G1 X23.384 Y-21.097 A-79.070 F1000.0 ; Cut to next point
G1 X23.395 Y-21.153 A-79.235 F1000.0 ; Cut to next point
G1 X23.405 Y-21.209 A-79.400 F1000.0 ; Cut to next point
G1 X23.416 Y-21.266 A-79.564 F1000.0 ; Cut to next point
G1 X23.426 Y-21.322 A-79.729 F1000.0 ; Cut to next point
G1 X23.436 Y-21.378 A-79.893 F1000.0 ; Cut to next point
G1 X23.446 Y-21.434 A-80.057 F1000.0 ; Cut to next point
G1 X23.456 Y-21.490 A-80.221 F1000.0 ; Cut to next point
G1 X23.465 Y-21.547 A-80.385 F1000.0 ; Cut to next point
G1 X23.474 Y-21.603 A-80.549 F1000.0 ; Cut to next point
G1 X23.484 Y-21.659 A-80.712 F1000.0 ; Cut to next point
G1 X23.493 Y-21.716 A-80.876 F1000.0 ; Cut to next point
G1 X23.502 Y-21.772 A-81.039 F1000.0 ; Cut to next point
G1 X23.510 Y-21.828 A-81.202 F1000.0 ; Cut to next point
G1 X23.519 Y-21.885 A-81.365 F1000.0 ; Cut to next point
G1 X23.527 Y-21.941 A-81.528 F1000.0 ; Cut to next point
G1 X23.536 Y-21.998 A-81.691 F1000.0 ; Cut to next point
G1 X23.544 Y-22.054 A-81.854 F1000.0 ; Cut to next point
G1 X23.552 Y-22.111 A-82.017 F1000.0 ; Cut to next point
G1 X23.559 Y-22.167 A-82.181 F1000.0 ; Cut to next point
G1 X23.567 Y-22.224 A-82.345 F1000.0 ; Cut to next point
G1 X23.574 Y-22.280 A-82.509 F1000.0 ; Cut to next point
G1 X23.582 Y-22.337 A-82.673 F1000.0 ; Cut to next point
G1 X23.589 Y-22.394 A-82.838 F1000.0 ; Cut to next point
G1 X23.596 Y-22.450 A-83.003 F1000.0 ; Cut to next point
G1 X23.603 Y-22.507 A-83.165 F1000.0 ; Cut to next point
G1 X23.609 Y-22.564 A-83.313 F1000.0 ; Cut to next point
G1 X23.616 Y-22.620 A-83.459 F1000.0 ; Cut to next point
G1 X23.622 Y-22.677 A-83.612 F1000.0 ; Cut to next point
G1 X23.628 Y-22.734 A-83.771 F1000.0 ; Cut to next point
G1 X23.634 Y-22.791 A-83.936 F1000.0 ; Cut to next point
G1 X23.640 Y-22.847 A-84.107 F1000.0 ; Cut to next point
G1 X23.646 Y-22.904 A-84.285 F1000.0 ; Cut to next point
G1 X23.651 Y-22.961 A-84.469 F1000.0 ; Cut to next point
G1 X23.657 Y-23.018 A-84.660 F1000.0 ; Cut to next point
G1 X23.662 Y-23.075 A-84.856 F1000.0 ; Cut to next point
G1 X23.667 Y-23.131 A-85.059 F1000.0 ; Cut to next point
G1 X23.671 Y-23.188 A-85.268 F1000.0 ; Cut to next point
G1 X23.676 Y-23.245 A-85.470 F1000.0 ; Cut to next point
G1 X23.680 Y-23.302 A-85.655 F1000.0 ; Cut to next point
G1 X23.684 Y-23.359 A-85.824 F1000.0 ; Cut to next point
G1 X23.688 Y-23.416 A-85.975 F1000.0 ; Cut to next point
G1 X23.692 Y-23.473 A-86.110 F1000.0 ; Cut to next point
G1 X23.696 Y-23.530 A-86.228 F1000.0 ; Cut to next point
G1 X23.700 Y-23.587 A-86.329 F1000.0 ; Cut to next point
G1 X23.703 Y-23.644 A-86.414 F1000.0 ; Cut to next point
G1 X23.707 Y-23.701 A-86.481 F1000.0 ; Cut to next point
G1 X23.710 Y-23.758 A-86.531 F1000.0 ; Cut to next point
G1 X23.714 Y-23.815 A-86.565 F1000.0 ; Cut to next point
G1 X23.717 Y-23.872 A-86.582 F1000.0 ; Cut to next point
G1 X23.721 Y-23.926 A-85.966 F1000.0 ; Cut to next point
G1 X23.725 Y-23.981 A-85.953 F1000.0 ; Cut to next point
G1 X23.729 Y-24.035 A-85.926 F1000.0 ; Cut to next point
G1 X23.732 Y-24.090 A-85.885 F1000.0 ; Cut to next point
G1 X23.736 Y-24.144 A-85.832 F1000.0 ; Cut to next point
G1 X23.740 Y-24.199 A-85.765 F1000.0 ; Cut to next point
G1 X23.745 Y-24.253 A-85.684 F1000.0 ; Cut to next point
G1 X23.749 Y-24.308 A-85.590 F1000.0 ; Cut to next point
G1 X23.753 Y-24.362 A-85.482 F1000.0 ; Cut to next point
G1 X23.758 Y-24.416 A-85.361 F1000.0 ; Cut to next point
G1 X23.762 Y-24.471 A-85.227 F1000.0 ; Cut to next point
G1 X23.767 Y-24.525 A-85.079 F1000.0 ; Cut to next point
G1 X23.772 Y-24.580 A-84.917 F1000.0 ; Cut to next point
G1 X23.777 Y-24.634 A-84.743 F1000.0 ; Cut to next point
G1 X23.782 Y-24.688 A-84.554 F1000.0 ; Cut to next point
G1 X23.787 Y-24.743 A-84.352 F1000.0 ; Cut to next point
G1 X23.793 Y-24.797 A-84.137 F1000.0 ; Cut to next point
G1 X23.798 Y-24.851 A-83.908 F1000.0 ; Cut to next point
G1 X23.805 Y-24.905 A-83.666 F1000.0 ; Cut to next point
G1 X23.811 Y-24.960 A-83.410 F1000.0 ; Cut to next point
G1 X23.817 Y-25.014 A-83.141 F1000.0 ; Cut to next point
G1 X23.824 Y-25.068 A-82.864 F1000.0 ; Cut to next point
G1 X23.831 Y-25.122 A-82.594 F1000.0 ; Cut to next point
G1 X23.838 Y-25.176 A-82.332 F1000.0 ; Cut to next point
G1 X23.846 Y-25.230 A-82.078 F1000.0 ; Cut to next point
G1 X23.854 Y-25.284 A-81.832 F1000.0 ; Cut to next point
G1 X23.862 Y-25.338 A-81.595 F1000.0 ; Cut to next point
G1 X23.870 Y-25.392 A-81.367 F1000.0 ; Cut to next point
G1 X23.878 Y-25.446 A-81.146 F1000.0 ; Cut to next point
G1 X23.887 Y-25.500 A-80.934 F1000.0 ; Cut to next point
G1 X23.896 Y-25.554 A-80.730 F1000.0 ; Cut to next point
G1 X23.905 Y-25.608 A-80.535 F1000.0 ; Cut to next point
G1 X23.914 Y-25.662 A-80.344 F1000.0 ; Cut to next point
G1 X23.923 Y-25.716 A-80.153 F1000.0 ; Cut to next point
G1 X23.933 Y-25.770 A-79.958 F1000.0 ; Cut to next point
G1 X23.942 Y-25.823 A-79.762 F1000.0 ; Cut to next point
G1 X23.952 Y-25.877 A-79.563 F1000.0 ; Cut to next point
G1 X23.962 Y-25.931 A-79.362 F1000.0 ; Cut to next point
G1 X23.973 Y-25.984 A-79.158 F1000.0 ; Cut to next point
G1 X23.983 Y-26.038 A-78.952 F1000.0 ; Cut to next point
G1 X23.994 Y-26.091 A-78.744 F1000.0 ; Cut to next point
G1 X24.005 Y-26.145 A-78.533 F1000.0 ; Cut to next point
G1 X24.016 Y-26.198 A-78.321 F1000.0 ; Cut to next point
G1 X24.027 Y-26.252 A-78.109 F1000.0 ; Cut to next point
G1 X24.038 Y-26.305 A-77.898 F1000.0 ; Cut to next point
G1 X24.050 Y-26.359 A-77.686 F1000.0 ; Cut to next point
G1 X24.062 Y-26.412 A-77.475 F1000.0 ; Cut to next point
G1 X24.074 Y-26.465 A-77.264 F1000.0 ; Cut to next point
G1 X24.086 Y-26.518 A-77.054 F1000.0 ; Cut to next point
G1 X24.099 Y-26.572 A-76.843 F1000.0 ; Cut to next point
G1 X24.111 Y-26.625 A-76.633 F1000.0 ; Cut to next point
G1 X24.124 Y-26.678 A-76.423 F1000.0 ; Cut to next point
G1 X24.137 Y-26.731 A-76.213 F1000.0 ; Cut to next point
G1 X24.150 Y-26.784 A-76.004 F1000.0 ; Cut to next point
G1 X24.164 Y-26.837 A-75.794 F1000.0 ; Cut to next point
G1 X24.177 Y-26.890 A-75.585 F1000.0 ; Cut to next point
G1 X24.191 Y-26.942 A-75.377 F1000.0 ; Cut to next point
G1 X24.205 Y-26.995 A-75.168 F1000.0 ; Cut to next point
G1 X24.219 Y-27.048 A-74.959 F1000.0 ; Cut to next point
G1 X24.234 Y-27.101 A-74.751 F1000.0 ; Cut to next point
G1 X24.248 Y-27.153 A-74.543 F1000.0 ; Cut to next point
G1 X24.263 Y-27.206 A-74.335 F1000.0 ; Cut to next point
G1 X24.278 Y-27.258 A-74.127 F1000.0 ; Cut to next point
G1 X24.293 Y-27.311 A-73.920 F1000.0 ; Cut to next point
G1 X24.308 Y-27.363 A-73.712 F1000.0 ; Cut to next point
G1 X24.324 Y-27.416 A-73.504 F1000.0 ; Cut to next point
G1 X24.339 Y-27.468 A-73.296 F1000.0 ; Cut to next point
G1 X24.355 Y-27.520 A-73.088 F1000.0 ; Cut to next point
G1 X24.371 Y-27.572 A-72.880 F1000.0 ; Cut to next point
G1 X24.388 Y-27.625 A-72.672 F1000.0 ; Cut to next point
G1 X24.404 Y-27.677 A-72.464 F1000.0 ; Cut to next point
G1 X24.421 Y-27.729 A-72.256 F1000.0 ; Cut to next point
G1 X24.438 Y-27.781 A-72.047 F1000.0 ; Cut to next point
G1 X24.455 Y-27.832 A-71.839 F1000.0 ; Cut to next point
G1 X24.472 Y-27.884 A-71.630 F1000.0 ; Cut to next point
G1 X24.489 Y-27.936 A-71.421 F1000.0 ; Cut to next point
G1 X24.507 Y-27.988 A-71.213 F1000.0 ; Cut to next point
G1 X24.525 Y-28.039 A-71.004 F1000.0 ; Cut to next point
G1 X24.543 Y-28.091 A-70.795 F1000.0 ; Cut to next point
G1 X24.561 Y-28.142 A-70.586 F1000.0 ; Cut to next point
G1 X24.579 Y-28.194 A-70.377 F1000.0 ; Cut to next point
G1 X24.598 Y-28.245 A-70.169 F1000.0 ; Cut to next point
G1 X24.616 Y-28.297 A-69.960 F1000.0 ; Cut to next point
G1 X24.635 Y-28.348 A-69.750 F1000.0 ; Cut to next point
G1 X24.654 Y-28.399 A-69.538 F1000.0 ; Cut to next point
G1 X24.673 Y-28.450 A-69.327 F1000.0 ; Cut to next point
G1 X24.693 Y-28.501 A-69.116 F1000.0 ; Cut to next point
G1 X24.713 Y-28.552 A-68.906 F1000.0 ; Cut to next point
G1 X24.732 Y-28.603 A-68.697 F1000.0 ; Cut to next point
G1 X24.752 Y-28.654 A-68.488 F1000.0 ; Cut to next point
G1 X24.773 Y-28.704 A-68.280 F1000.0 ; Cut to next point
G1 X24.793 Y-28.755 A-68.073 F1000.0 ; Cut to next point
G1 X24.814 Y-28.806 A-67.866 F1000.0 ; Cut to next point
G1 X24.834 Y-28.856 A-67.659 F1000.0 ; Cut to next point
G1 X24.855 Y-28.907 A-67.453 F1000.0 ; Cut to next point
G1 X24.876 Y-28.957 A-67.248 F1000.0 ; Cut to next point
G1 X24.898 Y-29.007 A-67.043 F1000.0 ; Cut to next point
G1 X24.919 Y-29.057 A-66.839 F1000.0 ; Cut to next point
G1 X24.941 Y-29.108 A-66.636 F1000.0 ; Cut to next point
G1 X24.963 Y-29.158 A-66.433 F1000.0 ; Cut to next point
G1 X24.985 Y-29.208 A-66.230 F1000.0 ; Cut to next point
G1 X25.007 Y-29.258 A-66.028 F1000.0 ; Cut to next point
G1 X25.029 Y-29.307 A-65.812 F1000.0 ; Cut to next point
G1 X25.052 Y-29.357 A-65.558 F1000.0 ; Cut to next point
G1 X25.075 Y-29.407 A-65.268 F1000.0 ; Cut to next point
G1 X25.098 Y-29.456 A-64.978 F1000.0 ; Cut to next point
G1 X25.121 Y-29.505 A-64.702 F1000.0 ; Cut to next point
G1 X25.145 Y-29.555 A-64.441 F1000.0 ; Cut to next point
G1 X25.168 Y-29.604 A-64.194 F1000.0 ; Cut to next point
G1 X25.192 Y-29.653 A-63.962 F1000.0 ; Cut to next point
G1 X25.217 Y-29.702 A-63.744 F1000.0 ; Cut to next point
G1 X25.241 Y-29.751 A-63.541 F1000.0 ; Cut to next point
G1 X25.265 Y-29.800 A-63.352 F1000.0 ; Cut to next point
G1 X25.290 Y-29.848 A-63.178 F1000.0 ; Cut to next point
G1 X25.315 Y-29.897 A-63.019 F1000.0 ; Cut to next point
G1 X25.340 Y-29.946 A-62.874 F1000.0 ; Cut to next point
G1 X25.365 Y-29.994 A-62.743 F1000.0 ; Cut to next point
G1 X25.390 Y-30.043 A-62.627 F1000.0 ; Cut to next point
G1 X25.415 Y-30.091 A-62.526 F1000.0 ; Cut to next point
G1 X25.440 Y-30.139 A-62.439 F1000.0 ; Cut to next point
G1 X25.466 Y-30.188 A-62.366 F1000.0 ; Cut to next point
G1 X25.491 Y-30.236 A-62.308 F1000.0 ; Cut to next point
G1 X25.516 Y-30.285 A-62.264 F1000.0 ; Cut to next point
G1 X25.542 Y-30.333 A-62.235 F1000.0 ; Cut to next point
G1 X25.567 Y-30.381 A-62.221 F1000.0 ; Cut to next point
G1 X25.594 Y-30.429 A-60.466 F1000.0 ; Cut to next point
G1 X25.621 Y-30.477 A-60.440 F1000.0 ; Cut to next point
G1 X25.649 Y-30.524 A-60.388 F1000.0 ; Cut to next point
G1 X25.676 Y-30.572 A-60.311 F1000.0 ; Cut to next point
G1 X25.703 Y-30.620 A-60.208 F1000.0 ; Cut to next point
G1 X25.730 Y-30.667 A-60.080 F1000.0 ; Cut to next point
G1 X25.758 Y-30.715 A-59.926 F1000.0 ; Cut to next point
G1 X25.785 Y-30.762 A-59.746 F1000.0 ; Cut to next point
G1 X25.813 Y-30.809 A-59.541 F1000.0 ; Cut to next point
G1 X25.841 Y-30.856 A-59.310 F1000.0 ; Cut to next point
G1 X25.869 Y-30.903 A-59.055 F1000.0 ; Cut to next point
G1 X25.898 Y-30.950 A-58.795 F1000.0 ; Cut to next point
G1 X25.926 Y-30.997 A-58.541 F1000.0 ; Cut to next point
G1 X25.955 Y-31.044 A-58.294 F1000.0 ; Cut to next point
G1 X25.984 Y-31.090 A-58.053 F1000.0 ; Cut to next point
G1 X26.013 Y-31.137 A-57.819 F1000.0 ; Cut to next point
G1 X26.043 Y-31.183 A-57.592 F1000.0 ; Cut to next point
G1 X26.072 Y-31.229 A-57.371 F1000.0 ; Cut to next point
G1 X26.102 Y-31.275 A-57.157 F1000.0 ; Cut to next point
G1 X26.132 Y-31.321 A-56.949 F1000.0 ; Cut to next point
G1 X26.162 Y-31.367 A-56.748 F1000.0 ; Cut to next point
G1 X26.192 Y-31.413 A-56.551 F1000.0 ; Cut to next point
G1 X26.223 Y-31.458 A-56.354 F1000.0 ; Cut to next point
G1 X26.253 Y-31.504 A-56.155 F1000.0 ; Cut to next point
G1 X26.284 Y-31.549 A-55.955 F1000.0 ; Cut to next point
G1 X26.315 Y-31.595 A-55.753 F1000.0 ; Cut to next point
G1 X26.346 Y-31.640 A-55.550 F1000.0 ; Cut to next point
G1 X26.377 Y-31.685 A-55.345 F1000.0 ; Cut to next point
G1 X26.408 Y-31.730 A-55.139 F1000.0 ; Cut to next point
G1 X26.440 Y-31.775 A-54.931 F1000.0 ; Cut to next point
G1 X26.472 Y-31.820 A-54.722 F1000.0 ; Cut to next point
G1 X26.503 Y-31.864 A-54.511 F1000.0 ; Cut to next point
G1 X26.535 Y-31.909 A-54.299 F1000.0 ; Cut to next point
G1 X26.568 Y-31.953 A-54.086 F1000.0 ; Cut to next point
G1 X26.600 Y-31.998 A-53.870 F1000.0 ; Cut to next point
G1 X26.632 Y-32.042 A-53.658 F1000.0 ; Cut to next point
G1 X26.665 Y-32.086 A-53.449 F1000.0 ; Cut to next point
G1 X26.698 Y-32.130 A-53.240 F1000.0 ; Cut to next point
G1 X26.731 Y-32.174 A-53.030 F1000.0 ; Cut to next point
G1 X26.764 Y-32.217 A-52.821 F1000.0 ; Cut to next point
G1 X26.797 Y-32.261 A-52.612 F1000.0 ; Cut to next point
G1 X26.831 Y-32.304 A-52.402 F1000.0 ; Cut to next point
G1 X26.864 Y-32.348 A-52.193 F1000.0 ; Cut to next point
G1 X26.898 Y-32.391 A-51.983 F1000.0 ; Cut to next point
G1 X26.932 Y-32.434 A-51.774 F1000.0 ; Cut to next point
G1 X26.966 Y-32.477 A-51.564 F1000.0 ; Cut to next point
G1 X27.001 Y-32.520 A-51.355 F1000.0 ; Cut to next point
G1 X27.035 Y-32.563 A-51.145 F1000.0 ; Cut to next point
G1 X27.070 Y-32.605 A-50.936 F1000.0 ; Cut to next point
G1 X27.104 Y-32.648 A-50.726 F1000.0 ; Cut to next point
G1 X27.139 Y-32.690 A-50.517 F1000.0 ; Cut to next point
