; Fabric CNC Toolpath
; Generated by ToolpathGenerator

G21 ; Set units to millimeters
G90 ; Set absolute positioning
G28 ; Home all axes

G0 Z5.0 ; Move to safe height

; Shape: merged_shape_0
G0 X6.484 Y-21.215 ; Move to start
G0 Z-2.0 ; Plunge to cutting height
G1 X6.495 Y-21.162 A78.184 F1000.0 ; Cut to next point
G1 X6.506 Y-21.109 A78.149 F1000.0 ; Cut to next point
G1 X6.517 Y-21.057 A78.083 F1000.0 ; Cut to next point
G1 X6.528 Y-21.005 A77.984 F1000.0 ; Cut to next point
G1 X6.539 Y-20.953 A77.850 F1000.0 ; Cut to next point
G1 X6.551 Y-20.901 A77.696 F1000.0 ; Cut to next point
G1 X6.562 Y-20.849 A77.539 F1000.0 ; Cut to next point
G1 X6.574 Y-20.797 A77.394 F1000.0 ; Cut to next point
G1 X6.586 Y-20.745 A77.264 F1000.0 ; Cut to next point
G1 X6.597 Y-20.693 A77.147 F1000.0 ; Cut to next point
G1 X6.609 Y-20.641 A77.036 F1000.0 ; Cut to next point
G1 X6.622 Y-20.589 A76.932 F1000.0 ; Cut to next point
G1 X6.634 Y-20.537 A76.831 F1000.0 ; Cut to next point
G1 X6.646 Y-20.485 A76.729 F1000.0 ; Cut to next point
G1 X6.658 Y-20.433 A76.627 F1000.0 ; Cut to next point
G1 X6.671 Y-20.381 A76.527 F1000.0 ; Cut to next point
G1 X6.683 Y-20.329 A76.429 F1000.0 ; Cut to next point
G1 X6.696 Y-20.277 A76.335 F1000.0 ; Cut to next point
G1 X6.709 Y-20.225 A76.244 F1000.0 ; Cut to next point
G1 X6.721 Y-20.174 A76.157 F1000.0 ; Cut to next point
G1 X6.734 Y-20.122 A76.073 F1000.0 ; Cut to next point
G1 X6.747 Y-20.070 A75.992 F1000.0 ; Cut to next point
G1 X6.760 Y-20.018 A75.914 F1000.0 ; Cut to next point
G1 X6.773 Y-19.966 A75.840 F1000.0 ; Cut to next point
G1 X6.787 Y-19.914 A75.769 F1000.0 ; Cut to next point
G1 X6.800 Y-19.862 A75.701 F1000.0 ; Cut to next point
G1 X6.813 Y-19.810 A75.636 F1000.0 ; Cut to next point
G1 X6.827 Y-19.758 A75.574 F1000.0 ; Cut to next point
G1 X6.840 Y-19.706 A75.515 F1000.0 ; Cut to next point
G1 X6.853 Y-19.654 A75.459 F1000.0 ; Cut to next point
G1 X6.867 Y-19.602 A75.407 F1000.0 ; Cut to next point
G1 X6.881 Y-19.550 A75.358 F1000.0 ; Cut to next point
G1 X6.894 Y-19.498 A75.312 F1000.0 ; Cut to next point
G1 X6.908 Y-19.446 A75.269 F1000.0 ; Cut to next point
G1 X6.922 Y-19.394 A75.229 F1000.0 ; Cut to next point
G1 X6.935 Y-19.342 A75.192 F1000.0 ; Cut to next point
G1 X6.949 Y-19.289 A75.159 F1000.0 ; Cut to next point
G1 X6.963 Y-19.237 A75.128 F1000.0 ; Cut to next point
G1 X6.977 Y-19.185 A75.101 F1000.0 ; Cut to next point
G1 X6.991 Y-19.133 A75.077 F1000.0 ; Cut to next point
G1 X7.005 Y-19.081 A75.057 F1000.0 ; Cut to next point
G1 X7.019 Y-19.029 A75.039 F1000.0 ; Cut to next point
G1 X7.033 Y-18.977 A75.024 F1000.0 ; Cut to next point
G1 X7.047 Y-18.925 A75.013 F1000.0 ; Cut to next point
G1 X7.061 Y-18.872 A75.004 F1000.0 ; Cut to next point
G1 X7.075 Y-18.820 A74.999 F1000.0 ; Cut to next point
G1 X7.089 Y-18.768 A74.997 F1000.0 ; Cut to next point
G1 X7.103 Y-18.716 A74.997 F1000.0 ; Cut to next point
G1 X7.117 Y-18.664 A74.997 F1000.0 ; Cut to next point
G1 X7.131 Y-18.611 A74.997 F1000.0 ; Cut to next point
G1 X7.145 Y-18.559 A74.997 F1000.0 ; Cut to next point
G1 X7.159 Y-18.507 A74.997 F1000.0 ; Cut to next point
G1 X7.173 Y-18.455 A74.997 F1000.0 ; Cut to next point
G1 X7.186 Y-18.402 A74.997 F1000.0 ; Cut to next point
G1 X7.200 Y-18.350 A74.997 F1000.0 ; Cut to next point
G0 Z5.0 ; Raise Z for corner
G0 A146.280 ; Rotate Z for corner
G0 X7.157 Y-18.321 ; Move to next point
G1 Z-2.0 F200.0 ; Lower Z to cutting height
G0 Z5.0 ; Raise Z for corner
G0 A-179.998 ; Rotate Z for corner
G0 X7.106 Y-18.321 ; Move to next point
G1 Z-2.0 F200.0 ; Lower Z to cutting height
G1 X7.055 Y-18.321 A-179.998 F1000.0 ; Cut to next point
G1 X7.003 Y-18.321 A-179.998 F1000.0 ; Cut to next point
G1 X6.952 Y-18.321 A-179.998 F1000.0 ; Cut to next point
G1 X6.901 Y-18.321 A-179.998 F1000.0 ; Cut to next point
G1 X6.850 Y-18.321 A-179.998 F1000.0 ; Cut to next point
G1 X6.798 Y-18.321 A-179.998 F1000.0 ; Cut to next point
G1 X6.747 Y-18.321 A-179.998 F1000.0 ; Cut to next point
G1 X6.696 Y-18.321 A-179.998 F1000.0 ; Cut to next point
G1 X6.645 Y-18.321 A-179.998 F1000.0 ; Cut to next point
G1 X6.593 Y-18.321 A-179.998 F1000.0 ; Cut to next point
G1 X6.542 Y-18.321 A-179.998 F1000.0 ; Cut to next point
G1 X6.491 Y-18.321 A-179.998 F1000.0 ; Cut to next point
G1 X6.440 Y-18.321 A-179.998 F1000.0 ; Cut to next point
G1 X6.388 Y-18.321 A-179.998 F1000.0 ; Cut to next point
G1 X6.337 Y-18.321 A-179.998 F1000.0 ; Cut to next point
G1 X6.286 Y-18.321 A-179.998 F1000.0 ; Cut to next point
G1 X6.235 Y-18.321 A-179.998 F1000.0 ; Cut to next point
G1 X6.183 Y-18.321 A-179.998 F1000.0 ; Cut to next point
G1 X6.132 Y-18.321 A-179.998 F1000.0 ; Cut to next point
G1 X6.081 Y-18.321 A-179.998 F1000.0 ; Cut to next point
G1 X6.030 Y-18.321 A-179.998 F1000.0 ; Cut to next point
G1 X5.978 Y-18.321 A-179.998 F1000.0 ; Cut to next point
G1 X5.927 Y-18.321 A-179.998 F1000.0 ; Cut to next point
G1 X5.876 Y-18.321 A-179.998 F1000.0 ; Cut to next point
G1 X5.825 Y-18.321 A-179.998 F1000.0 ; Cut to next point
G1 X5.773 Y-18.321 A-179.998 F1000.0 ; Cut to next point
G1 X5.722 Y-18.321 A-179.998 F1000.0 ; Cut to next point
G1 X5.671 Y-18.321 A-179.998 F1000.0 ; Cut to next point
G1 X5.620 Y-18.321 A-179.998 F1000.0 ; Cut to next point
G1 X5.568 Y-18.321 A-179.998 F1000.0 ; Cut to next point
G1 X5.517 Y-18.321 A-179.998 F1000.0 ; Cut to next point
G1 X5.466 Y-18.321 A-179.998 F1000.0 ; Cut to next point
G1 X5.415 Y-18.321 A-179.998 F1000.0 ; Cut to next point
G1 X5.363 Y-18.321 A-179.998 F1000.0 ; Cut to next point
G1 X5.312 Y-18.321 A-179.998 F1000.0 ; Cut to next point
G1 X5.261 Y-18.321 A-179.998 F1000.0 ; Cut to next point
G1 X5.210 Y-18.321 A-179.998 F1000.0 ; Cut to next point
G1 X5.158 Y-18.321 A-179.998 F1000.0 ; Cut to next point
G1 X5.107 Y-18.321 A-179.998 F1000.0 ; Cut to next point
G1 X5.056 Y-18.321 A-179.998 F1000.0 ; Cut to next point
G1 X5.005 Y-18.321 A-179.998 F1000.0 ; Cut to next point
G1 X4.953 Y-18.321 A-179.998 F1000.0 ; Cut to next point
G1 X4.902 Y-18.321 A-179.998 F1000.0 ; Cut to next point
G1 X4.851 Y-18.321 A-179.998 F1000.0 ; Cut to next point
G1 X4.800 Y-18.321 A-179.998 F1000.0 ; Cut to next point
G1 X4.748 Y-18.321 A-179.998 F1000.0 ; Cut to next point
G1 X4.697 Y-18.321 A-179.998 F1000.0 ; Cut to next point
G1 X4.646 Y-18.321 A-179.998 F1000.0 ; Cut to next point
G1 X4.595 Y-18.321 A-179.998 F1000.0 ; Cut to next point
G1 X4.544 Y-18.321 A-179.998 F1000.0 ; Cut to next point
G1 X4.492 Y-18.321 A-179.998 F1000.0 ; Cut to next point
G1 X4.441 Y-18.321 A-179.998 F1000.0 ; Cut to next point
G1 X4.390 Y-18.321 A-179.998 F1000.0 ; Cut to next point
G1 X4.339 Y-18.321 A-179.998 F1000.0 ; Cut to next point
G1 X4.287 Y-18.321 A-179.998 F1000.0 ; Cut to next point
G1 X4.236 Y-18.321 A-179.998 F1000.0 ; Cut to next point
G1 X4.185 Y-18.321 A-179.998 F1000.0 ; Cut to next point
G1 X4.134 Y-18.321 A-179.998 F1000.0 ; Cut to next point
G1 X4.082 Y-18.321 A-179.998 F1000.0 ; Cut to next point
G1 X4.031 Y-18.321 A-179.998 F1000.0 ; Cut to next point
G1 X3.950 Y-18.321 A-179.999 F1000.0 ; Cut to next point
G1 X3.895 Y-18.321 A-179.999 F1000.0 ; Cut to next point
G1 X3.840 Y-18.321 A-179.999 F1000.0 ; Cut to next point
G1 X3.785 Y-18.321 A-179.999 F1000.0 ; Cut to next point
G1 X3.730 Y-18.321 A-179.999 F1000.0 ; Cut to next point
G1 X3.675 Y-18.321 A-179.999 F1000.0 ; Cut to next point
G1 X3.620 Y-18.321 A-179.999 F1000.0 ; Cut to next point
G1 X3.565 Y-18.321 A-179.999 F1000.0 ; Cut to next point
G1 X3.510 Y-18.321 A-179.999 F1000.0 ; Cut to next point
G1 X3.455 Y-18.321 A-179.999 F1000.0 ; Cut to next point
G1 X3.400 Y-18.321 A-179.999 F1000.0 ; Cut to next point
G1 X3.345 Y-18.321 A-179.999 F1000.0 ; Cut to next point
G1 X3.290 Y-18.321 A-179.999 F1000.0 ; Cut to next point
G1 X3.235 Y-18.321 A-179.999 F1000.0 ; Cut to next point
G1 X3.180 Y-18.321 A-179.999 F1000.0 ; Cut to next point
G1 X3.125 Y-18.321 A-179.999 F1000.0 ; Cut to next point
G1 X3.070 Y-18.321 A-179.999 F1000.0 ; Cut to next point
G1 X3.015 Y-18.321 A-179.999 F1000.0 ; Cut to next point
G1 X2.960 Y-18.321 A-179.999 F1000.0 ; Cut to next point
G1 X2.905 Y-18.321 A-179.999 F1000.0 ; Cut to next point
G1 X2.850 Y-18.321 A-179.999 F1000.0 ; Cut to next point
G1 X2.795 Y-18.321 A-179.999 F1000.0 ; Cut to next point
G1 X2.740 Y-18.321 A-179.999 F1000.0 ; Cut to next point
G1 X2.685 Y-18.321 A-179.999 F1000.0 ; Cut to next point
G1 X2.630 Y-18.321 A-179.999 F1000.0 ; Cut to next point
G1 X2.575 Y-18.321 A-179.999 F1000.0 ; Cut to next point
G1 X2.520 Y-18.321 A-179.999 F1000.0 ; Cut to next point
G1 X2.465 Y-18.321 A-179.999 F1000.0 ; Cut to next point
G1 X2.410 Y-18.321 A-179.999 F1000.0 ; Cut to next point
G1 X2.355 Y-18.321 A-180.000 F1000.0 ; Cut to next point
G1 X2.300 Y-18.321 A-180.000 F1000.0 ; Cut to next point
G1 X2.245 Y-18.321 A-180.000 F1000.0 ; Cut to next point
G1 X2.190 Y-18.321 A-180.000 F1000.0 ; Cut to next point
G1 X2.135 Y-18.321 A-180.000 F1000.0 ; Cut to next point
G1 X2.080 Y-18.321 A-180.000 F1000.0 ; Cut to next point
G1 X2.025 Y-18.321 A-180.000 F1000.0 ; Cut to next point
G1 X1.970 Y-18.321 A-180.000 F1000.0 ; Cut to next point
G1 X1.915 Y-18.321 A-180.000 F1000.0 ; Cut to next point
G1 X1.860 Y-18.321 A-180.000 F1000.0 ; Cut to next point
G1 X1.805 Y-18.321 A-180.000 F1000.0 ; Cut to next point
G1 X1.750 Y-18.321 A-180.000 F1000.0 ; Cut to next point
G1 X1.695 Y-18.321 A-180.000 F1000.0 ; Cut to next point
G1 X1.640 Y-18.321 A-180.000 F1000.0 ; Cut to next point
G1 X1.585 Y-18.321 A-180.000 F1000.0 ; Cut to next point
G1 X1.530 Y-18.321 A-180.000 F1000.0 ; Cut to next point
G1 X1.475 Y-18.321 A-180.000 F1000.0 ; Cut to next point
G1 X1.420 Y-18.321 A-180.000 F1000.0 ; Cut to next point
G1 X1.365 Y-18.321 A-180.000 F1000.0 ; Cut to next point
G1 X1.310 Y-18.321 A180.000 F1000.0 ; Cut to next point
G1 X1.255 Y-18.321 A180.000 F1000.0 ; Cut to next point
G1 X1.200 Y-18.321 A180.000 F1000.0 ; Cut to next point
G1 X1.145 Y-18.321 A180.000 F1000.0 ; Cut to next point
G1 X1.090 Y-18.321 A180.000 F1000.0 ; Cut to next point
G1 X1.035 Y-18.321 A180.000 F1000.0 ; Cut to next point
G1 X0.980 Y-18.321 A180.000 F1000.0 ; Cut to next point
G1 X0.925 Y-18.321 A180.000 F1000.0 ; Cut to next point
G1 X0.870 Y-18.321 A180.000 F1000.0 ; Cut to next point
G1 X0.815 Y-18.321 A180.000 F1000.0 ; Cut to next point
G1 X0.760 Y-18.321 A180.000 F1000.0 ; Cut to next point
G1 X0.705 Y-18.321 A180.000 F1000.0 ; Cut to next point
G1 X0.650 Y-18.321 A180.000 F1000.0 ; Cut to next point
G1 X0.595 Y-18.321 A180.000 F1000.0 ; Cut to next point
G1 X0.540 Y-18.321 A180.000 F1000.0 ; Cut to next point
G1 X0.485 Y-18.321 A180.000 F1000.0 ; Cut to next point
G1 X0.430 Y-18.321 A180.000 F1000.0 ; Cut to next point
G1 X0.375 Y-18.321 A180.000 F1000.0 ; Cut to next point
G1 X0.320 Y-18.321 A180.000 F1000.0 ; Cut to next point
G1 X0.265 Y-18.321 A179.999 F1000.0 ; Cut to next point
G1 X0.210 Y-18.321 A179.999 F1000.0 ; Cut to next point
G1 X0.155 Y-18.321 A179.999 F1000.0 ; Cut to next point
G1 X0.100 Y-18.321 A179.999 F1000.0 ; Cut to next point
G1 X0.045 Y-18.321 A179.999 F1000.0 ; Cut to next point
G1 X-0.009 Y-18.321 A179.999 F1000.0 ; Cut to next point
G1 X-0.064 Y-18.321 A179.999 F1000.0 ; Cut to next point
G1 X-0.119 Y-18.321 A179.999 F1000.0 ; Cut to next point
G1 X-0.174 Y-18.321 A179.999 F1000.0 ; Cut to next point
G1 X-0.229 Y-18.321 A179.999 F1000.0 ; Cut to next point
G1 X-0.284 Y-18.321 A179.999 F1000.0 ; Cut to next point
G1 X-0.339 Y-18.321 A179.999 F1000.0 ; Cut to next point
G1 X-0.394 Y-18.321 A179.999 F1000.0 ; Cut to next point
G1 X-0.449 Y-18.321 A179.999 F1000.0 ; Cut to next point
G1 X-0.504 Y-18.321 A179.999 F1000.0 ; Cut to next point
G1 X-0.559 Y-18.321 A179.999 F1000.0 ; Cut to next point
G1 X-0.614 Y-18.321 A179.999 F1000.0 ; Cut to next point
G1 X-0.669 Y-18.321 A179.999 F1000.0 ; Cut to next point
G1 X-0.724 Y-18.321 A179.999 F1000.0 ; Cut to next point
G1 X-0.779 Y-18.321 A179.999 F1000.0 ; Cut to next point
G1 X-0.834 Y-18.321 A179.999 F1000.0 ; Cut to next point
G1 X-0.889 Y-18.321 A179.999 F1000.0 ; Cut to next point
G1 X-0.944 Y-18.321 A179.999 F1000.0 ; Cut to next point
G1 X-0.999 Y-18.321 A179.999 F1000.0 ; Cut to next point
G1 X-1.054 Y-18.321 A179.999 F1000.0 ; Cut to next point
G1 X-1.109 Y-18.321 A179.999 F1000.0 ; Cut to next point
G1 X-1.164 Y-18.321 A179.999 F1000.0 ; Cut to next point
G1 X-1.219 Y-18.321 A179.999 F1000.0 ; Cut to next point
G1 X-1.274 Y-18.321 A179.999 F1000.0 ; Cut to next point
G1 X-1.329 Y-18.321 A179.999 F1000.0 ; Cut to next point
G1 X-1.384 Y-18.321 A179.999 F1000.0 ; Cut to next point
G1 X-1.439 Y-18.321 A179.999 F1000.0 ; Cut to next point
G1 X-1.494 Y-18.321 A179.999 F1000.0 ; Cut to next point
G1 X-1.546 Y-18.321 A180.000 F1000.0 ; Cut to next point
G1 X-1.597 Y-18.321 A179.999 F1000.0 ; Cut to next point
G1 X-1.648 Y-18.321 A179.998 F1000.0 ; Cut to next point
G1 X-1.699 Y-18.321 A179.998 F1000.0 ; Cut to next point
G1 X-1.751 Y-18.321 A179.998 F1000.0 ; Cut to next point
G1 X-1.802 Y-18.321 A179.998 F1000.0 ; Cut to next point
G1 X-1.853 Y-18.321 A179.998 F1000.0 ; Cut to next point
G1 X-1.904 Y-18.321 A179.998 F1000.0 ; Cut to next point
G1 X-1.956 Y-18.321 A179.998 F1000.0 ; Cut to next point
G1 X-2.007 Y-18.321 A179.998 F1000.0 ; Cut to next point
G1 X-2.058 Y-18.321 A179.998 F1000.0 ; Cut to next point
G1 X-2.109 Y-18.321 A179.998 F1000.0 ; Cut to next point
G1 X-2.161 Y-18.321 A179.998 F1000.0 ; Cut to next point
G1 X-2.212 Y-18.321 A179.998 F1000.0 ; Cut to next point
G1 X-2.263 Y-18.321 A179.998 F1000.0 ; Cut to next point
G1 X-2.314 Y-18.321 A179.998 F1000.0 ; Cut to next point
G1 X-2.366 Y-18.321 A179.998 F1000.0 ; Cut to next point
G1 X-2.417 Y-18.321 A179.998 F1000.0 ; Cut to next point
G1 X-2.468 Y-18.321 A179.998 F1000.0 ; Cut to next point
G1 X-2.519 Y-18.321 A179.998 F1000.0 ; Cut to next point
G1 X-2.571 Y-18.321 A179.998 F1000.0 ; Cut to next point
G1 X-2.622 Y-18.321 A179.998 F1000.0 ; Cut to next point
G1 X-2.673 Y-18.321 A179.998 F1000.0 ; Cut to next point
G1 X-2.724 Y-18.321 A179.998 F1000.0 ; Cut to next point
G1 X-2.776 Y-18.321 A179.998 F1000.0 ; Cut to next point
G1 X-2.827 Y-18.321 A179.998 F1000.0 ; Cut to next point
G1 X-2.878 Y-18.321 A179.998 F1000.0 ; Cut to next point
G1 X-2.929 Y-18.321 A179.998 F1000.0 ; Cut to next point
G1 X-2.981 Y-18.321 A179.998 F1000.0 ; Cut to next point
G1 X-3.032 Y-18.321 A179.998 F1000.0 ; Cut to next point
G1 X-3.083 Y-18.321 A179.998 F1000.0 ; Cut to next point
G1 X-3.134 Y-18.321 A179.998 F1000.0 ; Cut to next point
G1 X-3.186 Y-18.321 A179.998 F1000.0 ; Cut to next point
G1 X-3.237 Y-18.321 A179.998 F1000.0 ; Cut to next point
G1 X-3.288 Y-18.321 A179.998 F1000.0 ; Cut to next point
G1 X-3.339 Y-18.321 A179.998 F1000.0 ; Cut to next point
G1 X-3.391 Y-18.321 A179.998 F1000.0 ; Cut to next point
G1 X-3.442 Y-18.321 A179.998 F1000.0 ; Cut to next point
G1 X-3.493 Y-18.321 A179.998 F1000.0 ; Cut to next point
G1 X-3.544 Y-18.321 A179.998 F1000.0 ; Cut to next point
G1 X-3.596 Y-18.321 A179.998 F1000.0 ; Cut to next point
G1 X-3.647 Y-18.321 A179.998 F1000.0 ; Cut to next point
G1 X-3.698 Y-18.321 A179.998 F1000.0 ; Cut to next point
G1 X-3.749 Y-18.321 A179.998 F1000.0 ; Cut to next point
G1 X-3.800 Y-18.321 A179.998 F1000.0 ; Cut to next point
G1 X-3.852 Y-18.321 A179.998 F1000.0 ; Cut to next point
G1 X-3.903 Y-18.321 A179.998 F1000.0 ; Cut to next point
G1 X-3.954 Y-18.321 A179.998 F1000.0 ; Cut to next point
G1 X-4.005 Y-18.321 A179.998 F1000.0 ; Cut to next point
G1 X-4.057 Y-18.321 A179.998 F1000.0 ; Cut to next point
G1 X-4.108 Y-18.321 A179.998 F1000.0 ; Cut to next point
G1 X-4.159 Y-18.321 A179.998 F1000.0 ; Cut to next point
G1 X-4.210 Y-18.321 A179.998 F1000.0 ; Cut to next point
G1 X-4.262 Y-18.321 A179.998 F1000.0 ; Cut to next point
G1 X-4.313 Y-18.321 A179.998 F1000.0 ; Cut to next point
G1 X-4.364 Y-18.321 A179.998 F1000.0 ; Cut to next point
G1 X-4.415 Y-18.321 A179.998 F1000.0 ; Cut to next point
G1 X-4.467 Y-18.321 A179.998 F1000.0 ; Cut to next point
