; Fabric CNC Toolpath
; Generated by ToolpathGenerator

G20 ; Set units to inches
G90 ; Set absolute positioning
G28 ; Home all axes

G0 Z-0.5 ; Move to safe height

; Shape: merged_shape_0
G0 X1.000 Y11.000 ; Move to start
G0 A0.000 ; Set initial cutting wheel angle
G0 Z-1.35 ; Plunge to cutting height
G1 X1.000 Y1.000 A0.000 F1000.0 ; Cut to next point
G0 Z-0.5 ; Raise Z for corner
G0 A180.000 ; Rotate Z for corner
G0 Z-1.35 ; Lower Z to cutting height
G0 X1.000 Y11.000 ; Move to next point
G0 Z-0.5 ; Raise Z for corner
G0 A90.000 ; Rotate Z for corner
G0 Z-1.35 ; Lower Z to cutting height
G0 X11.000 Y11.000 ; Move to next point
G0 Z-0.5 ; Raise Z for corner
G0 A0.000 ; Rotate Z for corner
G0 Z-1.35 ; Lower Z to cutting height
G0 X11.000 Y1.000 ; Move to next point
G0 Z-0.5 ; Raise Z for corner
G0 A270.000 ; Rotate Z for corner
G0 Z-1.35 ; Lower Z to cutting height
G0 X1.000 Y1.000 ; Move to next point
G0 Z-0.5 ; Raise Z for corner
G0 A90.000 ; Rotate Z for corner
G0 Z-1.35 ; Lower Z to cutting height
G0 X11.000 Y1.000 ; Move to next point
G0 Z-0.5 ; Raise tool to safe height


G28 ; Home all axes
M2 ; End program