; Fabric CNC Toolpath
; Generated by ToolpathGenerator

G20 ; Set units to inches
G90 ; Set absolute positioning
G28 ; Home all axes

G0 Z-0.5 ; Move to safe height

; Shape: merged_shape_0
G0 X1.000 Y16.906 ; Move to start
G0 A18.237 ; Set initial cutting wheel angle
G0 Z-1.0 ; Plunge to cutting height
G0 A18.237 ; Rotate Z for cutting direction
G1 X1.018 Y16.852 F1000.0 ; Cut to next point
G0 A18.226 ; Rotate Z for cutting direction
G1 X1.036 Y16.797 F1000.0 ; Cut to next point
G0 A18.205 ; Rotate Z for cutting direction
G1 X1.054 Y16.743 F1000.0 ; Cut to next point
G0 A18.173 ; Rotate Z for cutting direction
G1 X1.071 Y16.689 F1000.0 ; Cut to next point
G0 A18.131 ; Rotate Z for cutting direction
G1 X1.089 Y16.635 F1000.0 ; Cut to next point
G0 A18.078 ; Rotate Z for cutting direction
G1 X1.107 Y16.580 F1000.0 ; Cut to next point
G0 A18.014 ; Rotate Z for cutting direction
G1 X1.125 Y16.526 F1000.0 ; Cut to next point
G0 A17.940 ; Rotate Z for cutting direction
G1 X1.142 Y16.472 F1000.0 ; Cut to next point
G0 A17.855 ; Rotate Z for cutting direction
G1 X1.160 Y16.417 F1000.0 ; Cut to next point
G0 A17.760 ; Rotate Z for cutting direction
G1 X1.177 Y16.363 F1000.0 ; Cut to next point
G0 A17.653 ; Rotate Z for cutting direction
G1 X1.194 Y16.309 F1000.0 ; Cut to next point
G0 A17.537 ; Rotate Z for cutting direction
G1 X1.212 Y16.254 F1000.0 ; Cut to next point
G0 A17.409 ; Rotate Z for cutting direction
G1 X1.229 Y16.200 F1000.0 ; Cut to next point
G0 A17.271 ; Rotate Z for cutting direction
G1 X1.246 Y16.145 F1000.0 ; Cut to next point
G0 A17.123 ; Rotate Z for cutting direction
G1 X1.262 Y16.091 F1000.0 ; Cut to next point
G0 A16.963 ; Rotate Z for cutting direction
G1 X1.279 Y16.036 F1000.0 ; Cut to next point
G0 A16.794 ; Rotate Z for cutting direction
G1 X1.295 Y15.982 F1000.0 ; Cut to next point
G0 A16.613 ; Rotate Z for cutting direction
G1 X1.312 Y15.927 F1000.0 ; Cut to next point
G0 A16.422 ; Rotate Z for cutting direction
G1 X1.328 Y15.872 F1000.0 ; Cut to next point
G0 A16.220 ; Rotate Z for cutting direction
G1 X1.344 Y15.817 F1000.0 ; Cut to next point
G0 A16.008 ; Rotate Z for cutting direction
G1 X1.360 Y15.762 F1000.0 ; Cut to next point
G0 A15.785 ; Rotate Z for cutting direction
G1 X1.375 Y15.708 F1000.0 ; Cut to next point
G0 A15.554 ; Rotate Z for cutting direction
G1 X1.390 Y15.653 F1000.0 ; Cut to next point
G0 A15.337 ; Rotate Z for cutting direction
G1 X1.405 Y15.598 F1000.0 ; Cut to next point
G0 A15.150 ; Rotate Z for cutting direction
G1 X1.420 Y15.542 F1000.0 ; Cut to next point
G0 A14.985 ; Rotate Z for cutting direction
G1 X1.435 Y15.487 F1000.0 ; Cut to next point
G0 A14.826 ; Rotate Z for cutting direction
G1 X1.450 Y15.432 F1000.0 ; Cut to next point
G0 A14.666 ; Rotate Z for cutting direction
G1 X1.464 Y15.377 F1000.0 ; Cut to next point
G0 A14.506 ; Rotate Z for cutting direction
G1 X1.479 Y15.322 F1000.0 ; Cut to next point
G0 A14.346 ; Rotate Z for cutting direction
G1 X1.493 Y15.266 F1000.0 ; Cut to next point
G0 A14.185 ; Rotate Z for cutting direction
G1 X1.507 Y15.211 F1000.0 ; Cut to next point
G0 A14.025 ; Rotate Z for cutting direction
G1 X1.520 Y15.156 F1000.0 ; Cut to next point
G0 A13.864 ; Rotate Z for cutting direction
G1 X1.534 Y15.100 F1000.0 ; Cut to next point
G0 A13.703 ; Rotate Z for cutting direction
G1 X1.548 Y15.045 F1000.0 ; Cut to next point
G0 A13.542 ; Rotate Z for cutting direction
G1 X1.561 Y14.989 F1000.0 ; Cut to next point
G0 A13.380 ; Rotate Z for cutting direction
G1 X1.574 Y14.934 F1000.0 ; Cut to next point
G0 A13.218 ; Rotate Z for cutting direction
G1 X1.587 Y14.878 F1000.0 ; Cut to next point
G0 A13.056 ; Rotate Z for cutting direction
G1 X1.600 Y14.823 F1000.0 ; Cut to next point
G0 A12.894 ; Rotate Z for cutting direction
G1 X1.613 Y14.767 F1000.0 ; Cut to next point
G0 A12.732 ; Rotate Z for cutting direction
G1 X1.626 Y14.711 F1000.0 ; Cut to next point
G0 A12.569 ; Rotate Z for cutting direction
G1 X1.638 Y14.656 F1000.0 ; Cut to next point
G0 A12.406 ; Rotate Z for cutting direction
G1 X1.650 Y14.600 F1000.0 ; Cut to next point
G0 A12.243 ; Rotate Z for cutting direction
G1 X1.662 Y14.544 F1000.0 ; Cut to next point
G0 A12.080 ; Rotate Z for cutting direction
G1 X1.674 Y14.488 F1000.0 ; Cut to next point
G0 A11.916 ; Rotate Z for cutting direction
G1 X1.686 Y14.432 F1000.0 ; Cut to next point
G0 A11.752 ; Rotate Z for cutting direction
G1 X1.698 Y14.376 F1000.0 ; Cut to next point
G0 A11.588 ; Rotate Z for cutting direction
G1 X1.709 Y14.321 F1000.0 ; Cut to next point
G0 A11.424 ; Rotate Z for cutting direction
G1 X1.720 Y14.265 F1000.0 ; Cut to next point
G0 A11.260 ; Rotate Z for cutting direction
G1 X1.732 Y14.209 F1000.0 ; Cut to next point
G0 A11.095 ; Rotate Z for cutting direction
G1 X1.743 Y14.153 F1000.0 ; Cut to next point
G0 A10.930 ; Rotate Z for cutting direction
G1 X1.753 Y14.097 F1000.0 ; Cut to next point
G0 A10.765 ; Rotate Z for cutting direction
G1 X1.764 Y14.040 F1000.0 ; Cut to next point
G0 A10.600 ; Rotate Z for cutting direction
G1 X1.775 Y13.984 F1000.0 ; Cut to next point
G0 A10.436 ; Rotate Z for cutting direction
G1 X1.785 Y13.928 F1000.0 ; Cut to next point
G0 A10.271 ; Rotate Z for cutting direction
G1 X1.795 Y13.872 F1000.0 ; Cut to next point
G0 A10.107 ; Rotate Z for cutting direction
G1 X1.805 Y13.816 F1000.0 ; Cut to next point
G0 A9.943 ; Rotate Z for cutting direction
G1 X1.815 Y13.760 F1000.0 ; Cut to next point
G0 A9.779 ; Rotate Z for cutting direction
G1 X1.825 Y13.703 F1000.0 ; Cut to next point
G0 A9.615 ; Rotate Z for cutting direction
G1 X1.834 Y13.647 F1000.0 ; Cut to next point
G0 A9.451 ; Rotate Z for cutting direction
G1 X1.844 Y13.591 F1000.0 ; Cut to next point
G0 A9.288 ; Rotate Z for cutting direction
G1 X1.853 Y13.534 F1000.0 ; Cut to next point
G0 A9.124 ; Rotate Z for cutting direction
G1 X1.862 Y13.478 F1000.0 ; Cut to next point
G0 A8.961 ; Rotate Z for cutting direction
G1 X1.871 Y13.422 F1000.0 ; Cut to next point
G0 A8.798 ; Rotate Z for cutting direction
G1 X1.879 Y13.365 F1000.0 ; Cut to next point
G0 A8.635 ; Rotate Z for cutting direction
G1 X1.888 Y13.309 F1000.0 ; Cut to next point
G0 A8.472 ; Rotate Z for cutting direction
G1 X1.896 Y13.252 F1000.0 ; Cut to next point
G0 A8.309 ; Rotate Z for cutting direction
G1 X1.905 Y13.196 F1000.0 ; Cut to next point
G0 A8.146 ; Rotate Z for cutting direction
G1 X1.913 Y13.140 F1000.0 ; Cut to next point
G0 A7.983 ; Rotate Z for cutting direction
G1 X1.921 Y13.083 F1000.0 ; Cut to next point
G0 A7.819 ; Rotate Z for cutting direction
G1 X1.928 Y13.026 F1000.0 ; Cut to next point
G0 A7.655 ; Rotate Z for cutting direction
G1 X1.936 Y12.970 F1000.0 ; Cut to next point
G0 A7.491 ; Rotate Z for cutting direction
G1 X1.943 Y12.913 F1000.0 ; Cut to next point
G0 A7.327 ; Rotate Z for cutting direction
G1 X1.951 Y12.857 F1000.0 ; Cut to next point
G0 A7.162 ; Rotate Z for cutting direction
G1 X1.958 Y12.800 F1000.0 ; Cut to next point
G0 A6.997 ; Rotate Z for cutting direction
G1 X1.965 Y12.743 F1000.0 ; Cut to next point
G0 A6.835 ; Rotate Z for cutting direction
G1 X1.972 Y12.687 F1000.0 ; Cut to next point
G0 A6.687 ; Rotate Z for cutting direction
G1 X1.978 Y12.630 F1000.0 ; Cut to next point
G0 A6.541 ; Rotate Z for cutting direction
G1 X1.985 Y12.573 F1000.0 ; Cut to next point
G0 A6.388 ; Rotate Z for cutting direction
G1 X1.991 Y12.517 F1000.0 ; Cut to next point
G0 A6.229 ; Rotate Z for cutting direction
G1 X1.997 Y12.460 F1000.0 ; Cut to next point
G0 A6.064 ; Rotate Z for cutting direction
G1 X2.003 Y12.403 F1000.0 ; Cut to next point
G0 A5.893 ; Rotate Z for cutting direction
G1 X2.009 Y12.346 F1000.0 ; Cut to next point
G0 A5.715 ; Rotate Z for cutting direction
G1 X2.015 Y12.290 F1000.0 ; Cut to next point
G0 A5.531 ; Rotate Z for cutting direction
G1 X2.020 Y12.233 F1000.0 ; Cut to next point
G0 A5.340 ; Rotate Z for cutting direction
G1 X2.026 Y12.176 F1000.0 ; Cut to next point
G0 A5.144 ; Rotate Z for cutting direction
G1 X2.031 Y12.119 F1000.0 ; Cut to next point
G0 A4.941 ; Rotate Z for cutting direction
G1 X2.036 Y12.062 F1000.0 ; Cut to next point
G0 A4.732 ; Rotate Z for cutting direction
G1 X2.040 Y12.005 F1000.0 ; Cut to next point
G0 A4.530 ; Rotate Z for cutting direction
G1 X2.045 Y11.949 F1000.0 ; Cut to next point
G0 A4.345 ; Rotate Z for cutting direction
G1 X2.049 Y11.892 F1000.0 ; Cut to next point
G0 A4.176 ; Rotate Z for cutting direction
G1 X2.053 Y11.835 F1000.0 ; Cut to next point
G0 A4.025 ; Rotate Z for cutting direction
G1 X2.057 Y11.778 F1000.0 ; Cut to next point
G0 A3.890 ; Rotate Z for cutting direction
G1 X2.061 Y11.721 F1000.0 ; Cut to next point
G0 A3.772 ; Rotate Z for cutting direction
G1 X2.065 Y11.664 F1000.0 ; Cut to next point
G0 A3.671 ; Rotate Z for cutting direction
G1 X2.069 Y11.607 F1000.0 ; Cut to next point
G0 A3.586 ; Rotate Z for cutting direction
G1 X2.072 Y11.550 F1000.0 ; Cut to next point
G0 A3.519 ; Rotate Z for cutting direction
G1 X2.076 Y11.493 F1000.0 ; Cut to next point
G0 A3.469 ; Rotate Z for cutting direction
G1 X2.079 Y11.436 F1000.0 ; Cut to next point
G0 A3.435 ; Rotate Z for cutting direction
G1 X2.083 Y11.379 F1000.0 ; Cut to next point
G0 A3.418 ; Rotate Z for cutting direction
G1 X2.086 Y11.322 F1000.0 ; Cut to next point
G0 A4.034 ; Rotate Z for cutting direction
G1 X2.090 Y11.268 F1000.0 ; Cut to next point
G0 A4.047 ; Rotate Z for cutting direction
G1 X2.094 Y11.213 F1000.0 ; Cut to next point
G0 A4.074 ; Rotate Z for cutting direction
G1 X2.098 Y11.159 F1000.0 ; Cut to next point
G0 A4.115 ; Rotate Z for cutting direction
G1 X2.102 Y11.104 F1000.0 ; Cut to next point
G0 A4.168 ; Rotate Z for cutting direction
G1 X2.106 Y11.050 F1000.0 ; Cut to next point
G0 A4.235 ; Rotate Z for cutting direction
G1 X2.110 Y10.995 F1000.0 ; Cut to next point
G0 A4.316 ; Rotate Z for cutting direction
G1 X2.114 Y10.941 F1000.0 ; Cut to next point
G0 A4.410 ; Rotate Z for cutting direction
G1 X2.118 Y10.886 F1000.0 ; Cut to next point
G0 A4.518 ; Rotate Z for cutting direction
G1 X2.122 Y10.832 F1000.0 ; Cut to next point
G0 A4.639 ; Rotate Z for cutting direction
G1 X2.127 Y10.777 F1000.0 ; Cut to next point
G0 A4.773 ; Rotate Z for cutting direction
G1 X2.131 Y10.723 F1000.0 ; Cut to next point
G0 A4.921 ; Rotate Z for cutting direction
G1 X2.136 Y10.669 F1000.0 ; Cut to next point
G0 A5.083 ; Rotate Z for cutting direction
G1 X2.141 Y10.614 F1000.0 ; Cut to next point
G0 A5.257 ; Rotate Z for cutting direction
G1 X2.146 Y10.560 F1000.0 ; Cut to next point
G0 A5.446 ; Rotate Z for cutting direction
G1 X2.151 Y10.505 F1000.0 ; Cut to next point
G0 A5.648 ; Rotate Z for cutting direction
G1 X2.156 Y10.451 F1000.0 ; Cut to next point
G0 A5.863 ; Rotate Z for cutting direction
G1 X2.162 Y10.397 F1000.0 ; Cut to next point
G0 A6.092 ; Rotate Z for cutting direction
G1 X2.168 Y10.343 F1000.0 ; Cut to next point
G0 A6.334 ; Rotate Z for cutting direction
G1 X2.174 Y10.288 F1000.0 ; Cut to next point
G0 A6.590 ; Rotate Z for cutting direction
G1 X2.180 Y10.234 F1000.0 ; Cut to next point
G0 A6.859 ; Rotate Z for cutting direction
G1 X2.186 Y10.180 F1000.0 ; Cut to next point
G0 A7.136 ; Rotate Z for cutting direction
G1 X2.193 Y10.126 F1000.0 ; Cut to next point
G0 A7.406 ; Rotate Z for cutting direction
G1 X2.200 Y10.072 F1000.0 ; Cut to next point
G0 A7.668 ; Rotate Z for cutting direction
G1 X2.207 Y10.017 F1000.0 ; Cut to next point
G0 A7.922 ; Rotate Z for cutting direction
G1 X2.215 Y9.963 F1000.0 ; Cut to next point
G0 A8.168 ; Rotate Z for cutting direction
G1 X2.223 Y9.909 F1000.0 ; Cut to next point
G0 A8.405 ; Rotate Z for cutting direction
G1 X2.231 Y9.855 F1000.0 ; Cut to next point
G0 A8.633 ; Rotate Z for cutting direction
G1 X2.239 Y9.801 F1000.0 ; Cut to next point
G0 A8.854 ; Rotate Z for cutting direction
G1 X2.247 Y9.747 F1000.0 ; Cut to next point
G0 A9.066 ; Rotate Z for cutting direction
G1 X2.256 Y9.693 F1000.0 ; Cut to next point
G0 A9.270 ; Rotate Z for cutting direction
G1 X2.265 Y9.640 F1000.0 ; Cut to next point
G0 A9.465 ; Rotate Z for cutting direction
G1 X2.274 Y9.586 F1000.0 ; Cut to next point
G0 A9.656 ; Rotate Z for cutting direction
G1 X2.283 Y9.532 F1000.0 ; Cut to next point
G0 A9.847 ; Rotate Z for cutting direction
G1 X2.292 Y9.478 F1000.0 ; Cut to next point
G0 A10.042 ; Rotate Z for cutting direction
G1 X2.302 Y9.424 F1000.0 ; Cut to next point
G0 A10.238 ; Rotate Z for cutting direction
G1 X2.311 Y9.371 F1000.0 ; Cut to next point
G0 A10.437 ; Rotate Z for cutting direction
G1 X2.321 Y9.317 F1000.0 ; Cut to next point
G0 A10.638 ; Rotate Z for cutting direction
G1 X2.331 Y9.263 F1000.0 ; Cut to next point
G0 A10.842 ; Rotate Z for cutting direction
G1 X2.342 Y9.210 F1000.0 ; Cut to next point
G0 A11.048 ; Rotate Z for cutting direction
G1 X2.352 Y9.156 F1000.0 ; Cut to next point
G0 A11.256 ; Rotate Z for cutting direction
G1 X2.363 Y9.102 F1000.0 ; Cut to next point
G0 A11.467 ; Rotate Z for cutting direction
G1 X2.374 Y9.049 F1000.0 ; Cut to next point
G0 A11.679 ; Rotate Z for cutting direction
G1 X2.385 Y8.995 F1000.0 ; Cut to next point
G0 A11.891 ; Rotate Z for cutting direction
G1 X2.396 Y8.942 F1000.0 ; Cut to next point
G0 A12.102 ; Rotate Z for cutting direction
G1 X2.407 Y8.889 F1000.0 ; Cut to next point
G0 A12.314 ; Rotate Z for cutting direction
G1 X2.419 Y8.835 F1000.0 ; Cut to next point
G0 A12.525 ; Rotate Z for cutting direction
G1 X2.431 Y8.782 F1000.0 ; Cut to next point
G0 A12.736 ; Rotate Z for cutting direction
G1 X2.443 Y8.729 F1000.0 ; Cut to next point
G0 A12.946 ; Rotate Z for cutting direction
G1 X2.455 Y8.675 F1000.0 ; Cut to next point
G0 A13.157 ; Rotate Z for cutting direction
G1 X2.468 Y8.622 F1000.0 ; Cut to next point
G0 A13.367 ; Rotate Z for cutting direction
G1 X2.480 Y8.569 F1000.0 ; Cut to next point
G0 A13.577 ; Rotate Z for cutting direction
G1 X2.493 Y8.516 F1000.0 ; Cut to next point
G0 A13.787 ; Rotate Z for cutting direction
G1 X2.506 Y8.463 F1000.0 ; Cut to next point
G0 A13.996 ; Rotate Z for cutting direction
G1 X2.519 Y8.410 F1000.0 ; Cut to next point
G0 A14.206 ; Rotate Z for cutting direction
G1 X2.533 Y8.357 F1000.0 ; Cut to next point
G0 A14.415 ; Rotate Z for cutting direction
G1 X2.546 Y8.304 F1000.0 ; Cut to next point
G0 A14.623 ; Rotate Z for cutting direction
G1 X2.560 Y8.251 F1000.0 ; Cut to next point
G0 A14.832 ; Rotate Z for cutting direction
G1 X2.574 Y8.198 F1000.0 ; Cut to next point
G0 A15.041 ; Rotate Z for cutting direction
G1 X2.588 Y8.146 F1000.0 ; Cut to next point
G0 A15.249 ; Rotate Z for cutting direction
G1 X2.603 Y8.093 F1000.0 ; Cut to next point
G0 A15.457 ; Rotate Z for cutting direction
G1 X2.617 Y8.040 F1000.0 ; Cut to next point
G0 A15.665 ; Rotate Z for cutting direction
G1 X2.632 Y7.988 F1000.0 ; Cut to next point
G0 A15.873 ; Rotate Z for cutting direction
G1 X2.647 Y7.935 F1000.0 ; Cut to next point
G0 A16.080 ; Rotate Z for cutting direction
G1 X2.662 Y7.883 F1000.0 ; Cut to next point
G0 A16.288 ; Rotate Z for cutting direction
G1 X2.677 Y7.830 F1000.0 ; Cut to next point
G0 A16.496 ; Rotate Z for cutting direction
G1 X2.693 Y7.778 F1000.0 ; Cut to next point
G0 A16.704 ; Rotate Z for cutting direction
G1 X2.708 Y7.726 F1000.0 ; Cut to next point
G0 A16.912 ; Rotate Z for cutting direction
G1 X2.724 Y7.673 F1000.0 ; Cut to next point
G0 A17.120 ; Rotate Z for cutting direction
G1 X2.740 Y7.621 F1000.0 ; Cut to next point
G0 A17.328 ; Rotate Z for cutting direction
G1 X2.757 Y7.569 F1000.0 ; Cut to next point
G0 A17.536 ; Rotate Z for cutting direction
G1 X2.773 Y7.517 F1000.0 ; Cut to next point
G0 A17.744 ; Rotate Z for cutting direction
G1 X2.790 Y7.465 F1000.0 ; Cut to next point
G0 A17.953 ; Rotate Z for cutting direction
G1 X2.807 Y7.413 F1000.0 ; Cut to next point
G0 A18.161 ; Rotate Z for cutting direction
G1 X2.824 Y7.361 F1000.0 ; Cut to next point
G0 A18.370 ; Rotate Z for cutting direction
G1 X2.841 Y7.309 F1000.0 ; Cut to next point
G0 A18.579 ; Rotate Z for cutting direction
