; Fabric CNC Toolpath
; Generated by ToolpathGenerator

G20 ; Set units to inches
G90 ; Set absolute positioning
G28 ; Home all axes

G0 Z-0.5 ; Move to safe height

; Shape: merged_shape_0
G0 X20.080 Y2.544 ; Move to start
G0 A195.000 ; Set initial cutting wheel angle
G0 Z-1.0 ; Plunge to cutting height
G1 X19.343 Y5.294 A195.000 F1000.0 ; Cut to next point
G0 Z-0.5 ; Raise Z for corner
G0 A270.000 ; Rotate Z for corner
G0 Z-1.0 ; Lower Z to cutting height
G0 X16.993 Y5.294 ; Move to next point
G1 X16.942 Y5.293 A-89.102 F1000.0 ; Cut to next point
G1 X16.889 Y5.289 A-85.531 F1000.0 ; Cut to next point
G1 X16.837 Y5.281 A-81.865 F1000.0 ; Cut to next point
G1 X16.786 Y5.271 A-78.232 F1000.0 ; Cut to next point
G1 X16.736 Y5.257 A-74.640 F1000.0 ; Cut to next point
G1 X16.687 Y5.240 A-71.093 F1000.0 ; Cut to next point
G1 X16.640 Y5.221 A-67.596 F1000.0 ; Cut to next point
G1 X16.594 Y5.199 A-64.150 F1000.0 ; Cut to next point
G1 X16.550 Y5.174 A-60.754 F1000.0 ; Cut to next point
G1 X16.508 Y5.147 A-57.407 F1000.0 ; Cut to next point
G1 X16.467 Y5.117 A-54.104 F1000.0 ; Cut to next point
G1 X16.427 Y5.085 A-50.841 F1000.0 ; Cut to next point
G1 X16.390 Y5.051 A-47.611 F1000.0 ; Cut to next point
G1 X16.355 Y5.015 A-44.408 F1000.0 ; Cut to next point
G1 X16.322 Y4.977 A-41.223 F1000.0 ; Cut to next point
G1 X16.291 Y4.938 A-38.050 F1000.0 ; Cut to next point
G1 X16.262 Y4.896 A-34.880 F1000.0 ; Cut to next point
G1 X16.235 Y4.853 A-31.704 F1000.0 ; Cut to next point
G1 X16.211 Y4.809 A-28.514 F1000.0 ; Cut to next point
G1 X16.190 Y4.764 A-25.303 F1000.0 ; Cut to next point
G1 X16.171 Y4.717 A-22.064 F1000.0 ; Cut to next point
G1 X16.154 Y4.669 A-18.789 F1000.0 ; Cut to next point
G1 X16.141 Y4.620 A-15.474 F1000.0 ; Cut to next point
G1 X16.130 Y4.570 A-12.113 F1000.0 ; Cut to next point
G1 X16.123 Y4.520 A-8.703 F1000.0 ; Cut to next point
G1 X16.118 Y4.469 A-5.242 F1000.0 ; Cut to next point
G1 X16.116 Y4.417 A-1.732 F1000.0 ; Cut to next point
G1 X16.118 Y4.365 A1.826 F1000.0 ; Cut to next point
G1 X16.123 Y4.313 A5.428 F1000.0 ; Cut to next point
G1 X16.131 Y4.261 A9.067 F1000.0 ; Cut to next point
G1 X16.142 Y4.212 A12.619 F1000.0 ; Cut to next point
G1 X16.589 Y2.544 A15.000 F1000.0 ; Cut to next point
G0 Z-0.5 ; Raise Z for corner
G0 A90.000 ; Rotate Z for corner
G0 Z-1.0 ; Lower Z to cutting height
G0 X20.080 Y2.544 ; Move to next point
G0 Z-0.5 ; Raise tool to safe height

; Shape: merged_shape_1
G0 X17.927 Y25.046 ; Move to start
G0 A168.314 ; Set initial cutting wheel angle
G0 Z-1.0 ; Plunge to cutting height
G1 X17.938 Y25.098 A168.314 F1000.0 ; Cut to next point
G1 X17.949 Y25.151 A168.174 F1000.0 ; Cut to next point
G1 X17.960 Y25.204 A168.036 F1000.0 ; Cut to next point
G1 X17.972 Y25.256 A167.901 F1000.0 ; Cut to next point
G1 X17.983 Y25.309 A167.770 F1000.0 ; Cut to next point
G1 X17.994 Y25.361 A167.641 F1000.0 ; Cut to next point
G1 X18.006 Y25.413 A167.515 F1000.0 ; Cut to next point
G1 X18.018 Y25.466 A167.393 F1000.0 ; Cut to next point
G1 X18.030 Y25.518 A167.273 F1000.0 ; Cut to next point
G1 X18.041 Y25.571 A167.156 F1000.0 ; Cut to next point
G1 X18.054 Y25.623 A167.043 F1000.0 ; Cut to next point
G1 X18.066 Y25.675 A166.932 F1000.0 ; Cut to next point
G1 X18.078 Y25.727 A166.825 F1000.0 ; Cut to next point
G1 X18.090 Y25.780 A166.720 F1000.0 ; Cut to next point
G1 X18.103 Y25.832 A166.619 F1000.0 ; Cut to next point
G1 X18.115 Y25.884 A166.520 F1000.0 ; Cut to next point
G1 X18.128 Y25.936 A166.425 F1000.0 ; Cut to next point
G1 X18.140 Y25.988 A166.333 F1000.0 ; Cut to next point
G1 X18.153 Y26.041 A166.243 F1000.0 ; Cut to next point
G1 X18.166 Y26.093 A166.157 F1000.0 ; Cut to next point
G1 X18.179 Y26.145 A166.074 F1000.0 ; Cut to next point
G1 X18.192 Y26.197 A165.994 F1000.0 ; Cut to next point
G1 X18.205 Y26.249 A165.916 F1000.0 ; Cut to next point
G1 X18.218 Y26.301 A165.842 F1000.0 ; Cut to next point
G1 X18.231 Y26.353 A165.771 F1000.0 ; Cut to next point
G1 X18.245 Y26.405 A165.703 F1000.0 ; Cut to next point
G1 X18.258 Y26.457 A165.638 F1000.0 ; Cut to next point
G1 X18.271 Y26.509 A165.576 F1000.0 ; Cut to next point
G1 X18.285 Y26.561 A165.517 F1000.0 ; Cut to next point
G1 X18.298 Y26.613 A165.461 F1000.0 ; Cut to next point
G1 X18.312 Y26.665 A165.408 F1000.0 ; Cut to next point
G1 X18.325 Y26.717 A165.358 F1000.0 ; Cut to next point
G1 X18.339 Y26.769 A165.311 F1000.0 ; Cut to next point
G1 X18.353 Y26.821 A165.267 F1000.0 ; Cut to next point
G1 X18.366 Y26.873 A165.226 F1000.0 ; Cut to next point
G1 X18.380 Y26.925 A165.188 F1000.0 ; Cut to next point
G1 X18.394 Y26.977 A165.154 F1000.0 ; Cut to next point
G1 X18.408 Y27.029 A165.122 F1000.0 ; Cut to next point
G1 X18.421 Y27.080 A165.093 F1000.0 ; Cut to next point
G1 X18.435 Y27.132 A165.068 F1000.0 ; Cut to next point
G1 X18.449 Y27.184 A165.045 F1000.0 ; Cut to next point
G1 X18.463 Y27.236 A165.025 F1000.0 ; Cut to next point
G1 X18.477 Y27.288 A165.009 F1000.0 ; Cut to next point
G1 X18.491 Y27.340 A164.995 F1000.0 ; Cut to next point
G1 X18.505 Y27.392 A164.985 F1000.0 ; Cut to next point
G1 X18.519 Y27.444 A164.977 F1000.0 ; Cut to next point
G1 X18.533 Y27.495 A164.973 F1000.0 ; Cut to next point
G1 X18.546 Y27.547 A164.971 F1000.0 ; Cut to next point
G1 X18.560 Y27.599 A164.973 F1000.0 ; Cut to next point
G1 X18.574 Y27.651 A164.977 F1000.0 ; Cut to next point
G1 X18.588 Y27.703 A164.985 F1000.0 ; Cut to next point
G1 X18.602 Y27.755 A164.996 F1000.0 ; Cut to next point
G1 X18.616 Y27.807 A165.009 F1000.0 ; Cut to next point
G1 X18.630 Y27.859 A165.026 F1000.0 ; Cut to next point
G1 X18.644 Y27.910 A165.046 F1000.0 ; Cut to next point
G0 Z-0.5 ; Raise Z for corner
G0 A236.499 ; Rotate Z for corner
G0 Z-1.0 ; Lower Z to cutting height
G0 X18.600 Y27.939 ; Move to next point
G0 Z-0.5 ; Raise Z for corner
G0 A-89.998 ; Rotate Z for corner
G0 Z-1.0 ; Lower Z to cutting height
G0 X18.549 Y27.939 ; Move to next point
G1 X18.498 Y27.939 A-89.998 F1000.0 ; Cut to next point
G1 X18.446 Y27.939 A-89.998 F1000.0 ; Cut to next point
G1 X18.395 Y27.939 A-89.998 F1000.0 ; Cut to next point
G1 X18.344 Y27.939 A-89.998 F1000.0 ; Cut to next point
G1 X18.293 Y27.939 A-89.998 F1000.0 ; Cut to next point
G1 X18.241 Y27.939 A-89.998 F1000.0 ; Cut to next point
G1 X18.190 Y27.939 A-89.998 F1000.0 ; Cut to next point
G1 X18.139 Y27.939 A-89.998 F1000.0 ; Cut to next point
G1 X18.088 Y27.939 A-89.998 F1000.0 ; Cut to next point
G1 X18.036 Y27.939 A-89.998 F1000.0 ; Cut to next point
G1 X17.985 Y27.939 A-89.998 F1000.0 ; Cut to next point
G1 X17.934 Y27.939 A-89.998 F1000.0 ; Cut to next point
G1 X17.883 Y27.939 A-89.998 F1000.0 ; Cut to next point
G1 X17.832 Y27.939 A-89.998 F1000.0 ; Cut to next point
G1 X17.780 Y27.939 A-89.998 F1000.0 ; Cut to next point
G1 X17.729 Y27.939 A-89.998 F1000.0 ; Cut to next point
G1 X17.678 Y27.939 A-89.998 F1000.0 ; Cut to next point
G1 X17.627 Y27.939 A-89.998 F1000.0 ; Cut to next point
G1 X17.575 Y27.939 A-89.998 F1000.0 ; Cut to next point
G1 X17.524 Y27.939 A-89.998 F1000.0 ; Cut to next point
G1 X17.473 Y27.939 A-89.998 F1000.0 ; Cut to next point
G1 X17.422 Y27.939 A-89.998 F1000.0 ; Cut to next point
G1 X17.370 Y27.939 A-89.998 F1000.0 ; Cut to next point
G1 X17.319 Y27.939 A-89.998 F1000.0 ; Cut to next point
G1 X17.268 Y27.939 A-89.998 F1000.0 ; Cut to next point
G1 X17.217 Y27.939 A-89.998 F1000.0 ; Cut to next point
G1 X17.165 Y27.939 A-89.998 F1000.0 ; Cut to next point
G1 X17.114 Y27.939 A-89.998 F1000.0 ; Cut to next point
G1 X17.063 Y27.939 A-89.998 F1000.0 ; Cut to next point
G1 X17.012 Y27.939 A-89.998 F1000.0 ; Cut to next point
G1 X16.960 Y27.939 A-89.998 F1000.0 ; Cut to next point
G1 X16.909 Y27.939 A-89.998 F1000.0 ; Cut to next point
G1 X16.858 Y27.939 A-89.998 F1000.0 ; Cut to next point
G1 X16.807 Y27.939 A-89.998 F1000.0 ; Cut to next point
G1 X16.755 Y27.939 A-89.998 F1000.0 ; Cut to next point
G1 X16.704 Y27.939 A-89.998 F1000.0 ; Cut to next point
G1 X16.653 Y27.939 A-89.998 F1000.0 ; Cut to next point
G1 X16.602 Y27.939 A-89.998 F1000.0 ; Cut to next point
G1 X16.550 Y27.939 A-89.998 F1000.0 ; Cut to next point
G1 X16.499 Y27.939 A-89.998 F1000.0 ; Cut to next point
G1 X16.448 Y27.939 A-89.998 F1000.0 ; Cut to next point
G1 X16.397 Y27.939 A-89.998 F1000.0 ; Cut to next point
G1 X16.345 Y27.939 A-89.998 F1000.0 ; Cut to next point
G1 X16.294 Y27.939 A-89.998 F1000.0 ; Cut to next point
G1 X16.243 Y27.939 A-89.998 F1000.0 ; Cut to next point
G1 X16.192 Y27.939 A-89.998 F1000.0 ; Cut to next point
G1 X16.140 Y27.939 A-89.998 F1000.0 ; Cut to next point
G1 X16.089 Y27.939 A-89.998 F1000.0 ; Cut to next point
G1 X16.038 Y27.939 A-89.998 F1000.0 ; Cut to next point
G1 X15.987 Y27.939 A-89.998 F1000.0 ; Cut to next point
G1 X15.935 Y27.939 A-89.998 F1000.0 ; Cut to next point
G1 X15.884 Y27.939 A-89.998 F1000.0 ; Cut to next point
G1 X15.833 Y27.939 A-89.998 F1000.0 ; Cut to next point
G1 X15.782 Y27.939 A-89.998 F1000.0 ; Cut to next point
G1 X15.730 Y27.939 A-89.998 F1000.0 ; Cut to next point
G1 X15.679 Y27.939 A-89.998 F1000.0 ; Cut to next point
G1 X15.628 Y27.939 A-89.998 F1000.0 ; Cut to next point
G1 X15.577 Y27.939 A-89.998 F1000.0 ; Cut to next point
G1 X15.525 Y27.939 A-89.998 F1000.0 ; Cut to next point
G1 X15.474 Y27.939 A-89.998 F1000.0 ; Cut to next point
G1 X15.394 Y27.939 A-89.999 F1000.0 ; Cut to next point
G1 X15.339 Y27.939 A-89.999 F1000.0 ; Cut to next point
G1 X15.284 Y27.939 A-89.999 F1000.0 ; Cut to next point
G1 X15.229 Y27.939 A-89.999 F1000.0 ; Cut to next point
G1 X15.174 Y27.939 A-89.999 F1000.0 ; Cut to next point
G1 X15.119 Y27.939 A-89.999 F1000.0 ; Cut to next point
G1 X15.064 Y27.939 A-89.999 F1000.0 ; Cut to next point
G1 X15.009 Y27.939 A-89.999 F1000.0 ; Cut to next point
G1 X14.954 Y27.939 A-89.999 F1000.0 ; Cut to next point
G1 X14.899 Y27.939 A-89.999 F1000.0 ; Cut to next point
G1 X14.844 Y27.939 A-89.999 F1000.0 ; Cut to next point
G1 X14.789 Y27.939 A-89.999 F1000.0 ; Cut to next point
G1 X14.734 Y27.939 A-89.999 F1000.0 ; Cut to next point
G1 X14.679 Y27.939 A-89.999 F1000.0 ; Cut to next point
G1 X14.624 Y27.939 A-89.999 F1000.0 ; Cut to next point
G1 X14.569 Y27.939 A-89.999 F1000.0 ; Cut to next point
G1 X14.514 Y27.939 A-89.999 F1000.0 ; Cut to next point
G1 X14.459 Y27.939 A-89.999 F1000.0 ; Cut to next point
G1 X14.404 Y27.939 A-89.999 F1000.0 ; Cut to next point
G1 X14.349 Y27.939 A-89.999 F1000.0 ; Cut to next point
G1 X14.294 Y27.939 A-89.999 F1000.0 ; Cut to next point
G1 X14.239 Y27.939 A-89.999 F1000.0 ; Cut to next point
G1 X14.184 Y27.939 A-89.999 F1000.0 ; Cut to next point
G1 X14.129 Y27.939 A-89.999 F1000.0 ; Cut to next point
G1 X14.074 Y27.939 A-89.999 F1000.0 ; Cut to next point
G1 X14.019 Y27.939 A-89.999 F1000.0 ; Cut to next point
G1 X13.964 Y27.939 A-89.999 F1000.0 ; Cut to next point
G1 X13.909 Y27.939 A-89.999 F1000.0 ; Cut to next point
G1 X13.854 Y27.939 A-89.999 F1000.0 ; Cut to next point
G1 X13.799 Y27.939 A-90.000 F1000.0 ; Cut to next point
G1 X13.744 Y27.939 A-90.000 F1000.0 ; Cut to next point
G1 X13.689 Y27.939 A-90.000 F1000.0 ; Cut to next point
G1 X13.634 Y27.939 A-90.000 F1000.0 ; Cut to next point
G1 X13.579 Y27.939 A-90.000 F1000.0 ; Cut to next point
G1 X13.524 Y27.939 A-90.000 F1000.0 ; Cut to next point
G1 X13.469 Y27.939 A-90.000 F1000.0 ; Cut to next point
G1 X13.414 Y27.939 A-90.000 F1000.0 ; Cut to next point
G1 X13.359 Y27.939 A-90.000 F1000.0 ; Cut to next point
G1 X13.304 Y27.939 A-90.000 F1000.0 ; Cut to next point
G1 X13.249 Y27.939 A-90.000 F1000.0 ; Cut to next point
G1 X13.194 Y27.939 A-90.000 F1000.0 ; Cut to next point
G1 X13.139 Y27.939 A-90.000 F1000.0 ; Cut to next point
G1 X13.084 Y27.939 A-90.000 F1000.0 ; Cut to next point
G1 X13.029 Y27.939 A-90.000 F1000.0 ; Cut to next point
G1 X12.974 Y27.939 A-90.000 F1000.0 ; Cut to next point
G1 X12.919 Y27.939 A-90.000 F1000.0 ; Cut to next point
G1 X12.864 Y27.939 A-90.000 F1000.0 ; Cut to next point
G1 X12.809 Y27.939 A-90.000 F1000.0 ; Cut to next point
G1 X12.754 Y27.939 A270.000 F1000.0 ; Cut to next point
G1 X12.699 Y27.939 A270.000 F1000.0 ; Cut to next point
G1 X12.644 Y27.939 A270.000 F1000.0 ; Cut to next point
G1 X12.589 Y27.939 A270.000 F1000.0 ; Cut to next point
G1 X12.534 Y27.939 A270.000 F1000.0 ; Cut to next point
G1 X12.479 Y27.939 A270.000 F1000.0 ; Cut to next point
G1 X12.424 Y27.939 A270.000 F1000.0 ; Cut to next point
G1 X12.369 Y27.939 A270.000 F1000.0 ; Cut to next point
G1 X12.314 Y27.939 A270.000 F1000.0 ; Cut to next point
G1 X12.259 Y27.939 A270.000 F1000.0 ; Cut to next point
G1 X12.204 Y27.939 A270.000 F1000.0 ; Cut to next point
G1 X12.149 Y27.939 A270.000 F1000.0 ; Cut to next point
G1 X12.094 Y27.939 A270.000 F1000.0 ; Cut to next point
G1 X12.039 Y27.939 A270.000 F1000.0 ; Cut to next point
G1 X11.984 Y27.939 A270.000 F1000.0 ; Cut to next point
G1 X11.929 Y27.939 A270.000 F1000.0 ; Cut to next point
G1 X11.874 Y27.939 A270.000 F1000.0 ; Cut to next point
G1 X11.819 Y27.939 A270.000 F1000.0 ; Cut to next point
G1 X11.764 Y27.939 A270.000 F1000.0 ; Cut to next point
G1 X11.709 Y27.939 A269.999 F1000.0 ; Cut to next point
G1 X11.654 Y27.939 A269.999 F1000.0 ; Cut to next point
G1 X11.599 Y27.939 A269.999 F1000.0 ; Cut to next point
G1 X11.544 Y27.939 A269.999 F1000.0 ; Cut to next point
G1 X11.489 Y27.939 A269.999 F1000.0 ; Cut to next point
G1 X11.434 Y27.939 A269.999 F1000.0 ; Cut to next point
G1 X11.379 Y27.939 A269.999 F1000.0 ; Cut to next point
G1 X11.324 Y27.939 A269.999 F1000.0 ; Cut to next point
G1 X11.269 Y27.939 A269.999 F1000.0 ; Cut to next point
G1 X11.214 Y27.939 A269.999 F1000.0 ; Cut to next point
G1 X11.159 Y27.939 A269.999 F1000.0 ; Cut to next point
G1 X11.104 Y27.939 A269.999 F1000.0 ; Cut to next point
G1 X11.049 Y27.939 A269.999 F1000.0 ; Cut to next point
G1 X10.994 Y27.939 A269.999 F1000.0 ; Cut to next point
G1 X10.939 Y27.939 A269.999 F1000.0 ; Cut to next point
G1 X10.884 Y27.939 A269.999 F1000.0 ; Cut to next point
G1 X10.829 Y27.939 A269.999 F1000.0 ; Cut to next point
G1 X10.774 Y27.939 A269.999 F1000.0 ; Cut to next point
G1 X10.719 Y27.939 A269.999 F1000.0 ; Cut to next point
G1 X10.664 Y27.939 A269.999 F1000.0 ; Cut to next point
G1 X10.609 Y27.939 A269.999 F1000.0 ; Cut to next point
G1 X10.554 Y27.939 A269.999 F1000.0 ; Cut to next point
G1 X10.499 Y27.939 A269.999 F1000.0 ; Cut to next point
G1 X10.444 Y27.939 A269.999 F1000.0 ; Cut to next point
G1 X10.389 Y27.939 A269.999 F1000.0 ; Cut to next point
G1 X10.334 Y27.939 A269.999 F1000.0 ; Cut to next point
G1 X10.279 Y27.939 A269.999 F1000.0 ; Cut to next point
G1 X10.224 Y27.939 A269.999 F1000.0 ; Cut to next point
G1 X10.169 Y27.939 A269.999 F1000.0 ; Cut to next point
G1 X10.114 Y27.939 A269.999 F1000.0 ; Cut to next point
G1 X10.059 Y27.939 A269.999 F1000.0 ; Cut to next point
G1 X10.004 Y27.939 A269.999 F1000.0 ; Cut to next point
G1 X9.949 Y27.939 A269.999 F1000.0 ; Cut to next point
G1 X9.897 Y27.939 A269.998 F1000.0 ; Cut to next point
G1 X9.846 Y27.939 A269.998 F1000.0 ; Cut to next point
G1 X9.795 Y27.939 A269.998 F1000.0 ; Cut to next point
G1 X9.744 Y27.939 A269.998 F1000.0 ; Cut to next point
G1 X9.692 Y27.939 A269.998 F1000.0 ; Cut to next point
G1 X9.641 Y27.939 A269.998 F1000.0 ; Cut to next point
G1 X9.590 Y27.939 A269.998 F1000.0 ; Cut to next point
G1 X9.539 Y27.939 A269.998 F1000.0 ; Cut to next point
G1 X9.487 Y27.939 A269.998 F1000.0 ; Cut to next point
G1 X9.436 Y27.939 A269.998 F1000.0 ; Cut to next point
G1 X9.385 Y27.939 A269.998 F1000.0 ; Cut to next point
G1 X9.334 Y27.939 A269.998 F1000.0 ; Cut to next point
G1 X9.283 Y27.939 A269.998 F1000.0 ; Cut to next point
G1 X9.231 Y27.939 A269.998 F1000.0 ; Cut to next point
G1 X9.180 Y27.939 A269.998 F1000.0 ; Cut to next point
G1 X9.129 Y27.939 A269.998 F1000.0 ; Cut to next point
G1 X9.078 Y27.939 A269.998 F1000.0 ; Cut to next point
G1 X9.026 Y27.939 A269.998 F1000.0 ; Cut to next point
G1 X8.975 Y27.939 A269.998 F1000.0 ; Cut to next point
G1 X8.924 Y27.939 A269.998 F1000.0 ; Cut to next point
