; Fabric CNC Toolpath
; Generated by ToolpathGenerator

G20 ; Set units to inches
G90 ; Set absolute positioning
G28 ; Home all axes

G0 Z-0.5 ; Move to safe height

; Shape: merged_shape_0
G0 X1.000 Y16.906 ; Move to start
G0 A18.237 ; Set initial cutting wheel angle
G0 Z-1.25 ; Plunge to cutting height
G1 X1.018 Y16.852 A18.237 F1000.0 ; Cut to next point
G1 X1.036 Y16.797 A18.226 F1000.0 ; Cut to next point
G1 X1.054 Y16.743 A18.205 F1000.0 ; Cut to next point
G1 X1.071 Y16.689 A18.173 F1000.0 ; Cut to next point
G1 X1.089 Y16.635 A18.131 F1000.0 ; Cut to next point
G1 X1.107 Y16.580 A18.078 F1000.0 ; Cut to next point
G1 X1.125 Y16.526 A18.014 F1000.0 ; Cut to next point
G1 X1.142 Y16.472 A17.940 F1000.0 ; Cut to next point
G1 X1.160 Y16.417 A17.855 F1000.0 ; Cut to next point
G1 X1.177 Y16.363 A17.760 F1000.0 ; Cut to next point
G1 X1.194 Y16.309 A17.653 F1000.0 ; Cut to next point
G1 X1.212 Y16.254 A17.537 F1000.0 ; Cut to next point
G1 X1.229 Y16.200 A17.409 F1000.0 ; Cut to next point
G1 X1.246 Y16.145 A17.271 F1000.0 ; Cut to next point
G1 X1.262 Y16.091 A17.123 F1000.0 ; Cut to next point
G1 X1.279 Y16.036 A16.963 F1000.0 ; Cut to next point
G1 X1.295 Y15.982 A16.794 F1000.0 ; Cut to next point
G1 X1.312 Y15.927 A16.613 F1000.0 ; Cut to next point
G1 X1.328 Y15.872 A16.422 F1000.0 ; Cut to next point
G1 X1.344 Y15.817 A16.220 F1000.0 ; Cut to next point
G1 X1.360 Y15.762 A16.008 F1000.0 ; Cut to next point
G1 X1.375 Y15.708 A15.785 F1000.0 ; Cut to next point
G1 X1.390 Y15.653 A15.554 F1000.0 ; Cut to next point
G1 X1.405 Y15.598 A15.337 F1000.0 ; Cut to next point
G1 X1.420 Y15.542 A15.150 F1000.0 ; Cut to next point
G1 X1.435 Y15.487 A14.985 F1000.0 ; Cut to next point
G1 X1.450 Y15.432 A14.826 F1000.0 ; Cut to next point
G1 X1.464 Y15.377 A14.666 F1000.0 ; Cut to next point
G1 X1.479 Y15.322 A14.506 F1000.0 ; Cut to next point
G1 X1.493 Y15.266 A14.346 F1000.0 ; Cut to next point
G1 X1.507 Y15.211 A14.185 F1000.0 ; Cut to next point
G1 X1.520 Y15.156 A14.025 F1000.0 ; Cut to next point
G1 X1.534 Y15.100 A13.864 F1000.0 ; Cut to next point
G1 X1.548 Y15.045 A13.703 F1000.0 ; Cut to next point
G1 X1.561 Y14.989 A13.542 F1000.0 ; Cut to next point
G1 X1.574 Y14.934 A13.380 F1000.0 ; Cut to next point
G1 X1.587 Y14.878 A13.218 F1000.0 ; Cut to next point
G1 X1.600 Y14.823 A13.056 F1000.0 ; Cut to next point
G1 X1.613 Y14.767 A12.894 F1000.0 ; Cut to next point
G1 X1.626 Y14.711 A12.732 F1000.0 ; Cut to next point
G1 X1.638 Y14.656 A12.569 F1000.0 ; Cut to next point
G1 X1.650 Y14.600 A12.406 F1000.0 ; Cut to next point
G1 X1.662 Y14.544 A12.243 F1000.0 ; Cut to next point
G1 X1.674 Y14.488 A12.080 F1000.0 ; Cut to next point
G1 X1.686 Y14.432 A11.916 F1000.0 ; Cut to next point
G1 X1.698 Y14.376 A11.752 F1000.0 ; Cut to next point
G1 X1.709 Y14.321 A11.588 F1000.0 ; Cut to next point
G1 X1.720 Y14.265 A11.424 F1000.0 ; Cut to next point
G1 X1.732 Y14.209 A11.260 F1000.0 ; Cut to next point
G1 X1.743 Y14.153 A11.095 F1000.0 ; Cut to next point
G1 X1.753 Y14.097 A10.930 F1000.0 ; Cut to next point
G1 X1.764 Y14.040 A10.765 F1000.0 ; Cut to next point
G1 X1.775 Y13.984 A10.600 F1000.0 ; Cut to next point
G1 X1.785 Y13.928 A10.436 F1000.0 ; Cut to next point
G1 X1.795 Y13.872 A10.271 F1000.0 ; Cut to next point
G1 X1.805 Y13.816 A10.107 F1000.0 ; Cut to next point
G1 X1.815 Y13.760 A9.943 F1000.0 ; Cut to next point
G1 X1.825 Y13.703 A9.779 F1000.0 ; Cut to next point
G1 X1.834 Y13.647 A9.615 F1000.0 ; Cut to next point
G1 X1.844 Y13.591 A9.451 F1000.0 ; Cut to next point
G1 X1.853 Y13.534 A9.288 F1000.0 ; Cut to next point
G1 X1.862 Y13.478 A9.124 F1000.0 ; Cut to next point
G1 X1.871 Y13.422 A8.961 F1000.0 ; Cut to next point
G1 X1.879 Y13.365 A8.798 F1000.0 ; Cut to next point
G1 X1.888 Y13.309 A8.635 F1000.0 ; Cut to next point
G1 X1.896 Y13.252 A8.472 F1000.0 ; Cut to next point
G1 X1.905 Y13.196 A8.309 F1000.0 ; Cut to next point
G1 X1.913 Y13.140 A8.146 F1000.0 ; Cut to next point
G1 X1.921 Y13.083 A7.983 F1000.0 ; Cut to next point
G1 X1.928 Y13.026 A7.819 F1000.0 ; Cut to next point
G1 X1.936 Y12.970 A7.655 F1000.0 ; Cut to next point
G1 X1.943 Y12.913 A7.491 F1000.0 ; Cut to next point
G1 X1.951 Y12.857 A7.327 F1000.0 ; Cut to next point
G1 X1.958 Y12.800 A7.162 F1000.0 ; Cut to next point
G1 X1.965 Y12.743 A6.997 F1000.0 ; Cut to next point
G1 X1.972 Y12.687 A6.835 F1000.0 ; Cut to next point
G1 X1.978 Y12.630 A6.687 F1000.0 ; Cut to next point
G1 X1.985 Y12.573 A6.541 F1000.0 ; Cut to next point
G1 X1.991 Y12.517 A6.388 F1000.0 ; Cut to next point
G1 X1.997 Y12.460 A6.229 F1000.0 ; Cut to next point
G1 X2.003 Y12.403 A6.064 F1000.0 ; Cut to next point
G1 X2.009 Y12.346 A5.893 F1000.0 ; Cut to next point
G1 X2.015 Y12.290 A5.715 F1000.0 ; Cut to next point
G1 X2.020 Y12.233 A5.531 F1000.0 ; Cut to next point
G1 X2.026 Y12.176 A5.340 F1000.0 ; Cut to next point
G1 X2.031 Y12.119 A5.144 F1000.0 ; Cut to next point
G1 X2.036 Y12.062 A4.941 F1000.0 ; Cut to next point
G1 X2.040 Y12.005 A4.732 F1000.0 ; Cut to next point
G1 X2.045 Y11.949 A4.530 F1000.0 ; Cut to next point
G1 X2.049 Y11.892 A4.345 F1000.0 ; Cut to next point
G1 X2.053 Y11.835 A4.176 F1000.0 ; Cut to next point
G1 X2.057 Y11.778 A4.025 F1000.0 ; Cut to next point
G1 X2.061 Y11.721 A3.890 F1000.0 ; Cut to next point
G1 X2.065 Y11.664 A3.772 F1000.0 ; Cut to next point
G1 X2.069 Y11.607 A3.671 F1000.0 ; Cut to next point
G1 X2.072 Y11.550 A3.586 F1000.0 ; Cut to next point
G1 X2.076 Y11.493 A3.519 F1000.0 ; Cut to next point
G1 X2.079 Y11.436 A3.469 F1000.0 ; Cut to next point
G1 X2.083 Y11.379 A3.435 F1000.0 ; Cut to next point
G1 X2.086 Y11.322 A3.418 F1000.0 ; Cut to next point
G1 X2.090 Y11.268 A4.034 F1000.0 ; Cut to next point
G1 X2.094 Y11.213 A4.047 F1000.0 ; Cut to next point
G1 X2.098 Y11.159 A4.074 F1000.0 ; Cut to next point
G1 X2.102 Y11.104 A4.115 F1000.0 ; Cut to next point
G1 X2.106 Y11.050 A4.168 F1000.0 ; Cut to next point
G1 X2.110 Y10.995 A4.235 F1000.0 ; Cut to next point
G1 X2.114 Y10.941 A4.316 F1000.0 ; Cut to next point
G1 X2.118 Y10.886 A4.410 F1000.0 ; Cut to next point
G1 X2.122 Y10.832 A4.518 F1000.0 ; Cut to next point
G1 X2.127 Y10.777 A4.639 F1000.0 ; Cut to next point
G1 X2.131 Y10.723 A4.773 F1000.0 ; Cut to next point
G1 X2.136 Y10.669 A4.921 F1000.0 ; Cut to next point
G1 X2.141 Y10.614 A5.083 F1000.0 ; Cut to next point
G1 X2.146 Y10.560 A5.257 F1000.0 ; Cut to next point
G1 X2.151 Y10.505 A5.446 F1000.0 ; Cut to next point
G1 X2.156 Y10.451 A5.648 F1000.0 ; Cut to next point
G1 X2.162 Y10.397 A5.863 F1000.0 ; Cut to next point
G1 X2.168 Y10.343 A6.092 F1000.0 ; Cut to next point
G1 X2.174 Y10.288 A6.334 F1000.0 ; Cut to next point
G1 X2.180 Y10.234 A6.590 F1000.0 ; Cut to next point
G1 X2.186 Y10.180 A6.859 F1000.0 ; Cut to next point
G1 X2.193 Y10.126 A7.136 F1000.0 ; Cut to next point
G1 X2.200 Y10.072 A7.406 F1000.0 ; Cut to next point
G1 X2.207 Y10.017 A7.668 F1000.0 ; Cut to next point
G1 X2.215 Y9.963 A7.922 F1000.0 ; Cut to next point
G1 X2.223 Y9.909 A8.168 F1000.0 ; Cut to next point
G1 X2.231 Y9.855 A8.405 F1000.0 ; Cut to next point
G1 X2.239 Y9.801 A8.633 F1000.0 ; Cut to next point
G1 X2.247 Y9.747 A8.854 F1000.0 ; Cut to next point
G1 X2.256 Y9.693 A9.066 F1000.0 ; Cut to next point
G1 X2.265 Y9.640 A9.270 F1000.0 ; Cut to next point
G1 X2.274 Y9.586 A9.465 F1000.0 ; Cut to next point
G1 X2.283 Y9.532 A9.656 F1000.0 ; Cut to next point
G1 X2.292 Y9.478 A9.847 F1000.0 ; Cut to next point
G1 X2.302 Y9.424 A10.042 F1000.0 ; Cut to next point
G1 X2.311 Y9.371 A10.238 F1000.0 ; Cut to next point
G1 X2.321 Y9.317 A10.437 F1000.0 ; Cut to next point
G1 X2.331 Y9.263 A10.638 F1000.0 ; Cut to next point
G1 X2.342 Y9.210 A10.842 F1000.0 ; Cut to next point
G1 X2.352 Y9.156 A11.048 F1000.0 ; Cut to next point
G1 X2.363 Y9.102 A11.256 F1000.0 ; Cut to next point
G1 X2.374 Y9.049 A11.467 F1000.0 ; Cut to next point
G1 X2.385 Y8.995 A11.679 F1000.0 ; Cut to next point
G1 X2.396 Y8.942 A11.891 F1000.0 ; Cut to next point
G1 X2.407 Y8.889 A12.102 F1000.0 ; Cut to next point
G1 X2.419 Y8.835 A12.314 F1000.0 ; Cut to next point
G1 X2.431 Y8.782 A12.525 F1000.0 ; Cut to next point
G1 X2.443 Y8.729 A12.736 F1000.0 ; Cut to next point
G1 X2.455 Y8.675 A12.946 F1000.0 ; Cut to next point
G1 X2.468 Y8.622 A13.157 F1000.0 ; Cut to next point
G1 X2.480 Y8.569 A13.367 F1000.0 ; Cut to next point
G1 X2.493 Y8.516 A13.577 F1000.0 ; Cut to next point
G1 X2.506 Y8.463 A13.787 F1000.0 ; Cut to next point
G1 X2.519 Y8.410 A13.996 F1000.0 ; Cut to next point
G1 X2.533 Y8.357 A14.206 F1000.0 ; Cut to next point
G1 X2.546 Y8.304 A14.415 F1000.0 ; Cut to next point
G1 X2.560 Y8.251 A14.623 F1000.0 ; Cut to next point
G1 X2.574 Y8.198 A14.832 F1000.0 ; Cut to next point
G1 X2.588 Y8.146 A15.041 F1000.0 ; Cut to next point
G1 X2.603 Y8.093 A15.249 F1000.0 ; Cut to next point
G1 X2.617 Y8.040 A15.457 F1000.0 ; Cut to next point
G1 X2.632 Y7.988 A15.665 F1000.0 ; Cut to next point
G1 X2.647 Y7.935 A15.873 F1000.0 ; Cut to next point
G1 X2.662 Y7.883 A16.080 F1000.0 ; Cut to next point
G1 X2.677 Y7.830 A16.288 F1000.0 ; Cut to next point
G1 X2.693 Y7.778 A16.496 F1000.0 ; Cut to next point
G1 X2.708 Y7.726 A16.704 F1000.0 ; Cut to next point
G1 X2.724 Y7.673 A16.912 F1000.0 ; Cut to next point
G1 X2.740 Y7.621 A17.120 F1000.0 ; Cut to next point
G1 X2.757 Y7.569 A17.328 F1000.0 ; Cut to next point
G1 X2.773 Y7.517 A17.536 F1000.0 ; Cut to next point
G1 X2.790 Y7.465 A17.744 F1000.0 ; Cut to next point
G1 X2.807 Y7.413 A17.953 F1000.0 ; Cut to next point
G1 X2.824 Y7.361 A18.161 F1000.0 ; Cut to next point
G1 X2.841 Y7.309 A18.370 F1000.0 ; Cut to next point
G1 X2.858 Y7.258 A18.579 F1000.0 ; Cut to next point
G1 X2.876 Y7.206 A18.787 F1000.0 ; Cut to next point
G1 X2.894 Y7.154 A18.996 F1000.0 ; Cut to next point
G1 X2.912 Y7.103 A19.205 F1000.0 ; Cut to next point
G1 X2.930 Y7.051 A19.414 F1000.0 ; Cut to next point
G1 X2.948 Y7.000 A19.623 F1000.0 ; Cut to next point
G1 X2.967 Y6.949 A19.831 F1000.0 ; Cut to next point
G1 X2.985 Y6.897 A20.040 F1000.0 ; Cut to next point
G1 X3.004 Y6.846 A20.250 F1000.0 ; Cut to next point
G1 X3.023 Y6.795 A20.462 F1000.0 ; Cut to next point
G1 X3.043 Y6.744 A20.673 F1000.0 ; Cut to next point
G1 X3.062 Y6.693 A20.884 F1000.0 ; Cut to next point
G1 X3.082 Y6.642 A21.094 F1000.0 ; Cut to next point
G1 X3.102 Y6.591 A21.303 F1000.0 ; Cut to next point
G1 X3.122 Y6.540 A21.512 F1000.0 ; Cut to next point
G1 X3.142 Y6.489 A21.720 F1000.0 ; Cut to next point
G1 X3.162 Y6.439 A21.927 F1000.0 ; Cut to next point
G1 X3.183 Y6.388 A22.134 F1000.0 ; Cut to next point
G1 X3.203 Y6.338 A22.341 F1000.0 ; Cut to next point
G1 X3.224 Y6.287 A22.547 F1000.0 ; Cut to next point
G1 X3.246 Y6.237 A22.752 F1000.0 ; Cut to next point
G1 X3.267 Y6.187 A22.957 F1000.0 ; Cut to next point
G1 X3.288 Y6.136 A23.161 F1000.0 ; Cut to next point
G1 X3.310 Y6.086 A23.364 F1000.0 ; Cut to next point
G1 X3.332 Y6.036 A23.567 F1000.0 ; Cut to next point
G1 X3.354 Y5.986 A23.770 F1000.0 ; Cut to next point
G1 X3.376 Y5.936 A23.972 F1000.0 ; Cut to next point
G1 X3.398 Y5.886 A24.188 F1000.0 ; Cut to next point
G1 X3.421 Y5.837 A24.442 F1000.0 ; Cut to next point
G1 X3.444 Y5.787 A24.732 F1000.0 ; Cut to next point
G1 X3.467 Y5.738 A25.022 F1000.0 ; Cut to next point
G1 X3.490 Y5.688 A25.298 F1000.0 ; Cut to next point
G1 X3.514 Y5.639 A25.559 F1000.0 ; Cut to next point
G1 X3.538 Y5.590 A25.806 F1000.0 ; Cut to next point
G1 X3.562 Y5.541 A26.038 F1000.0 ; Cut to next point
G1 X3.586 Y5.492 A26.256 F1000.0 ; Cut to next point
G1 X3.610 Y5.443 A26.459 F1000.0 ; Cut to next point
G1 X3.634 Y5.394 A26.648 F1000.0 ; Cut to next point
G1 X3.659 Y5.346 A26.822 F1000.0 ; Cut to next point
G1 X3.684 Y5.297 A26.981 F1000.0 ; Cut to next point
G1 X3.709 Y5.248 A27.126 F1000.0 ; Cut to next point
G1 X3.734 Y5.200 A27.257 F1000.0 ; Cut to next point
G1 X3.759 Y5.151 A27.373 F1000.0 ; Cut to next point
G1 X3.784 Y5.103 A27.474 F1000.0 ; Cut to next point
G1 X3.809 Y5.054 A27.561 F1000.0 ; Cut to next point
G1 X3.835 Y5.006 A27.634 F1000.0 ; Cut to next point
G1 X3.860 Y4.958 A27.692 F1000.0 ; Cut to next point
G1 X3.886 Y4.909 A27.736 F1000.0 ; Cut to next point
G1 X3.911 Y4.861 A27.765 F1000.0 ; Cut to next point
G1 X3.936 Y4.813 A27.779 F1000.0 ; Cut to next point
G1 X3.963 Y4.765 A29.534 F1000.0 ; Cut to next point
G1 X3.991 Y4.717 A29.560 F1000.0 ; Cut to next point
G1 X4.018 Y4.669 A29.612 F1000.0 ; Cut to next point
G1 X4.045 Y4.622 A29.689 F1000.0 ; Cut to next point
G1 X4.072 Y4.574 A29.792 F1000.0 ; Cut to next point
G1 X4.099 Y4.527 A29.920 F1000.0 ; Cut to next point
G1 X4.127 Y4.479 A30.074 F1000.0 ; Cut to next point
G1 X4.155 Y4.432 A30.254 F1000.0 ; Cut to next point
G1 X4.182 Y4.385 A30.459 F1000.0 ; Cut to next point
G1 X4.210 Y4.337 A30.690 F1000.0 ; Cut to next point
G1 X4.238 Y4.290 A30.945 F1000.0 ; Cut to next point
G1 X4.267 Y4.243 A31.205 F1000.0 ; Cut to next point
G1 X4.296 Y4.197 A31.459 F1000.0 ; Cut to next point
G1 X4.324 Y4.150 A31.706 F1000.0 ; Cut to next point
G1 X4.353 Y4.104 A31.947 F1000.0 ; Cut to next point
G1 X4.383 Y4.057 A32.181 F1000.0 ; Cut to next point
G1 X4.412 Y4.011 A32.408 F1000.0 ; Cut to next point
G1 X4.442 Y3.965 A32.629 F1000.0 ; Cut to next point
G1 X4.471 Y3.919 A32.843 F1000.0 ; Cut to next point
G1 X4.501 Y3.873 A33.051 F1000.0 ; Cut to next point
G1 X4.531 Y3.827 A33.252 F1000.0 ; Cut to next point
G1 X4.561 Y3.781 A33.449 F1000.0 ; Cut to next point
G1 X4.592 Y3.735 A33.646 F1000.0 ; Cut to next point
G1 X4.622 Y3.690 A33.845 F1000.0 ; Cut to next point
G1 X4.653 Y3.644 A34.045 F1000.0 ; Cut to next point
G1 X4.684 Y3.599 A34.247 F1000.0 ; Cut to next point
G1 X4.715 Y3.554 A34.450 F1000.0 ; Cut to next point
G1 X4.746 Y3.509 A34.655 F1000.0 ; Cut to next point
G1 X4.778 Y3.464 A34.861 F1000.0 ; Cut to next point
G1 X4.809 Y3.419 A35.069 F1000.0 ; Cut to next point
G1 X4.841 Y3.374 A35.278 F1000.0 ; Cut to next point
G1 X4.873 Y3.329 A35.489 F1000.0 ; Cut to next point
G1 X4.905 Y3.285 A35.701 F1000.0 ; Cut to next point
G1 X4.937 Y3.240 A35.914 F1000.0 ; Cut to next point
G1 X4.969 Y3.196 A36.130 F1000.0 ; Cut to next point
G1 X5.002 Y3.152 A36.342 F1000.0 ; Cut to next point
G1 X5.034 Y3.108 A36.551 F1000.0 ; Cut to next point
G1 X5.067 Y3.064 A36.760 F1000.0 ; Cut to next point
G1 X5.100 Y3.020 A36.970 F1000.0 ; Cut to next point
G1 X5.133 Y2.976 A37.179 F1000.0 ; Cut to next point
G1 X5.166 Y2.933 A37.388 F1000.0 ; Cut to next point
G1 X5.200 Y2.889 A37.598 F1000.0 ; Cut to next point
G1 X5.234 Y2.846 A37.807 F1000.0 ; Cut to next point
G1 X5.267 Y2.803 A38.017 F1000.0 ; Cut to next point
G1 X5.301 Y2.760 A38.226 F1000.0 ; Cut to next point
G1 X5.335 Y2.717 A38.436 F1000.0 ; Cut to next point
G1 X5.370 Y2.674 A38.645 F1000.0 ; Cut to next point
G1 X5.404 Y2.631 A38.855 F1000.0 ; Cut to next point
G1 X5.439 Y2.589 A39.064 F1000.0 ; Cut to next point
G1 X5.473 Y2.546 A39.274 F1000.0 ; Cut to next point
G1 X5.508 Y2.504 A39.483 F1000.0 ; Cut to next point
G1 X5.543 Y2.462 A39.693 F1000.0 ; Cut to next point
G1 X5.578 Y2.420 A39.902 F1000.0 ; Cut to next point
G1 X5.614 Y2.378 A40.112 F1000.0 ; Cut to next point
G1 X5.649 Y2.336 A40.322 F1000.0 ; Cut to next point
G1 X5.685 Y2.294 A40.531 F1000.0 ; Cut to next point
G1 X5.721 Y2.253 A40.741 F1000.0 ; Cut to next point
G1 X5.757 Y2.211 A40.951 F1000.0 ; Cut to next point
G1 X5.793 Y2.170 A41.161 F1000.0 ; Cut to next point
G1 X5.829 Y2.129 A41.371 F1000.0 ; Cut to next point
G1 X5.865 Y2.088 A41.581 F1000.0 ; Cut to next point
G1 X5.902 Y2.047 A41.791 F1000.0 ; Cut to next point
G1 X5.939 Y2.006 A41.993 F1000.0 ; Cut to next point
G1 X5.975 Y1.965 A42.200 F1000.0 ; Cut to next point
G1 X6.013 Y1.925 A42.474 F1000.0 ; Cut to next point
G1 X6.050 Y1.885 A42.770 F1000.0 ; Cut to next point
G1 X6.087 Y1.845 A43.051 F1000.0 ; Cut to next point
G1 X6.125 Y1.805 A43.316 F1000.0 ; Cut to next point
G1 X6.163 Y1.765 A43.564 F1000.0 ; Cut to next point
G1 X6.201 Y1.725 A43.797 F1000.0 ; Cut to next point
