; Fabric CNC Toolpath
; Generated by ToolpathGenerator

G20 ; Set units to inches
G90 ; Set absolute positioning
G28 ; Home all axes

G0 Z-0.5 ; Move to safe height

; Shape: merged_shape_0
G0 X1.000 Y16.906 ; Move to start
G0 A18.237 ; Set initial cutting wheel angle
G0 Z-1.0 ; Plunge to cutting height
G4 P0.1 ; Wait 0.1 seconds for plunge to complete
G1 X1.018 Y16.852 F1000.0 ; Cut to next point
G1 X1.036 Y16.797 F1000.0 ; Cut to next point
G1 X1.054 Y16.743 F1000.0 ; Cut to next point
G1 X1.071 Y16.689 F1000.0 ; Cut to next point
G1 X1.089 Y16.635 F1000.0 ; Cut to next point
G1 X1.107 Y16.580 F1000.0 ; Cut to next point
G1 X1.125 Y16.526 F1000.0 ; Cut to next point
G1 X1.142 Y16.472 F1000.0 ; Cut to next point
G1 X1.160 Y16.417 F1000.0 ; Cut to next point
G1 X1.177 Y16.363 F1000.0 ; Cut to next point
G1 X1.194 Y16.309 F1000.0 ; Cut to next point
G1 X1.212 Y16.254 F1000.0 ; Cut to next point
G1 X1.229 Y16.200 F1000.0 ; Cut to next point
G1 X1.246 Y16.145 F1000.0 ; Cut to next point
G1 X1.262 Y16.091 F1000.0 ; Cut to next point
G1 X1.279 Y16.036 F1000.0 ; Cut to next point
G1 X1.295 Y15.982 F1000.0 ; Cut to next point
G1 X1.312 Y15.927 F1000.0 ; Cut to next point
G1 X1.328 Y15.872 F1000.0 ; Cut to next point
G1 X1.344 Y15.817 F1000.0 ; Cut to next point
G1 X1.360 Y15.762 F1000.0 ; Cut to next point
G1 X1.375 Y15.708 F1000.0 ; Cut to next point
G1 X1.390 Y15.653 F1000.0 ; Cut to next point
G1 X1.405 Y15.598 F1000.0 ; Cut to next point
G1 X1.420 Y15.542 F1000.0 ; Cut to next point
G1 X1.435 Y15.487 F1000.0 ; Cut to next point
G1 X1.450 Y15.432 F1000.0 ; Cut to next point
G1 X1.464 Y15.377 F1000.0 ; Cut to next point
G1 X1.479 Y15.322 F1000.0 ; Cut to next point
G1 X1.493 Y15.266 F1000.0 ; Cut to next point
G1 X1.507 Y15.211 F1000.0 ; Cut to next point
G1 X1.520 Y15.156 F1000.0 ; Cut to next point
G1 X1.534 Y15.100 F1000.0 ; Cut to next point
G1 X1.548 Y15.045 F1000.0 ; Cut to next point
G1 X1.561 Y14.989 F1000.0 ; Cut to next point
G1 X1.574 Y14.934 F1000.0 ; Cut to next point
G1 X1.587 Y14.878 F1000.0 ; Cut to next point
G1 X1.600 Y14.823 F1000.0 ; Cut to next point
G1 X1.613 Y14.767 F1000.0 ; Cut to next point
G1 X1.626 Y14.711 F1000.0 ; Cut to next point
G1 X1.638 Y14.656 F1000.0 ; Cut to next point
G1 X1.650 Y14.600 F1000.0 ; Cut to next point
G1 X1.662 Y14.544 F1000.0 ; Cut to next point
G1 X1.674 Y14.488 F1000.0 ; Cut to next point
G1 X1.686 Y14.432 F1000.0 ; Cut to next point
G1 X1.698 Y14.376 F1000.0 ; Cut to next point
G1 X1.709 Y14.321 F1000.0 ; Cut to next point
G1 X1.720 Y14.265 F1000.0 ; Cut to next point
G1 X1.732 Y14.209 F1000.0 ; Cut to next point
G1 X1.743 Y14.153 F1000.0 ; Cut to next point
G1 X1.753 Y14.097 F1000.0 ; Cut to next point
G1 X1.764 Y14.040 F1000.0 ; Cut to next point
G1 X1.775 Y13.984 F1000.0 ; Cut to next point
G1 X1.785 Y13.928 F1000.0 ; Cut to next point
G1 X1.795 Y13.872 F1000.0 ; Cut to next point
G1 X1.805 Y13.816 F1000.0 ; Cut to next point
G1 X1.815 Y13.760 F1000.0 ; Cut to next point
G1 X1.825 Y13.703 F1000.0 ; Cut to next point
G1 X1.834 Y13.647 F1000.0 ; Cut to next point
G1 X1.844 Y13.591 F1000.0 ; Cut to next point
G1 X1.853 Y13.534 F1000.0 ; Cut to next point
G1 X1.862 Y13.478 F1000.0 ; Cut to next point
G1 X1.871 Y13.422 F1000.0 ; Cut to next point
G1 X1.879 Y13.365 F1000.0 ; Cut to next point
G1 X1.888 Y13.309 F1000.0 ; Cut to next point
G1 X1.896 Y13.252 F1000.0 ; Cut to next point
G1 X1.905 Y13.196 F1000.0 ; Cut to next point
G1 X1.913 Y13.140 F1000.0 ; Cut to next point
G1 X1.921 Y13.083 F1000.0 ; Cut to next point
G1 X1.928 Y13.026 F1000.0 ; Cut to next point
G1 X1.936 Y12.970 F1000.0 ; Cut to next point
G1 X1.943 Y12.913 F1000.0 ; Cut to next point
G1 X1.951 Y12.857 F1000.0 ; Cut to next point
G1 X1.958 Y12.800 F1000.0 ; Cut to next point
G1 X1.965 Y12.743 F1000.0 ; Cut to next point
G1 X1.972 Y12.687 F1000.0 ; Cut to next point
G1 X1.978 Y12.630 F1000.0 ; Cut to next point
G1 X1.985 Y12.573 F1000.0 ; Cut to next point
G1 X1.991 Y12.517 F1000.0 ; Cut to next point
G1 X1.997 Y12.460 F1000.0 ; Cut to next point
G1 X2.003 Y12.403 F1000.0 ; Cut to next point
G1 X2.009 Y12.346 F1000.0 ; Cut to next point
G1 X2.015 Y12.290 F1000.0 ; Cut to next point
G1 X2.020 Y12.233 F1000.0 ; Cut to next point
G1 X2.026 Y12.176 F1000.0 ; Cut to next point
G1 X2.031 Y12.119 F1000.0 ; Cut to next point
G1 X2.036 Y12.062 F1000.0 ; Cut to next point
G1 X2.040 Y12.005 F1000.0 ; Cut to next point
G1 X2.045 Y11.949 F1000.0 ; Cut to next point
G1 X2.049 Y11.892 F1000.0 ; Cut to next point
G1 X2.053 Y11.835 F1000.0 ; Cut to next point
G1 X2.057 Y11.778 F1000.0 ; Cut to next point
G1 X2.061 Y11.721 F1000.0 ; Cut to next point
G1 X2.065 Y11.664 F1000.0 ; Cut to next point
G1 X2.069 Y11.607 F1000.0 ; Cut to next point
G1 X2.072 Y11.550 F1000.0 ; Cut to next point
G1 X2.076 Y11.493 F1000.0 ; Cut to next point
G1 X2.079 Y11.436 F1000.0 ; Cut to next point
G1 X2.083 Y11.379 F1000.0 ; Cut to next point
G1 X2.086 Y11.322 F1000.0 ; Cut to next point
G1 X2.090 Y11.268 F1000.0 ; Cut to next point
G1 X2.094 Y11.213 F1000.0 ; Cut to next point
G1 X2.098 Y11.159 F1000.0 ; Cut to next point
G1 X2.102 Y11.104 F1000.0 ; Cut to next point
G1 X2.106 Y11.050 F1000.0 ; Cut to next point
G1 X2.110 Y10.995 F1000.0 ; Cut to next point
G1 X2.114 Y10.941 F1000.0 ; Cut to next point
G1 X2.118 Y10.886 F1000.0 ; Cut to next point
G1 X2.122 Y10.832 F1000.0 ; Cut to next point
G1 X2.127 Y10.777 F1000.0 ; Cut to next point
G1 X2.131 Y10.723 F1000.0 ; Cut to next point
G1 X2.136 Y10.669 F1000.0 ; Cut to next point
G1 X2.141 Y10.614 F1000.0 ; Cut to next point
G1 X2.146 Y10.560 F1000.0 ; Cut to next point
G1 X2.151 Y10.505 F1000.0 ; Cut to next point
G1 X2.156 Y10.451 F1000.0 ; Cut to next point
G1 X2.162 Y10.397 F1000.0 ; Cut to next point
G1 X2.168 Y10.343 F1000.0 ; Cut to next point
G1 X2.174 Y10.288 F1000.0 ; Cut to next point
G1 X2.180 Y10.234 F1000.0 ; Cut to next point
G1 X2.186 Y10.180 F1000.0 ; Cut to next point
G1 X2.193 Y10.126 F1000.0 ; Cut to next point
G1 X2.200 Y10.072 F1000.0 ; Cut to next point
G1 X2.207 Y10.017 F1000.0 ; Cut to next point
G1 X2.215 Y9.963 F1000.0 ; Cut to next point
G1 X2.223 Y9.909 F1000.0 ; Cut to next point
G1 X2.231 Y9.855 F1000.0 ; Cut to next point
G1 X2.239 Y9.801 F1000.0 ; Cut to next point
G1 X2.247 Y9.747 F1000.0 ; Cut to next point
G1 X2.256 Y9.693 F1000.0 ; Cut to next point
G1 X2.265 Y9.640 F1000.0 ; Cut to next point
G1 X2.274 Y9.586 F1000.0 ; Cut to next point
G1 X2.283 Y9.532 F1000.0 ; Cut to next point
G1 X2.292 Y9.478 F1000.0 ; Cut to next point
G1 X2.302 Y9.424 F1000.0 ; Cut to next point
G1 X2.311 Y9.371 F1000.0 ; Cut to next point
G1 X2.321 Y9.317 F1000.0 ; Cut to next point
G1 X2.331 Y9.263 F1000.0 ; Cut to next point
G1 X2.342 Y9.210 F1000.0 ; Cut to next point
G1 X2.352 Y9.156 F1000.0 ; Cut to next point
G1 X2.363 Y9.102 F1000.0 ; Cut to next point
G1 X2.374 Y9.049 F1000.0 ; Cut to next point
G1 X2.385 Y8.995 F1000.0 ; Cut to next point
G1 X2.396 Y8.942 F1000.0 ; Cut to next point
G1 X2.407 Y8.889 F1000.0 ; Cut to next point
G1 X2.419 Y8.835 F1000.0 ; Cut to next point
G1 X2.431 Y8.782 F1000.0 ; Cut to next point
G1 X2.443 Y8.729 F1000.0 ; Cut to next point
G1 X2.455 Y8.675 F1000.0 ; Cut to next point
G1 X2.468 Y8.622 F1000.0 ; Cut to next point
G1 X2.480 Y8.569 F1000.0 ; Cut to next point
G1 X2.493 Y8.516 F1000.0 ; Cut to next point
G1 X2.506 Y8.463 F1000.0 ; Cut to next point
G1 X2.519 Y8.410 F1000.0 ; Cut to next point
G1 X2.533 Y8.357 F1000.0 ; Cut to next point
G1 X2.546 Y8.304 F1000.0 ; Cut to next point
G1 X2.560 Y8.251 F1000.0 ; Cut to next point
G1 X2.574 Y8.198 F1000.0 ; Cut to next point
G1 X2.588 Y8.146 F1000.0 ; Cut to next point
G1 X2.603 Y8.093 F1000.0 ; Cut to next point
G1 X2.617 Y8.040 F1000.0 ; Cut to next point
G1 X2.632 Y7.988 F1000.0 ; Cut to next point
G1 X2.647 Y7.935 F1000.0 ; Cut to next point
G1 X2.662 Y7.883 F1000.0 ; Cut to next point
G1 X2.677 Y7.830 F1000.0 ; Cut to next point
G1 X2.693 Y7.778 F1000.0 ; Cut to next point
G1 X2.708 Y7.726 F1000.0 ; Cut to next point
G1 X2.724 Y7.673 F1000.0 ; Cut to next point
G1 X2.740 Y7.621 F1000.0 ; Cut to next point
G1 X2.757 Y7.569 F1000.0 ; Cut to next point
G1 X2.773 Y7.517 F1000.0 ; Cut to next point
G1 X2.790 Y7.465 F1000.0 ; Cut to next point
G1 X2.807 Y7.413 F1000.0 ; Cut to next point
G1 X2.824 Y7.361 F1000.0 ; Cut to next point
G1 X2.841 Y7.309 F1000.0 ; Cut to next point
G1 X2.858 Y7.258 F1000.0 ; Cut to next point
G1 X2.876 Y7.206 F1000.0 ; Cut to next point
G1 X2.894 Y7.154 F1000.0 ; Cut to next point
G1 X2.912 Y7.103 F1000.0 ; Cut to next point
G1 X2.930 Y7.051 F1000.0 ; Cut to next point
G1 X2.948 Y7.000 F1000.0 ; Cut to next point
G1 X2.967 Y6.949 F1000.0 ; Cut to next point
G1 X2.985 Y6.897 F1000.0 ; Cut to next point
G1 X3.004 Y6.846 F1000.0 ; Cut to next point
G1 X3.023 Y6.795 F1000.0 ; Cut to next point
G1 X3.043 Y6.744 F1000.0 ; Cut to next point
G1 X3.062 Y6.693 F1000.0 ; Cut to next point
G1 X3.082 Y6.642 F1000.0 ; Cut to next point
G1 X3.102 Y6.591 F1000.0 ; Cut to next point
G1 X3.122 Y6.540 F1000.0 ; Cut to next point
G1 X3.142 Y6.489 F1000.0 ; Cut to next point
G1 X3.162 Y6.439 F1000.0 ; Cut to next point
G1 X3.183 Y6.388 F1000.0 ; Cut to next point
G1 X3.203 Y6.338 F1000.0 ; Cut to next point
G1 X3.224 Y6.287 F1000.0 ; Cut to next point
G1 X3.246 Y6.237 F1000.0 ; Cut to next point
G1 X3.267 Y6.187 F1000.0 ; Cut to next point
G1 X3.288 Y6.136 F1000.0 ; Cut to next point
G1 X3.310 Y6.086 F1000.0 ; Cut to next point
G1 X3.332 Y6.036 F1000.0 ; Cut to next point
G1 X3.354 Y5.986 F1000.0 ; Cut to next point
G1 X3.376 Y5.936 F1000.0 ; Cut to next point
G1 X3.398 Y5.886 F1000.0 ; Cut to next point
G1 X3.421 Y5.837 F1000.0 ; Cut to next point
G1 X3.444 Y5.787 F1000.0 ; Cut to next point
G1 X3.467 Y5.738 F1000.0 ; Cut to next point
G1 X3.490 Y5.688 F1000.0 ; Cut to next point
G1 X3.514 Y5.639 F1000.0 ; Cut to next point
G1 X3.538 Y5.590 F1000.0 ; Cut to next point
G1 X3.562 Y5.541 F1000.0 ; Cut to next point
G1 X3.586 Y5.492 F1000.0 ; Cut to next point
G1 X3.610 Y5.443 F1000.0 ; Cut to next point
G1 X3.634 Y5.394 F1000.0 ; Cut to next point
G1 X3.659 Y5.346 F1000.0 ; Cut to next point
G1 X3.684 Y5.297 F1000.0 ; Cut to next point
G1 X3.709 Y5.248 F1000.0 ; Cut to next point
G1 X3.734 Y5.200 F1000.0 ; Cut to next point
G1 X3.759 Y5.151 F1000.0 ; Cut to next point
G1 X3.784 Y5.103 F1000.0 ; Cut to next point
G1 X3.809 Y5.054 F1000.0 ; Cut to next point
G1 X3.835 Y5.006 F1000.0 ; Cut to next point
G1 X3.860 Y4.958 F1000.0 ; Cut to next point
G1 X3.886 Y4.909 F1000.0 ; Cut to next point
G1 X3.911 Y4.861 F1000.0 ; Cut to next point
G1 X3.936 Y4.813 F1000.0 ; Cut to next point
G1 X3.963 Y4.765 F1000.0 ; Cut to next point
G1 X3.991 Y4.717 F1000.0 ; Cut to next point
G1 X4.018 Y4.669 F1000.0 ; Cut to next point
G1 X4.045 Y4.622 F1000.0 ; Cut to next point
G1 X4.072 Y4.574 F1000.0 ; Cut to next point
G1 X4.099 Y4.527 F1000.0 ; Cut to next point
G1 X4.127 Y4.479 F1000.0 ; Cut to next point
G1 X4.155 Y4.432 F1000.0 ; Cut to next point
G1 X4.182 Y4.385 F1000.0 ; Cut to next point
G1 X4.210 Y4.337 F1000.0 ; Cut to next point
G1 X4.238 Y4.290 F1000.0 ; Cut to next point
G1 X4.267 Y4.243 F1000.0 ; Cut to next point
G1 X4.296 Y4.197 F1000.0 ; Cut to next point
G1 X4.324 Y4.150 F1000.0 ; Cut to next point
G1 X4.353 Y4.104 F1000.0 ; Cut to next point
G1 X4.383 Y4.057 F1000.0 ; Cut to next point
G1 X4.412 Y4.011 F1000.0 ; Cut to next point
G1 X4.442 Y3.965 F1000.0 ; Cut to next point
G1 X4.471 Y3.919 F1000.0 ; Cut to next point
G1 X4.501 Y3.873 F1000.0 ; Cut to next point
G1 X4.531 Y3.827 F1000.0 ; Cut to next point
G1 X4.561 Y3.781 F1000.0 ; Cut to next point
G1 X4.592 Y3.735 F1000.0 ; Cut to next point
G1 X4.622 Y3.690 F1000.0 ; Cut to next point
G1 X4.653 Y3.644 F1000.0 ; Cut to next point
G1 X4.684 Y3.599 F1000.0 ; Cut to next point
G1 X4.715 Y3.554 F1000.0 ; Cut to next point
G1 X4.746 Y3.509 F1000.0 ; Cut to next point
G1 X4.778 Y3.464 F1000.0 ; Cut to next point
G1 X4.809 Y3.419 F1000.0 ; Cut to next point
G1 X4.841 Y3.374 F1000.0 ; Cut to next point
G1 X4.873 Y3.329 F1000.0 ; Cut to next point
G1 X4.905 Y3.285 F1000.0 ; Cut to next point
G1 X4.937 Y3.240 F1000.0 ; Cut to next point
G1 X4.969 Y3.196 F1000.0 ; Cut to next point
G1 X5.002 Y3.152 F1000.0 ; Cut to next point
G1 X5.034 Y3.108 F1000.0 ; Cut to next point
G1 X5.067 Y3.064 F1000.0 ; Cut to next point
G1 X5.100 Y3.020 F1000.0 ; Cut to next point
G1 X5.133 Y2.976 F1000.0 ; Cut to next point
G1 X5.166 Y2.933 F1000.0 ; Cut to next point
G1 X5.200 Y2.889 F1000.0 ; Cut to next point
G1 X5.234 Y2.846 F1000.0 ; Cut to next point
G1 X5.267 Y2.803 F1000.0 ; Cut to next point
G1 X5.301 Y2.760 F1000.0 ; Cut to next point
G1 X5.335 Y2.717 F1000.0 ; Cut to next point
G1 X5.370 Y2.674 F1000.0 ; Cut to next point
G1 X5.404 Y2.631 F1000.0 ; Cut to next point
G1 X5.439 Y2.589 F1000.0 ; Cut to next point
G1 X5.473 Y2.546 F1000.0 ; Cut to next point
G1 X5.508 Y2.504 F1000.0 ; Cut to next point
G1 X5.543 Y2.462 F1000.0 ; Cut to next point
G1 X5.578 Y2.420 F1000.0 ; Cut to next point
G1 X5.614 Y2.378 F1000.0 ; Cut to next point
G1 X5.649 Y2.336 F1000.0 ; Cut to next point
G1 X5.685 Y2.294 F1000.0 ; Cut to next point
G1 X5.721 Y2.253 F1000.0 ; Cut to next point
G1 X5.757 Y2.211 F1000.0 ; Cut to next point
G1 X5.793 Y2.170 F1000.0 ; Cut to next point
G1 X5.829 Y2.129 F1000.0 ; Cut to next point
G1 X5.865 Y2.088 F1000.0 ; Cut to next point
G1 X5.902 Y2.047 F1000.0 ; Cut to next point
G1 X5.939 Y2.006 F1000.0 ; Cut to next point
G1 X5.975 Y1.965 F1000.0 ; Cut to next point
G1 X6.013 Y1.925 F1000.0 ; Cut to next point
G1 X6.050 Y1.885 F1000.0 ; Cut to next point
G1 X6.087 Y1.845 F1000.0 ; Cut to next point
G1 X6.125 Y1.805 F1000.0 ; Cut to next point
G1 X6.163 Y1.765 F1000.0 ; Cut to next point
G1 X6.201 Y1.725 F1000.0 ; Cut to next point
G1 X6.239 Y1.686 F1000.0 ; Cut to next point
G1 X6.277 Y1.647 F1000.0 ; Cut to next point
G1 X6.315 Y1.607 F1000.0 ; Cut to next point
G1 X6.354 Y1.568 F1000.0 ; Cut to next point
G1 X6.392 Y1.529 F1000.0 ; Cut to next point
G1 X6.431 Y1.491 F1000.0 ; Cut to next point
G1 X6.470 Y1.452 F1000.0 ; Cut to next point
G1 X6.509 Y1.413 F1000.0 ; Cut to next point
G1 X6.547 Y1.374 F1000.0 ; Cut to next point
G1 X6.586 Y1.336 F1000.0 ; Cut to next point
G1 X6.625 Y1.297 F1000.0 ; Cut to next point
G1 X6.664 Y1.259 F1000.0 ; Cut to next point
G1 X6.703 Y1.220 F1000.0 ; Cut to next point
G1 X6.756 Y1.172 F1000.0 ; Cut to next point
G1 X6.798 Y1.140 F1000.0 ; Cut to next point
G1 X6.842 Y1.110 F1000.0 ; Cut to next point
G1 X6.888 Y1.084 F1000.0 ; Cut to next point
G1 X6.936 Y1.062 F1000.0 ; Cut to next point
G1 X6.986 Y1.042 F1000.0 ; Cut to next point
G1 X7.036 Y1.026 F1000.0 ; Cut to next point
G1 X7.088 Y1.014 F1000.0 ; Cut to next point
G1 X7.140 Y1.006 F1000.0 ; Cut to next point
G1 X7.193 Y1.001 F1000.0 ; Cut to next point
G1 X7.246 Y1.000 F1000.0 ; Cut to next point
G1 X7.299 Y1.003 F1000.0 ; Cut to next point
G1 X7.351 Y1.009 F1000.0 ; Cut to next point
G1 X7.403 Y1.019 F1000.0 ; Cut to next point
G1 X7.455 Y1.033 F1000.0 ; Cut to next point
G1 X7.505 Y1.050 F1000.0 ; Cut to next point
G1 X7.553 Y1.071 F1000.0 ; Cut to next point
G1 X7.600 Y1.096 F1000.0 ; Cut to next point
G1 X7.646 Y1.123 F1000.0 ; Cut to next point
G1 X7.689 Y1.154 F1000.0 ; Cut to next point
G1 X7.730 Y1.187 F1000.0 ; Cut to next point
G1 X7.768 Y1.224 F1000.0 ; Cut to next point
G1 X7.804 Y1.263 F1000.0 ; Cut to next point
G1 X7.837 Y1.304 F1000.0 ; Cut to next point
G1 X7.867 Y1.348 F1000.0 ; Cut to next point
G1 X7.894 Y1.394 F1000.0 ; Cut to next point
G1 X7.917 Y1.441 F1000.0 ; Cut to next point
G1 X7.938 Y1.490 F1000.0 ; Cut to next point
G1 X7.954 Y1.541 F1000.0 ; Cut to next point
G1 X7.967 Y1.592 F1000.0 ; Cut to next point
G1 X7.976 Y1.644 F1000.0 ; Cut to next point
G1 X7.982 Y1.697 F1000.0 ; Cut to next point
G1 X7.984 Y1.750 F1000.0 ; Cut to next point
G1 X7.982 Y1.803 F1000.0 ; Cut to next point
G1 X7.977 Y1.855 F1000.0 ; Cut to next point
G1 X7.967 Y1.908 F1000.0 ; Cut to next point
