; Fabric CNC Toolpath
; Generated by ToolpathGenerator

G20 ; Set units to inches
G90 ; Set absolute positioning
G28 ; Home all axes

G0 Z5.0 ; Move to safe height

; Shape: shape_0
G0 X6.157 Y-28.068 ; Move to start
G0 Z-2.0 ; Plunge to cutting height
G1 X6.157 Y-27.974 A90.000 F1000.0 ; Cut to next point
G1 X6.157 Y-27.880 A90.000 F1000.0 ; Cut to next point
G1 X6.157 Y-27.786 A90.000 F1000.0 ; Cut to next point
G1 X6.157 Y-27.693 A90.000 F1000.0 ; Cut to next point
G1 X6.157 Y-26.818 A90.000 F1000.0 ; Cut to next point
G1 X6.157 Y-25.943 A90.000 F1000.0 ; Cut to next point
G1 X6.157 Y-25.068 A89.999 F1000.0 ; Cut to next point
G1 X6.157 Y-24.193 A89.999 F1000.0 ; Cut to next point
G0 Z5.0 ; Raise Z for corner
G0 A-158.435 ; Rotate Z for corner
G0 X-3.646 Y-28.068 ; Move to next point
G1 Z-2.0 F200.0 ; Lower Z to cutting height
G0 Z5.0 ; Raise Z for corner
G0 A0.000 ; Rotate Z for corner
G0 X-3.552 Y-28.068 ; Move to next point
G1 Z-2.0 F200.0 ; Lower Z to cutting height
G1 X-3.458 Y-28.068 A0.000 F1000.0 ; Cut to next point
G1 X-3.365 Y-28.068 A0.000 F1000.0 ; Cut to next point
G1 X-3.271 Y-28.068 A0.000 F1000.0 ; Cut to next point
G1 X-1.008 Y-28.068 A0.000 F1000.0 ; Cut to next point
G1 X1.255 Y-28.068 A0.001 F1000.0 ; Cut to next point
G1 X3.519 Y-28.068 A0.000 F1000.0 ; Cut to next point
G1 X5.782 Y-28.068 A-0.001 F1000.0 ; Cut to next point
G1 X5.875 Y-28.068 A-0.002 F1000.0 ; Cut to next point
G1 X5.969 Y-28.068 A-0.002 F1000.0 ; Cut to next point
G1 X6.063 Y-28.068 A-0.002 F1000.0 ; Cut to next point
G0 Z5.0 ; Raise Z for corner
G0 A158.246 ; Rotate Z for corner
G0 X-3.646 Y-24.193 ; Move to next point
G1 Z-2.0 F200.0 ; Lower Z to cutting height
G0 Z5.0 ; Raise Z for corner
G0 A-89.999 ; Rotate Z for corner
G0 X-3.646 Y-25.068 ; Move to next point
G1 Z-2.0 F200.0 ; Lower Z to cutting height
G1 X-3.646 Y-25.943 A-90.000 F1000.0 ; Cut to next point
G1 X-3.646 Y-26.818 A-90.000 F1000.0 ; Cut to next point
G1 X-3.646 Y-27.693 A-89.999 F1000.0 ; Cut to next point
G1 X-3.646 Y-27.786 A-89.998 F1000.0 ; Cut to next point
G1 X-3.646 Y-27.880 A-89.998 F1000.0 ; Cut to next point
G1 X-3.646 Y-27.974 A-89.998 F1000.0 ; Cut to next point
G0 Z5.0 ; Raise Z for corner
G0 A92.773 ; Rotate Z for corner
G0 X-3.973 Y-21.215 ; Move to next point
G1 Z-2.0 F200.0 ; Lower Z to cutting height
G0 Z5.0 ; Raise Z for corner
G0 A-78.634 ; Rotate Z for corner
G0 X-3.964 Y-21.261 ; Move to next point
G1 Z-2.0 F200.0 ; Lower Z to cutting height
G1 X-3.954 Y-21.308 A-78.662 F1000.0 ; Cut to next point
G1 X-3.945 Y-21.354 A-78.719 F1000.0 ; Cut to next point
G1 X-3.936 Y-21.400 A-78.804 F1000.0 ; Cut to next point
G1 X-3.931 Y-21.424 A-78.886 F1000.0 ; Cut to next point
G1 X-3.927 Y-21.447 A-78.952 F1000.0 ; Cut to next point
G1 X-3.922 Y-21.470 A-79.026 F1000.0 ; Cut to next point
G1 X-3.918 Y-21.493 A-79.108 F1000.0 ; Cut to next point
G1 X-3.914 Y-21.516 A-79.197 F1000.0 ; Cut to next point
G1 X-3.909 Y-21.539 A-79.286 F1000.0 ; Cut to next point
G1 X-3.905 Y-21.562 A-79.373 F1000.0 ; Cut to next point
G1 X-3.901 Y-21.585 A-79.457 F1000.0 ; Cut to next point
G1 X-3.896 Y-21.608 A-79.539 F1000.0 ; Cut to next point
G1 X-3.892 Y-21.631 A-79.617 F1000.0 ; Cut to next point
G1 X-3.888 Y-21.655 A-79.691 F1000.0 ; Cut to next point
G1 X-3.884 Y-21.678 A-79.761 F1000.0 ; Cut to next point
G1 X-3.880 Y-21.701 A-79.828 F1000.0 ; Cut to next point
G1 X-3.875 Y-21.724 A-79.896 F1000.0 ; Cut to next point
G1 X-3.871 Y-21.747 A-79.968 F1000.0 ; Cut to next point
G1 X-3.867 Y-21.771 A-80.042 F1000.0 ; Cut to next point
G1 X-3.863 Y-21.794 A-80.119 F1000.0 ; Cut to next point
G1 X-3.859 Y-21.817 A-80.197 F1000.0 ; Cut to next point
G1 X-3.855 Y-21.840 A-80.276 F1000.0 ; Cut to next point
G1 X-3.851 Y-21.863 A-80.355 F1000.0 ; Cut to next point
G1 X-3.847 Y-21.887 A-80.435 F1000.0 ; Cut to next point
G1 X-3.843 Y-21.910 A-80.515 F1000.0 ; Cut to next point
G1 X-3.840 Y-21.933 A-80.595 F1000.0 ; Cut to next point
G1 X-3.836 Y-21.956 A-80.675 F1000.0 ; Cut to next point
G1 X-3.828 Y-22.003 A-80.794 F1000.0 ; Cut to next point
G1 X-3.821 Y-22.049 A-80.956 F1000.0 ; Cut to next point
G1 X-3.814 Y-22.095 A-81.119 F1000.0 ; Cut to next point
G1 X-3.807 Y-22.142 A-81.285 F1000.0 ; Cut to next point
G1 X-3.800 Y-22.188 A-81.453 F1000.0 ; Cut to next point
G1 X-3.793 Y-22.235 A-81.623 F1000.0 ; Cut to next point
G1 X-3.786 Y-22.281 A-81.794 F1000.0 ; Cut to next point
G1 X-3.779 Y-22.328 A-81.967 F1000.0 ; Cut to next point
G1 X-3.767 Y-22.421 A-82.231 F1000.0 ; Cut to next point
G1 X-3.755 Y-22.514 A-82.587 F1000.0 ; Cut to next point
G1 X-3.743 Y-22.607 A-82.950 F1000.0 ; Cut to next point
G1 X-3.732 Y-22.700 A-83.319 F1000.0 ; Cut to next point
G1 X-3.722 Y-22.793 A-83.693 F1000.0 ; Cut to next point
G1 X-3.712 Y-22.886 A-84.073 F1000.0 ; Cut to next point
G1 X-3.703 Y-22.979 A-84.458 F1000.0 ; Cut to next point
G1 X-3.695 Y-23.073 A-84.848 F1000.0 ; Cut to next point
G1 X-3.691 Y-23.119 A-85.144 F1000.0 ; Cut to next point
G1 X-3.687 Y-23.166 A-85.343 F1000.0 ; Cut to next point
G1 X-3.683 Y-23.212 A-85.542 F1000.0 ; Cut to next point
G1 X-3.680 Y-23.259 A-85.742 F1000.0 ; Cut to next point
G1 X-3.677 Y-23.306 A-85.944 F1000.0 ; Cut to next point
G1 X-3.674 Y-23.352 A-86.146 F1000.0 ; Cut to next point
G1 X-3.671 Y-23.399 A-86.349 F1000.0 ; Cut to next point
G1 X-3.668 Y-23.446 A-86.553 F1000.0 ; Cut to next point
G1 X-3.665 Y-23.492 A-86.757 F1000.0 ; Cut to next point
G1 X-3.663 Y-23.539 A-86.963 F1000.0 ; Cut to next point
G1 X-3.660 Y-23.586 A-87.170 F1000.0 ; Cut to next point
G1 X-3.658 Y-23.632 A-87.378 F1000.0 ; Cut to next point
G1 X-3.656 Y-23.679 A-87.588 F1000.0 ; Cut to next point
G1 X-3.654 Y-23.726 A-87.797 F1000.0 ; Cut to next point
G1 X-3.653 Y-23.772 A-88.005 F1000.0 ; Cut to next point
G1 X-3.651 Y-23.819 A-88.213 F1000.0 ; Cut to next point
G1 X-3.651 Y-23.842 A-88.367 F1000.0 ; Cut to next point
G1 X-3.650 Y-23.866 A-88.469 F1000.0 ; Cut to next point
G1 X-3.649 Y-23.889 A-88.570 F1000.0 ; Cut to next point
G1 X-3.649 Y-23.913 A-88.670 F1000.0 ; Cut to next point
G1 X-3.648 Y-23.936 A-88.770 F1000.0 ; Cut to next point
G1 X-3.648 Y-23.959 A-88.876 F1000.0 ; Cut to next point
G1 X-3.648 Y-23.983 A-88.988 F1000.0 ; Cut to next point
G1 X-3.647 Y-24.006 A-89.107 F1000.0 ; Cut to next point
G1 X-3.647 Y-24.017 A-89.200 F1000.0 ; Cut to next point
G1 X-3.647 Y-24.029 A-89.263 F1000.0 ; Cut to next point
G1 X-3.647 Y-24.041 A-89.327 F1000.0 ; Cut to next point
G1 X-3.647 Y-24.052 A-89.391 F1000.0 ; Cut to next point
G1 X-3.646 Y-24.064 A-89.455 F1000.0 ; Cut to next point
G1 X-3.646 Y-24.075 A-89.513 F1000.0 ; Cut to next point
G1 X-3.646 Y-24.087 A-89.566 F1000.0 ; Cut to next point
G1 X-3.646 Y-24.099 A-89.614 F1000.0 ; Cut to next point
G1 X-3.646 Y-24.122 A-89.673 F1000.0 ; Cut to next point
G1 X-3.646 Y-24.146 A-89.734 F1000.0 ; Cut to next point
G1 X-3.646 Y-24.169 A-89.774 F1000.0 ; Cut to next point
G0 Z5.0 ; Raise Z for corner
G0 A100.192 ; Rotate Z for corner
G0 X-4.697 Y-18.321 ; Move to next point
G1 Z-2.0 F200.0 ; Lower Z to cutting height
G0 Z5.0 ; Raise Z for corner
G0 A-74.997 ; Rotate Z for corner
G0 X-4.666 Y-18.439 ; Move to next point
G1 Z-2.0 F200.0 ; Lower Z to cutting height
G1 X-4.634 Y-18.557 A-74.997 F1000.0 ; Cut to next point
G1 X-4.602 Y-18.675 A-74.997 F1000.0 ; Cut to next point
G1 X-4.571 Y-18.793 A-74.997 F1000.0 ; Cut to next point
G1 X-4.530 Y-18.945 A-75.002 F1000.0 ; Cut to next point
G1 X-4.490 Y-19.097 A-75.030 F1000.0 ; Cut to next point
G1 X-4.449 Y-19.248 A-75.084 F1000.0 ; Cut to next point
G1 X-4.409 Y-19.400 A-75.165 F1000.0 ; Cut to next point
G1 X-4.389 Y-19.476 A-75.242 F1000.0 ; Cut to next point
G1 X-4.369 Y-19.551 A-75.303 F1000.0 ; Cut to next point
G1 X-4.349 Y-19.627 A-75.370 F1000.0 ; Cut to next point
G1 X-4.330 Y-19.702 A-75.444 F1000.0 ; Cut to next point
G1 X-4.310 Y-19.778 A-75.525 F1000.0 ; Cut to next point
G1 X-4.291 Y-19.854 A-75.612 F1000.0 ; Cut to next point
G1 X-4.272 Y-19.929 A-75.706 F1000.0 ; Cut to next point
G1 X-4.253 Y-20.005 A-75.806 F1000.0 ; Cut to next point
G1 X-4.234 Y-20.081 A-75.913 F1000.0 ; Cut to next point
G1 X-4.215 Y-20.156 A-76.027 F1000.0 ; Cut to next point
G1 X-4.196 Y-20.232 A-76.148 F1000.0 ; Cut to next point
G1 X-4.178 Y-20.307 A-76.275 F1000.0 ; Cut to next point
G1 X-4.169 Y-20.345 A-76.376 F1000.0 ; Cut to next point
G1 X-4.159 Y-20.383 A-76.445 F1000.0 ; Cut to next point
G1 X-4.150 Y-20.421 A-76.516 F1000.0 ; Cut to next point
G1 X-4.141 Y-20.458 A-76.589 F1000.0 ; Cut to next point
G1 X-4.132 Y-20.496 A-76.663 F1000.0 ; Cut to next point
G1 X-4.123 Y-20.534 A-76.737 F1000.0 ; Cut to next point
G1 X-4.115 Y-20.572 A-76.810 F1000.0 ; Cut to next point
G1 X-4.106 Y-20.610 A-76.884 F1000.0 ; Cut to next point
G1 X-4.097 Y-20.647 A-76.957 F1000.0 ; Cut to next point
G1 X-4.088 Y-20.685 A-77.033 F1000.0 ; Cut to next point
G1 X-4.080 Y-20.723 A-77.113 F1000.0 ; Cut to next point
G1 X-4.071 Y-20.761 A-77.196 F1000.0 ; Cut to next point
G1 X-4.063 Y-20.799 A-77.284 F1000.0 ; Cut to next point
G1 X-4.054 Y-20.836 A-77.378 F1000.0 ; Cut to next point
G1 X-4.046 Y-20.874 A-77.481 F1000.0 ; Cut to next point
G1 X-4.037 Y-20.912 A-77.592 F1000.0 ; Cut to next point
G1 X-4.033 Y-20.931 A-77.679 F1000.0 ; Cut to next point
G1 X-4.029 Y-20.949 A-77.737 F1000.0 ; Cut to next point
G1 X-4.025 Y-20.968 A-77.794 F1000.0 ; Cut to next point
G1 X-4.021 Y-20.987 A-77.849 F1000.0 ; Cut to next point
G1 X-4.017 Y-21.006 A-77.902 F1000.0 ; Cut to next point
G1 X-4.013 Y-21.025 A-77.951 F1000.0 ; Cut to next point
G1 X-4.009 Y-21.044 A-77.994 F1000.0 ; Cut to next point
G1 X-4.005 Y-21.063 A-78.033 F1000.0 ; Cut to next point
G1 X-3.997 Y-21.101 A-78.082 F1000.0 ; Cut to next point
G1 X-3.989 Y-21.139 A-78.132 F1000.0 ; Cut to next point
G1 X-3.981 Y-21.177 A-78.165 F1000.0 ; Cut to next point
G0 Z5.0 ; Raise Z for corner
G0 A48.949 ; Rotate Z for corner
G0 X-1.494 Y-18.321 ; Move to next point
G1 Z-2.0 F200.0 ; Lower Z to cutting height
G0 Z5.0 ; Raise Z for corner
G0 A179.999 ; Rotate Z for corner
G0 X-1.579 Y-18.321 ; Move to next point
G1 Z-2.0 F200.0 ; Lower Z to cutting height
G1 X-1.664 Y-18.321 A179.998 F1000.0 ; Cut to next point
G1 X-1.749 Y-18.321 A179.998 F1000.0 ; Cut to next point
G1 X-1.834 Y-18.321 A179.998 F1000.0 ; Cut to next point
G1 X-1.919 Y-18.321 A179.998 F1000.0 ; Cut to next point
G1 X-2.003 Y-18.321 A179.998 F1000.0 ; Cut to next point
G1 X-2.088 Y-18.321 A179.998 F1000.0 ; Cut to next point
G1 X-2.173 Y-18.321 A179.998 F1000.0 ; Cut to next point
G1 X-2.343 Y-18.321 A179.998 F1000.0 ; Cut to next point
G1 X-2.512 Y-18.321 A179.998 F1000.0 ; Cut to next point
G1 X-2.682 Y-18.321 A179.998 F1000.0 ; Cut to next point
G1 X-2.851 Y-18.321 A179.998 F1000.0 ; Cut to next point
G1 X-3.191 Y-18.321 A179.998 F1000.0 ; Cut to next point
G1 X-3.530 Y-18.321 A179.998 F1000.0 ; Cut to next point
G1 X-3.869 Y-18.321 A179.998 F1000.0 ; Cut to next point
G1 X-4.209 Y-18.321 A179.998 F1000.0 ; Cut to next point
G1 X-4.331 Y-18.321 A179.998 F1000.0 ; Cut to next point
G1 X-4.453 Y-18.321 A179.998 F1000.0 ; Cut to next point
G1 X-4.575 Y-18.321 A179.998 F1000.0 ; Cut to next point
G0 Z5.0 ; Raise Z for corner
G0 A-0.001 ; Rotate Z for corner
G0 X4.005 Y-18.321 ; Move to next point
G1 Z-2.0 F200.0 ; Lower Z to cutting height
G0 Z5.0 ; Raise Z for corner
G0 A-179.999 ; Rotate Z for corner
G0 X2.630 Y-18.321 ; Move to next point
G1 Z-2.0 F200.0 ; Lower Z to cutting height
G1 X1.255 Y-18.321 A-180.000 F1000.0 ; Cut to next point
G1 X-0.119 Y-18.321 A180.000 F1000.0 ; Cut to next point
G0 Z5.0 ; Raise Z for corner
G0 A0.001 ; Rotate Z for corner
G0 X7.208 Y-18.321 ; Move to next point
G1 Z-2.0 F200.0 ; Lower Z to cutting height
G0 Z5.0 ; Raise Z for corner
G0 A-179.998 ; Rotate Z for corner
G0 X7.086 Y-18.321 ; Move to next point
G1 Z-2.0 F200.0 ; Lower Z to cutting height
G1 X6.964 Y-18.321 A-179.998 F1000.0 ; Cut to next point
G1 X6.842 Y-18.321 A-179.998 F1000.0 ; Cut to next point
G1 X6.720 Y-18.321 A-179.998 F1000.0 ; Cut to next point
G1 X6.550 Y-18.321 A-179.998 F1000.0 ; Cut to next point
G1 X6.380 Y-18.321 A-179.998 F1000.0 ; Cut to next point
G1 X6.211 Y-18.321 A-179.998 F1000.0 ; Cut to next point
G1 X6.041 Y-18.321 A-179.998 F1000.0 ; Cut to next point
G1 X5.871 Y-18.321 A-179.998 F1000.0 ; Cut to next point
G1 X5.702 Y-18.321 A-179.998 F1000.0 ; Cut to next point
G1 X5.532 Y-18.321 A-179.998 F1000.0 ; Cut to next point
G1 X5.362 Y-18.321 A-179.998 F1000.0 ; Cut to next point
G1 X5.278 Y-18.321 A-179.998 F1000.0 ; Cut to next point
G1 X5.193 Y-18.321 A-179.998 F1000.0 ; Cut to next point
G1 X5.108 Y-18.321 A-179.998 F1000.0 ; Cut to next point
G1 X5.023 Y-18.321 A-179.998 F1000.0 ; Cut to next point
G1 X4.938 Y-18.321 A-179.998 F1000.0 ; Cut to next point
G1 X4.854 Y-18.321 A-179.998 F1000.0 ; Cut to next point
G1 X4.769 Y-18.321 A-179.998 F1000.0 ; Cut to next point
G1 X4.684 Y-18.321 A-179.998 F1000.0 ; Cut to next point
G1 X4.599 Y-18.321 A-179.998 F1000.0 ; Cut to next point
G1 X4.514 Y-18.321 A-179.998 F1000.0 ; Cut to next point
G1 X4.430 Y-18.321 A-179.998 F1000.0 ; Cut to next point
G1 X4.345 Y-18.321 A-179.998 F1000.0 ; Cut to next point
G1 X4.302 Y-18.321 A-179.998 F1000.0 ; Cut to next point
G1 X4.260 Y-18.321 A-179.998 F1000.0 ; Cut to next point
G1 X4.217 Y-18.321 A-179.998 F1000.0 ; Cut to next point
G1 X4.175 Y-18.321 A-179.998 F1000.0 ; Cut to next point
G1 X4.154 Y-18.321 A-179.998 F1000.0 ; Cut to next point
G1 X4.133 Y-18.321 A-179.998 F1000.0 ; Cut to next point
G1 X4.111 Y-18.321 A-179.998 F1000.0 ; Cut to next point
G1 X4.090 Y-18.321 A-179.998 F1000.0 ; Cut to next point
G1 X4.069 Y-18.321 A-179.998 F1000.0 ; Cut to next point
G1 X4.048 Y-18.321 A-179.998 F1000.0 ; Cut to next point
G1 X4.027 Y-18.321 A-179.998 F1000.0 ; Cut to next point
G0 Z5.0 ; Raise Z for corner
G0 A-49.658 ; Rotate Z for corner
G0 X6.484 Y-21.215 ; Move to next point
G1 Z-2.0 F200.0 ; Lower Z to cutting height
G0 Z5.0 ; Raise Z for corner
G0 A78.187 ; Rotate Z for corner
G0 X6.492 Y-21.177 ; Move to next point
G1 Z-2.0 F200.0 ; Lower Z to cutting height
G1 X6.500 Y-21.139 A78.168 F1000.0 ; Cut to next point
G1 X6.508 Y-21.101 A78.133 F1000.0 ; Cut to next point
G1 X6.516 Y-21.063 A78.082 F1000.0 ; Cut to next point
G1 X6.520 Y-21.044 A78.032 F1000.0 ; Cut to next point
G1 X6.524 Y-21.025 A77.993 F1000.0 ; Cut to next point
G1 X6.528 Y-21.006 A77.949 F1000.0 ; Cut to next point
G1 X6.532 Y-20.987 A77.901 F1000.0 ; Cut to next point
G1 X6.536 Y-20.968 A77.848 F1000.0 ; Cut to next point
G1 X6.540 Y-20.949 A77.793 F1000.0 ; Cut to next point
G1 X6.544 Y-20.931 A77.737 F1000.0 ; Cut to next point
G1 X6.548 Y-20.912 A77.679 F1000.0 ; Cut to next point
G1 X6.557 Y-20.874 A77.592 F1000.0 ; Cut to next point
G1 X6.565 Y-20.836 A77.482 F1000.0 ; Cut to next point
G1 X6.574 Y-20.799 A77.379 F1000.0 ; Cut to next point
G1 X6.582 Y-20.761 A77.284 F1000.0 ; Cut to next point
G1 X6.591 Y-20.723 A77.197 F1000.0 ; Cut to next point
G1 X6.599 Y-20.685 A77.114 F1000.0 ; Cut to next point
G1 X6.608 Y-20.647 A77.034 F1000.0 ; Cut to next point
G1 X6.617 Y-20.610 A76.957 F1000.0 ; Cut to next point
G1 X6.626 Y-20.572 A76.884 F1000.0 ; Cut to next point
G1 X6.634 Y-20.534 A76.811 F1000.0 ; Cut to next point
G1 X6.643 Y-20.496 A76.737 F1000.0 ; Cut to next point
G1 X6.652 Y-20.458 A76.663 F1000.0 ; Cut to next point
G1 X6.661 Y-20.421 A76.589 F1000.0 ; Cut to next point
G1 X6.670 Y-20.383 A76.516 F1000.0 ; Cut to next point
G1 X6.680 Y-20.345 A76.445 F1000.0 ; Cut to next point
G1 X6.689 Y-20.307 A76.376 F1000.0 ; Cut to next point
G1 X6.707 Y-20.232 A76.275 F1000.0 ; Cut to next point
G1 X6.726 Y-20.156 A76.148 F1000.0 ; Cut to next point
G1 X6.745 Y-20.080 A76.027 F1000.0 ; Cut to next point
G1 X6.764 Y-20.005 A75.913 F1000.0 ; Cut to next point
G1 X6.783 Y-19.929 A75.806 F1000.0 ; Cut to next point
G1 X6.802 Y-19.854 A75.706 F1000.0 ; Cut to next point
G1 X6.821 Y-19.778 A75.612 F1000.0 ; Cut to next point
