; Fabric CNC Toolpath
; Generated by ToolpathGenerator

G20 ; Set units to inches
G90 ; Set absolute positioning
G28 ; Home all axes

G0 Z5.0 ; Move to safe height

; Shape: shape_0
G0 X30.571 Y26.146 ; Move to start
G0 Z-2.0 ; Plunge to cutting height
G1 X30.571 Y26.240 A90.000 F1000.0 ; Cut to next point
G1 X30.571 Y26.334 A90.000 F1000.0 ; Cut to next point
G1 X30.571 Y26.428 A90.000 F1000.0 ; Cut to next point
G1 X30.571 Y26.521 A90.000 F1000.0 ; Cut to next point
G1 X30.571 Y27.396 A90.000 F1000.0 ; Cut to next point
G1 X30.571 Y28.271 A90.000 F1000.0 ; Cut to next point
G1 X30.571 Y29.146 A89.999 F1000.0 ; Cut to next point
G1 X30.571 Y30.021 A89.999 F1000.0 ; Cut to next point
G0 Z5.0 ; Raise Z for corner
G0 A-158.435 ; Rotate Z for corner
G0 X20.768 Y26.146 ; Move to next point
G1 Z-2.0 F200.0 ; Lower Z to cutting height
G0 Z5.0 ; Raise Z for corner
G0 A0.000 ; Rotate Z for corner
G0 X20.862 Y26.146 ; Move to next point
G1 Z-2.0 F200.0 ; Lower Z to cutting height
G1 X20.956 Y26.146 A0.000 F1000.0 ; Cut to next point
G1 X21.050 Y26.146 A0.000 F1000.0 ; Cut to next point
G1 X21.143 Y26.146 A0.000 F1000.0 ; Cut to next point
G1 X23.407 Y26.146 A0.000 F1000.0 ; Cut to next point
G1 X25.670 Y26.146 A0.001 F1000.0 ; Cut to next point
G1 X27.933 Y26.146 A0.000 F1000.0 ; Cut to next point
G1 X30.196 Y26.146 A-0.001 F1000.0 ; Cut to next point
G1 X30.290 Y26.146 A-0.002 F1000.0 ; Cut to next point
G1 X30.383 Y26.146 A-0.002 F1000.0 ; Cut to next point
G1 X30.477 Y26.146 A-0.002 F1000.0 ; Cut to next point
G0 Z5.0 ; Raise Z for corner
G0 A158.246 ; Rotate Z for corner
G0 X20.768 Y30.021 ; Move to next point
G1 Z-2.0 F200.0 ; Lower Z to cutting height
G0 Z5.0 ; Raise Z for corner
G0 A-89.999 ; Rotate Z for corner
G0 X20.768 Y29.146 ; Move to next point
G1 Z-2.0 F200.0 ; Lower Z to cutting height
G1 X20.768 Y28.271 A-90.000 F1000.0 ; Cut to next point
G1 X20.768 Y27.396 A-90.000 F1000.0 ; Cut to next point
G1 X20.768 Y26.521 A-89.999 F1000.0 ; Cut to next point
G1 X20.768 Y26.428 A-89.998 F1000.0 ; Cut to next point
G1 X20.768 Y26.334 A-89.998 F1000.0 ; Cut to next point
G1 X20.768 Y26.240 A-89.998 F1000.0 ; Cut to next point
G0 Z5.0 ; Raise Z for corner
G0 A92.773 ; Rotate Z for corner
G0 X20.441 Y32.999 ; Move to next point
G1 Z-2.0 F200.0 ; Lower Z to cutting height
G0 Z5.0 ; Raise Z for corner
G0 A-78.634 ; Rotate Z for corner
G0 X20.450 Y32.953 ; Move to next point
G1 Z-2.0 F200.0 ; Lower Z to cutting height
G1 X20.460 Y32.906 A-78.662 F1000.0 ; Cut to next point
G1 X20.469 Y32.860 A-78.719 F1000.0 ; Cut to next point
G1 X20.478 Y32.814 A-78.804 F1000.0 ; Cut to next point
G1 X20.483 Y32.790 A-78.886 F1000.0 ; Cut to next point
G1 X20.487 Y32.767 A-78.952 F1000.0 ; Cut to next point
G1 X20.492 Y32.744 A-79.026 F1000.0 ; Cut to next point
G1 X20.496 Y32.721 A-79.108 F1000.0 ; Cut to next point
G1 X20.501 Y32.698 A-79.197 F1000.0 ; Cut to next point
G1 X20.505 Y32.675 A-79.286 F1000.0 ; Cut to next point
G1 X20.509 Y32.652 A-79.373 F1000.0 ; Cut to next point
G1 X20.514 Y32.629 A-79.457 F1000.0 ; Cut to next point
G1 X20.518 Y32.606 A-79.539 F1000.0 ; Cut to next point
G1 X20.522 Y32.582 A-79.617 F1000.0 ; Cut to next point
G1 X20.526 Y32.559 A-79.691 F1000.0 ; Cut to next point
G1 X20.530 Y32.536 A-79.761 F1000.0 ; Cut to next point
G1 X20.535 Y32.513 A-79.828 F1000.0 ; Cut to next point
G1 X20.539 Y32.490 A-79.896 F1000.0 ; Cut to next point
G1 X20.543 Y32.466 A-79.968 F1000.0 ; Cut to next point
G1 X20.547 Y32.443 A-80.042 F1000.0 ; Cut to next point
G1 X20.551 Y32.420 A-80.119 F1000.0 ; Cut to next point
G1 X20.555 Y32.397 A-80.197 F1000.0 ; Cut to next point
G1 X20.559 Y32.374 A-80.276 F1000.0 ; Cut to next point
G1 X20.563 Y32.351 A-80.355 F1000.0 ; Cut to next point
G1 X20.567 Y32.327 A-80.435 F1000.0 ; Cut to next point
G1 X20.571 Y32.304 A-80.515 F1000.0 ; Cut to next point
G1 X20.575 Y32.281 A-80.595 F1000.0 ; Cut to next point
G1 X20.578 Y32.258 A-80.675 F1000.0 ; Cut to next point
G1 X20.586 Y32.211 A-80.794 F1000.0 ; Cut to next point
G1 X20.593 Y32.165 A-80.956 F1000.0 ; Cut to next point
G1 X20.600 Y32.118 A-81.119 F1000.0 ; Cut to next point
G1 X20.608 Y32.072 A-81.285 F1000.0 ; Cut to next point
G1 X20.615 Y32.026 A-81.453 F1000.0 ; Cut to next point
G1 X20.621 Y31.979 A-81.623 F1000.0 ; Cut to next point
G1 X20.628 Y31.933 A-81.794 F1000.0 ; Cut to next point
G1 X20.635 Y31.886 A-81.967 F1000.0 ; Cut to next point
G1 X20.647 Y31.793 A-82.231 F1000.0 ; Cut to next point
G1 X20.659 Y31.700 A-82.587 F1000.0 ; Cut to next point
G1 X20.671 Y31.607 A-82.950 F1000.0 ; Cut to next point
G1 X20.682 Y31.514 A-83.319 F1000.0 ; Cut to next point
G1 X20.692 Y31.421 A-83.693 F1000.0 ; Cut to next point
G1 X20.702 Y31.328 A-84.073 F1000.0 ; Cut to next point
G1 X20.711 Y31.235 A-84.458 F1000.0 ; Cut to next point
G1 X20.719 Y31.141 A-84.848 F1000.0 ; Cut to next point
G1 X20.723 Y31.095 A-85.144 F1000.0 ; Cut to next point
G1 X20.727 Y31.048 A-85.343 F1000.0 ; Cut to next point
G1 X20.731 Y31.001 A-85.542 F1000.0 ; Cut to next point
G1 X20.734 Y30.955 A-85.742 F1000.0 ; Cut to next point
G1 X20.737 Y30.908 A-85.944 F1000.0 ; Cut to next point
G1 X20.741 Y30.862 A-86.146 F1000.0 ; Cut to next point
G1 X20.744 Y30.815 A-86.349 F1000.0 ; Cut to next point
G1 X20.746 Y30.768 A-86.553 F1000.0 ; Cut to next point
G1 X20.749 Y30.722 A-86.757 F1000.0 ; Cut to next point
G1 X20.752 Y30.675 A-86.963 F1000.0 ; Cut to next point
G1 X20.754 Y30.628 A-87.170 F1000.0 ; Cut to next point
G1 X20.756 Y30.582 A-87.378 F1000.0 ; Cut to next point
G1 X20.758 Y30.535 A-87.588 F1000.0 ; Cut to next point
G1 X20.760 Y30.488 A-87.797 F1000.0 ; Cut to next point
G1 X20.761 Y30.442 A-88.005 F1000.0 ; Cut to next point
G1 X20.763 Y30.395 A-88.213 F1000.0 ; Cut to next point
G1 X20.763 Y30.371 A-88.367 F1000.0 ; Cut to next point
G1 X20.764 Y30.348 A-88.469 F1000.0 ; Cut to next point
G1 X20.765 Y30.325 A-88.570 F1000.0 ; Cut to next point
G1 X20.765 Y30.301 A-88.670 F1000.0 ; Cut to next point
G1 X20.766 Y30.278 A-88.770 F1000.0 ; Cut to next point
G1 X20.766 Y30.255 A-88.876 F1000.0 ; Cut to next point
G1 X20.767 Y30.231 A-88.988 F1000.0 ; Cut to next point
G1 X20.767 Y30.208 A-89.107 F1000.0 ; Cut to next point
G1 X20.767 Y30.197 A-89.200 F1000.0 ; Cut to next point
G1 X20.767 Y30.185 A-89.263 F1000.0 ; Cut to next point
G1 X20.767 Y30.173 A-89.327 F1000.0 ; Cut to next point
G1 X20.768 Y30.162 A-89.391 F1000.0 ; Cut to next point
G1 X20.768 Y30.150 A-89.455 F1000.0 ; Cut to next point
G1 X20.768 Y30.138 A-89.513 F1000.0 ; Cut to next point
G1 X20.768 Y30.127 A-89.566 F1000.0 ; Cut to next point
G1 X20.768 Y30.115 A-89.614 F1000.0 ; Cut to next point
G1 X20.768 Y30.092 A-89.673 F1000.0 ; Cut to next point
G1 X20.768 Y30.068 A-89.734 F1000.0 ; Cut to next point
G1 X20.768 Y30.044 A-89.774 F1000.0 ; Cut to next point
G0 Z5.0 ; Raise Z for corner
G0 A100.192 ; Rotate Z for corner
G0 X19.717 Y35.893 ; Move to next point
G1 Z-2.0 F200.0 ; Lower Z to cutting height
G0 Z5.0 ; Raise Z for corner
G0 A-74.997 ; Rotate Z for corner
G0 X19.748 Y35.775 ; Move to next point
G1 Z-2.0 F200.0 ; Lower Z to cutting height
G1 X19.780 Y35.657 A-74.997 F1000.0 ; Cut to next point
G1 X19.812 Y35.539 A-74.997 F1000.0 ; Cut to next point
G1 X19.843 Y35.421 A-74.997 F1000.0 ; Cut to next point
G1 X19.884 Y35.269 A-75.002 F1000.0 ; Cut to next point
G1 X19.925 Y35.117 A-75.030 F1000.0 ; Cut to next point
G1 X19.965 Y34.966 A-75.084 F1000.0 ; Cut to next point
G1 X20.005 Y34.814 A-75.165 F1000.0 ; Cut to next point
G1 X20.025 Y34.738 A-75.242 F1000.0 ; Cut to next point
G1 X20.045 Y34.663 A-75.303 F1000.0 ; Cut to next point
G1 X20.065 Y34.587 A-75.370 F1000.0 ; Cut to next point
G1 X20.084 Y34.511 A-75.444 F1000.0 ; Cut to next point
G1 X20.104 Y34.436 A-75.525 F1000.0 ; Cut to next point
G1 X20.123 Y34.360 A-75.612 F1000.0 ; Cut to next point
G1 X20.142 Y34.285 A-75.706 F1000.0 ; Cut to next point
G1 X20.162 Y34.209 A-75.806 F1000.0 ; Cut to next point
G1 X20.181 Y34.133 A-75.913 F1000.0 ; Cut to next point
G1 X20.199 Y34.058 A-76.027 F1000.0 ; Cut to next point
G1 X20.218 Y33.982 A-76.148 F1000.0 ; Cut to next point
G1 X20.236 Y33.907 A-76.275 F1000.0 ; Cut to next point
G1 X20.246 Y33.869 A-76.376 F1000.0 ; Cut to next point
G1 X20.255 Y33.831 A-76.445 F1000.0 ; Cut to next point
G1 X20.264 Y33.793 A-76.516 F1000.0 ; Cut to next point
G1 X20.273 Y33.756 A-76.589 F1000.0 ; Cut to next point
G1 X20.282 Y33.718 A-76.663 F1000.0 ; Cut to next point
G1 X20.291 Y33.680 A-76.737 F1000.0 ; Cut to next point
G1 X20.300 Y33.642 A-76.810 F1000.0 ; Cut to next point
G1 X20.308 Y33.604 A-76.884 F1000.0 ; Cut to next point
G1 X20.317 Y33.566 A-76.957 F1000.0 ; Cut to next point
G1 X20.326 Y33.529 A-77.033 F1000.0 ; Cut to next point
G1 X20.334 Y33.491 A-77.113 F1000.0 ; Cut to next point
G1 X20.343 Y33.453 A-77.196 F1000.0 ; Cut to next point
G1 X20.352 Y33.415 A-77.284 F1000.0 ; Cut to next point
G1 X20.360 Y33.377 A-77.378 F1000.0 ; Cut to next point
G1 X20.368 Y33.340 A-77.481 F1000.0 ; Cut to next point
G1 X20.377 Y33.302 A-77.592 F1000.0 ; Cut to next point
G1 X20.381 Y33.283 A-77.679 F1000.0 ; Cut to next point
G1 X20.385 Y33.264 A-77.737 F1000.0 ; Cut to next point
G1 X20.389 Y33.246 A-77.794 F1000.0 ; Cut to next point
G1 X20.393 Y33.227 A-77.849 F1000.0 ; Cut to next point
G1 X20.397 Y33.208 A-77.902 F1000.0 ; Cut to next point
G1 X20.401 Y33.189 A-77.951 F1000.0 ; Cut to next point
G1 X20.405 Y33.170 A-77.994 F1000.0 ; Cut to next point
G1 X20.409 Y33.151 A-78.033 F1000.0 ; Cut to next point
G1 X20.417 Y33.113 A-78.082 F1000.0 ; Cut to next point
G1 X20.425 Y33.075 A-78.132 F1000.0 ; Cut to next point
G1 X20.433 Y33.037 A-78.165 F1000.0 ; Cut to next point
G0 Z5.0 ; Raise Z for corner
G0 A48.949 ; Rotate Z for corner
G0 X22.920 Y35.893 ; Move to next point
G1 Z-2.0 F200.0 ; Lower Z to cutting height
G0 Z5.0 ; Raise Z for corner
G0 A179.999 ; Rotate Z for corner
G0 X22.835 Y35.893 ; Move to next point
G1 Z-2.0 F200.0 ; Lower Z to cutting height
G1 X22.750 Y35.893 A179.998 F1000.0 ; Cut to next point
G1 X22.665 Y35.893 A179.998 F1000.0 ; Cut to next point
G1 X22.580 Y35.893 A179.998 F1000.0 ; Cut to next point
G1 X22.496 Y35.893 A179.998 F1000.0 ; Cut to next point
G1 X22.411 Y35.893 A179.998 F1000.0 ; Cut to next point
G1 X22.326 Y35.893 A179.998 F1000.0 ; Cut to next point
G1 X22.241 Y35.893 A179.998 F1000.0 ; Cut to next point
G1 X22.072 Y35.893 A179.998 F1000.0 ; Cut to next point
G1 X21.902 Y35.893 A179.998 F1000.0 ; Cut to next point
G1 X21.732 Y35.893 A179.998 F1000.0 ; Cut to next point
G1 X21.563 Y35.893 A179.998 F1000.0 ; Cut to next point
G1 X21.223 Y35.893 A179.998 F1000.0 ; Cut to next point
G1 X20.884 Y35.893 A179.998 F1000.0 ; Cut to next point
G1 X20.545 Y35.893 A179.998 F1000.0 ; Cut to next point
G1 X20.206 Y35.893 A179.998 F1000.0 ; Cut to next point
G1 X20.083 Y35.893 A179.998 F1000.0 ; Cut to next point
G1 X19.961 Y35.893 A179.998 F1000.0 ; Cut to next point
G1 X19.839 Y35.893 A179.998 F1000.0 ; Cut to next point
G0 Z5.0 ; Raise Z for corner
G0 A-0.001 ; Rotate Z for corner
G0 X28.420 Y35.893 ; Move to next point
G1 Z-2.0 F200.0 ; Lower Z to cutting height
G0 Z5.0 ; Raise Z for corner
G0 A-179.999 ; Rotate Z for corner
G0 X27.045 Y35.893 ; Move to next point
G1 Z-2.0 F200.0 ; Lower Z to cutting height
G1 X25.670 Y35.893 A-180.000 F1000.0 ; Cut to next point
G1 X24.295 Y35.893 A180.000 F1000.0 ; Cut to next point
G0 Z5.0 ; Raise Z for corner
G0 A0.001 ; Rotate Z for corner
G0 X31.622 Y35.893 ; Move to next point
G1 Z-2.0 F200.0 ; Lower Z to cutting height
G0 Z5.0 ; Raise Z for corner
G0 A-179.998 ; Rotate Z for corner
G0 X31.500 Y35.893 ; Move to next point
G1 Z-2.0 F200.0 ; Lower Z to cutting height
G1 X31.378 Y35.893 A-179.998 F1000.0 ; Cut to next point
G1 X31.256 Y35.893 A-179.998 F1000.0 ; Cut to next point
G1 X31.134 Y35.893 A-179.998 F1000.0 ; Cut to next point
G1 X30.964 Y35.893 A-179.998 F1000.0 ; Cut to next point
G1 X30.794 Y35.893 A-179.998 F1000.0 ; Cut to next point
G1 X30.625 Y35.893 A-179.998 F1000.0 ; Cut to next point
G1 X30.455 Y35.893 A-179.998 F1000.0 ; Cut to next point
G1 X30.286 Y35.893 A-179.998 F1000.0 ; Cut to next point
G1 X30.116 Y35.893 A-179.998 F1000.0 ; Cut to next point
G1 X29.946 Y35.893 A-179.998 F1000.0 ; Cut to next point
G1 X29.777 Y35.893 A-179.998 F1000.0 ; Cut to next point
G1 X29.692 Y35.893 A-179.998 F1000.0 ; Cut to next point
G1 X29.607 Y35.893 A-179.998 F1000.0 ; Cut to next point
G1 X29.522 Y35.893 A-179.998 F1000.0 ; Cut to next point
G1 X29.437 Y35.893 A-179.998 F1000.0 ; Cut to next point
G1 X29.353 Y35.893 A-179.998 F1000.0 ; Cut to next point
G1 X29.268 Y35.893 A-179.998 F1000.0 ; Cut to next point
G1 X29.183 Y35.893 A-179.998 F1000.0 ; Cut to next point
G1 X29.098 Y35.893 A-179.998 F1000.0 ; Cut to next point
G1 X29.013 Y35.893 A-179.998 F1000.0 ; Cut to next point
G1 X28.928 Y35.893 A-179.998 F1000.0 ; Cut to next point
G1 X28.844 Y35.893 A-179.998 F1000.0 ; Cut to next point
G1 X28.759 Y35.893 A-179.998 F1000.0 ; Cut to next point
G1 X28.716 Y35.893 A-179.998 F1000.0 ; Cut to next point
G1 X28.674 Y35.893 A-179.998 F1000.0 ; Cut to next point
G1 X28.632 Y35.893 A-179.998 F1000.0 ; Cut to next point
G1 X28.589 Y35.893 A-179.998 F1000.0 ; Cut to next point
G1 X28.568 Y35.893 A-179.998 F1000.0 ; Cut to next point
G1 X28.547 Y35.893 A-179.998 F1000.0 ; Cut to next point
G1 X28.526 Y35.893 A-179.998 F1000.0 ; Cut to next point
G1 X28.504 Y35.893 A-179.998 F1000.0 ; Cut to next point
G1 X28.483 Y35.893 A-179.998 F1000.0 ; Cut to next point
G1 X28.462 Y35.893 A-179.998 F1000.0 ; Cut to next point
G1 X28.441 Y35.893 A-179.998 F1000.0 ; Cut to next point
G0 Z5.0 ; Raise Z for corner
G0 A-49.658 ; Rotate Z for corner
G0 X30.898 Y32.999 ; Move to next point
G1 Z-2.0 F200.0 ; Lower Z to cutting height
G0 Z5.0 ; Raise Z for corner
G0 A78.187 ; Rotate Z for corner
G0 X30.906 Y33.037 ; Move to next point
G1 Z-2.0 F200.0 ; Lower Z to cutting height
G1 X30.914 Y33.075 A78.168 F1000.0 ; Cut to next point
G1 X30.922 Y33.113 A78.133 F1000.0 ; Cut to next point
G1 X30.930 Y33.151 A78.082 F1000.0 ; Cut to next point
G1 X30.934 Y33.170 A78.032 F1000.0 ; Cut to next point
G1 X30.938 Y33.189 A77.993 F1000.0 ; Cut to next point
G1 X30.942 Y33.208 A77.949 F1000.0 ; Cut to next point
G1 X30.946 Y33.227 A77.901 F1000.0 ; Cut to next point
G1 X30.950 Y33.246 A77.848 F1000.0 ; Cut to next point
G1 X30.954 Y33.264 A77.793 F1000.0 ; Cut to next point
G1 X30.958 Y33.283 A77.737 F1000.0 ; Cut to next point
G1 X30.963 Y33.302 A77.679 F1000.0 ; Cut to next point
G1 X30.971 Y33.340 A77.592 F1000.0 ; Cut to next point
G1 X30.979 Y33.377 A77.482 F1000.0 ; Cut to next point
G1 X30.988 Y33.415 A77.379 F1000.0 ; Cut to next point
G1 X30.996 Y33.453 A77.284 F1000.0 ; Cut to next point
G1 X31.005 Y33.491 A77.197 F1000.0 ; Cut to next point
G1 X31.013 Y33.529 A77.114 F1000.0 ; Cut to next point
G1 X31.022 Y33.566 A77.034 F1000.0 ; Cut to next point
G1 X31.031 Y33.604 A76.957 F1000.0 ; Cut to next point
G1 X31.040 Y33.642 A76.884 F1000.0 ; Cut to next point
G1 X31.049 Y33.680 A76.811 F1000.0 ; Cut to next point
G1 X31.058 Y33.718 A76.737 F1000.0 ; Cut to next point
G1 X31.066 Y33.756 A76.663 F1000.0 ; Cut to next point
G1 X31.075 Y33.793 A76.589 F1000.0 ; Cut to next point
G1 X31.085 Y33.831 A76.516 F1000.0 ; Cut to next point
G1 X31.094 Y33.869 A76.445 F1000.0 ; Cut to next point
G1 X31.103 Y33.907 A76.376 F1000.0 ; Cut to next point
G1 X31.121 Y33.982 A76.275 F1000.0 ; Cut to next point
G1 X31.140 Y34.058 A76.148 F1000.0 ; Cut to next point
G1 X31.159 Y34.133 A76.027 F1000.0 ; Cut to next point
G1 X31.178 Y34.209 A75.913 F1000.0 ; Cut to next point
G1 X31.197 Y34.285 A75.806 F1000.0 ; Cut to next point
G1 X31.216 Y34.360 A75.706 F1000.0 ; Cut to next point
G1 X31.235 Y34.436 A75.612 F1000.0 ; Cut to next point
G1 X31.255 Y34.511 A75.525 F1000.0 ; Cut to next point
G1 X31.275 Y34.587 A75.444 F1000.0 ; Cut to next point
G1 X31.294 Y34.663 A75.370 F1000.0 ; Cut to next point
