; Fabric CNC Toolpath
; Generated by ToolpathGenerator

G20 ; Set units to inches
G90 ; Set absolute positioning
G28 ; Home all axes

G0 Z5.0 ; Move to safe height

; Shape: shape_0
G0 X31.594 Y24.848 ; Move to start
G0 Z-2.0 ; Plunge to cutting height
G1 X31.614 Y24.564 A-85.908 F1000.0 ; Cut to next point
G1 X31.636 Y24.281 A-85.543 F1000.0 ; Cut to next point
G1 X31.662 Y23.998 A-84.814 F1000.0 ; Cut to next point
G1 X31.693 Y23.715 A-83.719 F1000.0 ; Cut to next point
G1 X31.712 Y23.567 A-82.676 F1000.0 ; Cut to next point
G1 X31.733 Y23.419 A-81.971 F1000.0 ; Cut to next point
G1 X31.756 Y23.271 A-81.328 F1000.0 ; Cut to next point
G1 X31.780 Y23.123 A-80.749 F1000.0 ; Cut to next point
G1 X31.803 Y22.990 A-80.244 F1000.0 ; Cut to next point
G1 X31.827 Y22.857 A-79.763 F1000.0 ; Cut to next point
G1 X31.852 Y22.725 A-79.267 F1000.0 ; Cut to next point
G1 X31.878 Y22.593 A-78.757 F1000.0 ; Cut to next point
G1 X31.937 Y22.315 A-77.946 F1000.0 ; Cut to next point
G1 X32.002 Y22.038 A-76.848 F1000.0 ; Cut to next point
G1 X32.072 Y21.762 A-75.755 F1000.0 ; Cut to next point
G1 X32.147 Y21.488 A-74.669 F1000.0 ; Cut to next point
G1 X32.206 Y21.287 A-73.730 F1000.0 ; Cut to next point
G1 X32.267 Y21.087 A-72.933 F1000.0 ; Cut to next point
G1 X32.332 Y20.888 A-72.135 F1000.0 ; Cut to next point
G1 X32.399 Y20.689 A-71.336 F1000.0 ; Cut to next point
G1 X32.421 Y20.626 A-70.807 F1000.0 ; Cut to next point
G1 X32.443 Y20.562 A-70.549 F1000.0 ; Cut to next point
G1 X32.466 Y20.499 A-70.292 F1000.0 ; Cut to next point
G1 X32.489 Y20.436 A-70.035 F1000.0 ; Cut to next point
G1 X32.494 Y20.421 A-69.876 F1000.0 ; Cut to next point
G1 X32.500 Y20.406 A-69.815 F1000.0 ; Cut to next point
G1 X32.588 Y20.171 A-69.300 F1000.0 ; Cut to next point
G1 X32.681 Y19.938 A-68.337 F1000.0 ; Cut to next point
G1 X32.777 Y19.706 A-67.388 F1000.0 ; Cut to next point
G1 X32.878 Y19.476 A-66.450 F1000.0 ; Cut to next point
G1 X32.891 Y19.446 A-65.920 F1000.0 ; Cut to next point
G1 X32.905 Y19.415 A-65.781 F1000.0 ; Cut to next point
G1 X32.919 Y19.385 A-65.627 F1000.0 ; Cut to next point
G1 X32.933 Y19.354 A-65.457 F1000.0 ; Cut to next point
G1 X33.055 Y19.097 A-64.645 F1000.0 ; Cut to next point
G1 X33.182 Y18.843 A-63.465 F1000.0 ; Cut to next point
G1 X33.312 Y18.590 A-62.678 F1000.0 ; Cut to next point
G1 X33.444 Y18.339 A-62.284 F1000.0 ; Cut to next point
G1 X33.514 Y18.215 A-60.441 F1000.0 ; Cut to next point
G1 X33.585 Y18.092 A-60.270 F1000.0 ; Cut to next point
G1 X33.655 Y17.970 A-59.928 F1000.0 ; Cut to next point
G1 X33.727 Y17.848 A-59.415 F1000.0 ; Cut to next point
G1 X33.802 Y17.725 A-58.761 F1000.0 ; Cut to next point
G1 X33.878 Y17.603 A-58.110 F1000.0 ; Cut to next point
G1 X33.956 Y17.481 A-57.506 F1000.0 ; Cut to next point
G1 X34.034 Y17.360 A-56.946 F1000.0 ; Cut to next point
G1 X34.140 Y17.202 A-56.340 F1000.0 ; Cut to next point
G1 X34.247 Y17.045 A-55.644 F1000.0 ; Cut to next point
G1 X34.356 Y16.890 A-54.931 F1000.0 ; Cut to next point
G1 X34.467 Y16.735 A-54.199 F1000.0 ; Cut to next point
G1 X34.479 Y16.719 A-53.789 F1000.0 ; Cut to next point
G1 X34.491 Y16.703 A-53.712 F1000.0 ; Cut to next point
G1 X34.542 Y16.635 A-53.511 F1000.0 ; Cut to next point
G1 X34.593 Y16.566 A-53.184 F1000.0 ; Cut to next point
G1 X34.645 Y16.498 A-52.857 F1000.0 ; Cut to next point
G1 X34.697 Y16.430 A-52.530 F1000.0 ; Cut to next point
G1 X34.871 Y16.209 A-51.830 F1000.0 ; Cut to next point
G1 X35.048 Y15.991 A-50.756 F1000.0 ; Cut to next point
G1 X35.230 Y15.777 A-49.682 F1000.0 ; Cut to next point
G1 X35.416 Y15.566 A-48.606 F1000.0 ; Cut to next point
G1 X35.425 Y15.556 A-48.043 F1000.0 ; Cut to next point
G1 X35.446 Y15.533 A-47.971 F1000.0 ; Cut to next point
G1 X35.463 Y15.514 A-47.868 F1000.0 ; Cut to next point
G1 X35.481 Y15.494 A-47.756 F1000.0 ; Cut to next point
G1 X35.498 Y15.475 A-47.627 F1000.0 ; Cut to next point
G1 X35.676 Y15.286 A-46.892 F1000.0 ; Cut to next point
G1 X35.857 Y15.100 A-45.802 F1000.0 ; Cut to next point
G1 X36.040 Y14.916 A-45.075 F1000.0 ; Cut to next point
G1 X36.224 Y14.733 A-44.710 F1000.0 ; Cut to next point
G1 X36.236 Y14.722 A-42.171 F1000.0 ; Cut to next point
G1 X36.249 Y14.711 A-41.776 F1000.0 ; Cut to next point
G1 X36.261 Y14.701 A-40.984 F1000.0 ; Cut to next point
G1 X36.273 Y14.690 A-39.794 F1000.0 ; Cut to next point
G1 X36.286 Y14.680 A-38.290 F1000.0 ; Cut to next point
G1 X36.299 Y14.671 A-36.814 F1000.0 ; Cut to next point
G1 X36.312 Y14.661 A-35.448 F1000.0 ; Cut to next point
G1 X36.326 Y14.652 A-34.194 F1000.0 ; Cut to next point
G1 X36.339 Y14.643 A-33.026 F1000.0 ; Cut to next point
G1 X36.353 Y14.635 A-31.851 F1000.0 ; Cut to next point
G1 X36.367 Y14.626 A-30.646 F1000.0 ; Cut to next point
G1 X36.381 Y14.618 A-29.409 F1000.0 ; Cut to next point
G1 X36.396 Y14.611 A-28.148 F1000.0 ; Cut to next point
G1 X36.410 Y14.603 A-26.887 F1000.0 ; Cut to next point
G1 X36.425 Y14.596 A-25.634 F1000.0 ; Cut to next point
G1 X36.439 Y14.590 A-24.387 F1000.0 ; Cut to next point
G1 X36.454 Y14.583 A-23.147 F1000.0 ; Cut to next point
G1 X36.469 Y14.577 A-21.915 F1000.0 ; Cut to next point
G1 X36.485 Y14.571 A-20.692 F1000.0 ; Cut to next point
G1 X36.500 Y14.566 A-19.479 F1000.0 ; Cut to next point
G1 X36.510 Y14.563 A-18.463 F1000.0 ; Cut to next point
G1 X36.521 Y14.559 A-17.621 F1000.0 ; Cut to next point
G1 X36.531 Y14.556 A-16.761 F1000.0 ; Cut to next point
G1 X36.541 Y14.553 A-15.911 F1000.0 ; Cut to next point
G1 X36.552 Y14.550 A-15.071 F1000.0 ; Cut to next point
G1 X36.562 Y14.548 A-14.241 F1000.0 ; Cut to next point
G1 X36.578 Y14.544 A-13.210 F1000.0 ; Cut to next point
G1 X36.594 Y14.541 A-11.975 F1000.0 ; Cut to next point
G1 X36.610 Y14.538 A-10.740 F1000.0 ; Cut to next point
G1 X36.626 Y14.535 A-9.507 F1000.0 ; Cut to next point
G1 X36.642 Y14.533 A-8.273 F1000.0 ; Cut to next point
G1 X36.658 Y14.531 A-7.040 F1000.0 ; Cut to next point
G1 X36.674 Y14.529 A-5.806 F1000.0 ; Cut to next point
G1 X36.690 Y14.528 A-4.572 F1000.0 ; Cut to next point
G1 X36.707 Y14.527 A-3.335 F1000.0 ; Cut to next point
G1 X36.723 Y14.526 A-2.096 F1000.0 ; Cut to next point
G1 X36.739 Y14.526 A-0.853 F1000.0 ; Cut to next point
G1 X36.755 Y14.526 A0.394 F1000.0 ; Cut to next point
G1 X36.772 Y14.526 A1.646 F1000.0 ; Cut to next point
G1 X36.788 Y14.527 A2.894 F1000.0 ; Cut to next point
G1 X36.804 Y14.528 A4.137 F1000.0 ; Cut to next point
G1 X36.820 Y14.530 A5.378 F1000.0 ; Cut to next point
G1 X36.836 Y14.532 A6.614 F1000.0 ; Cut to next point
G1 X36.852 Y14.534 A7.848 F1000.0 ; Cut to next point
G1 X36.868 Y14.537 A9.080 F1000.0 ; Cut to next point
G1 X36.884 Y14.540 A10.309 F1000.0 ; Cut to next point
G1 X36.900 Y14.543 A11.539 F1000.0 ; Cut to next point
G1 X36.916 Y14.546 A12.777 F1000.0 ; Cut to next point
G1 X36.932 Y14.550 A14.026 F1000.0 ; Cut to next point
G1 X36.948 Y14.555 A15.286 F1000.0 ; Cut to next point
G1 X36.963 Y14.559 A16.554 F1000.0 ; Cut to next point
G1 X36.979 Y14.564 A17.812 F1000.0 ; Cut to next point
G1 X36.994 Y14.570 A19.055 F1000.0 ; Cut to next point
G1 X37.009 Y14.575 A20.285 F1000.0 ; Cut to next point
G1 X37.024 Y14.581 A21.504 F1000.0 ; Cut to next point
G1 X37.039 Y14.587 A22.730 F1000.0 ; Cut to next point
G1 X37.054 Y14.594 A23.965 F1000.0 ; Cut to next point
G1 X37.069 Y14.601 A25.211 F1000.0 ; Cut to next point
G1 X37.083 Y14.608 A26.465 F1000.0 ; Cut to next point
G1 X37.098 Y14.616 A27.712 F1000.0 ; Cut to next point
G1 X37.112 Y14.624 A28.949 F1000.0 ; Cut to next point
G1 X37.126 Y14.632 A30.176 F1000.0 ; Cut to next point
G1 X37.140 Y14.640 A31.399 F1000.0 ; Cut to next point
G1 X37.154 Y14.649 A32.626 F1000.0 ; Cut to next point
G1 X37.167 Y14.658 A33.863 F1000.0 ; Cut to next point
G1 X37.180 Y14.667 A35.110 F1000.0 ; Cut to next point
G1 X37.193 Y14.677 A36.364 F1000.0 ; Cut to next point
G1 X37.206 Y14.687 A37.615 F1000.0 ; Cut to next point
G1 X37.219 Y14.697 A38.860 F1000.0 ; Cut to next point
G1 X37.231 Y14.707 A40.102 F1000.0 ; Cut to next point
G1 X37.243 Y14.718 A41.340 F1000.0 ; Cut to next point
G1 X37.255 Y14.729 A42.579 F1000.0 ; Cut to next point
G1 X37.267 Y14.740 A43.821 F1000.0 ; Cut to next point
G1 X37.279 Y14.752 A45.066 F1000.0 ; Cut to next point
G1 X37.290 Y14.764 A46.312 F1000.0 ; Cut to next point
G1 X37.301 Y14.776 A47.554 F1000.0 ; Cut to next point
G1 X37.311 Y14.788 A48.790 F1000.0 ; Cut to next point
G1 X37.322 Y14.800 A50.021 F1000.0 ; Cut to next point
G1 X37.332 Y14.813 A51.249 F1000.0 ; Cut to next point
G1 X37.342 Y14.826 A52.482 F1000.0 ; Cut to next point
G1 X37.352 Y14.839 A53.720 F1000.0 ; Cut to next point
G1 X37.361 Y14.852 A54.966 F1000.0 ; Cut to next point
G1 X37.370 Y14.866 A56.216 F1000.0 ; Cut to next point
G1 X37.379 Y14.879 A57.466 F1000.0 ; Cut to next point
G1 X37.387 Y14.893 A58.713 F1000.0 ; Cut to next point
G1 X37.395 Y14.907 A59.959 F1000.0 ; Cut to next point
G1 X37.403 Y14.922 A61.204 F1000.0 ; Cut to next point
G1 X37.411 Y14.936 A62.448 F1000.0 ; Cut to next point
G1 X37.418 Y14.951 A63.691 F1000.0 ; Cut to next point
G1 X37.425 Y14.965 A64.935 F1000.0 ; Cut to next point
G1 X37.431 Y14.980 A66.179 F1000.0 ; Cut to next point
G1 X37.437 Y14.995 A67.420 F1000.0 ; Cut to next point
G1 X37.443 Y15.010 A68.657 F1000.0 ; Cut to next point
G1 X37.449 Y15.026 A69.893 F1000.0 ; Cut to next point
G1 X37.454 Y15.041 A71.127 F1000.0 ; Cut to next point
G1 X37.459 Y15.056 A72.362 F1000.0 ; Cut to next point
G1 X37.464 Y15.072 A73.600 F1000.0 ; Cut to next point
G1 X37.468 Y15.088 A74.841 F1000.0 ; Cut to next point
G1 X37.472 Y15.103 A76.083 F1000.0 ; Cut to next point
G1 X37.475 Y15.119 A77.322 F1000.0 ; Cut to next point
G1 X37.479 Y15.135 A78.557 F1000.0 ; Cut to next point
G1 X37.482 Y15.151 A79.789 F1000.0 ; Cut to next point
G1 X37.484 Y15.167 A81.020 F1000.0 ; Cut to next point
G1 X37.486 Y15.183 A82.256 F1000.0 ; Cut to next point
G1 X37.488 Y15.199 A83.499 F1000.0 ; Cut to next point
G1 X37.490 Y15.216 A84.747 F1000.0 ; Cut to next point
G1 X37.491 Y15.232 A86.000 F1000.0 ; Cut to next point
G1 X37.491 Y15.248 A87.249 F1000.0 ; Cut to next point
G1 X37.492 Y15.264 A88.492 F1000.0 ; Cut to next point
G1 X37.492 Y15.280 A89.731 F1000.0 ; Cut to next point
G1 X37.492 Y15.297 A90.968 F1000.0 ; Cut to next point
G1 X37.491 Y15.313 A92.206 F1000.0 ; Cut to next point
G1 X37.490 Y15.329 A93.444 F1000.0 ; Cut to next point
G1 X37.489 Y15.345 A94.684 F1000.0 ; Cut to next point
G1 X37.487 Y15.361 A95.925 F1000.0 ; Cut to next point
G1 X37.485 Y15.378 A97.166 F1000.0 ; Cut to next point
G1 X37.483 Y15.394 A98.405 F1000.0 ; Cut to next point
G1 X37.480 Y15.410 A99.645 F1000.0 ; Cut to next point
G1 X37.477 Y15.426 A100.884 F1000.0 ; Cut to next point
G1 X37.474 Y15.441 A102.125 F1000.0 ; Cut to next point
G1 X37.470 Y15.457 A103.365 F1000.0 ; Cut to next point
G1 X37.466 Y15.473 A104.607 F1000.0 ; Cut to next point
G1 X37.461 Y15.489 A105.850 F1000.0 ; Cut to next point
G1 X37.456 Y15.504 A107.092 F1000.0 ; Cut to next point
G1 X37.451 Y15.519 A108.334 F1000.0 ; Cut to next point
G1 X37.446 Y15.535 A109.576 F1000.0 ; Cut to next point
G1 X37.440 Y15.550 A110.818 F1000.0 ; Cut to next point
G1 X37.434 Y15.565 A112.058 F1000.0 ; Cut to next point
G1 X37.428 Y15.580 A113.296 F1000.0 ; Cut to next point
G1 X37.421 Y15.595 A114.533 F1000.0 ; Cut to next point
G1 X37.413 Y15.611 A115.784 F1000.0 ; Cut to next point
G1 X37.406 Y15.625 A117.030 F1000.0 ; Cut to next point
G1 X37.398 Y15.639 A118.314 F1000.0 ; Cut to next point
G1 X37.391 Y15.652 A119.723 F1000.0 ; Cut to next point
G1 X37.382 Y15.666 A121.202 F1000.0 ; Cut to next point
G1 X37.374 Y15.680 A122.400 F1000.0 ; Cut to next point
G1 X37.365 Y15.693 A123.200 F1000.0 ; Cut to next point
G1 X37.356 Y15.707 A123.601 F1000.0 ; Cut to next point
G1 X37.184 Y15.962 A123.963 F1000.0 ; Cut to next point
G1 X37.013 Y16.219 A123.597 F1000.0 ; Cut to next point
G1 X36.846 Y16.477 A122.863 F1000.0 ; Cut to next point
G1 X36.684 Y16.739 A121.761 F1000.0 ; Cut to next point
G1 X36.662 Y16.776 A120.988 F1000.0 ; Cut to next point
G1 X36.640 Y16.813 A120.801 F1000.0 ; Cut to next point
G1 X36.618 Y16.851 A120.633 F1000.0 ; Cut to next point
G1 X36.596 Y16.888 A120.484 F1000.0 ; Cut to next point
G1 X36.565 Y16.940 A120.325 F1000.0 ; Cut to next point
G1 X36.535 Y16.992 A120.140 F1000.0 ; Cut to next point
G1 X36.505 Y17.045 A119.948 F1000.0 ; Cut to next point
G1 X36.475 Y17.097 A119.751 F1000.0 ; Cut to next point
G1 X36.365 Y17.292 A119.278 F1000.0 ; Cut to next point
G1 X36.259 Y17.489 A118.534 F1000.0 ; Cut to next point
G1 X36.154 Y17.686 A117.793 F1000.0 ; Cut to next point
G1 X36.053 Y17.885 A117.056 F1000.0 ; Cut to next point
G1 X36.023 Y17.945 A116.577 F1000.0 ; Cut to next point
G1 X35.993 Y18.006 A116.356 F1000.0 ; Cut to next point
G1 X35.963 Y18.066 A116.135 F1000.0 ; Cut to next point
G1 X35.934 Y18.126 A115.913 F1000.0 ; Cut to next point
G1 X35.827 Y18.351 A115.391 F1000.0 ; Cut to next point
G1 X35.724 Y18.577 A114.570 F1000.0 ; Cut to next point
G1 X35.624 Y18.805 A113.749 F1000.0 ; Cut to next point
G1 X35.527 Y19.033 A112.928 F1000.0 ; Cut to next point
G1 X35.504 Y19.089 A112.419 F1000.0 ; Cut to next point
G1 X35.482 Y19.144 A112.221 F1000.0 ; Cut to next point
G1 X35.459 Y19.200 A112.023 F1000.0 ; Cut to next point
G1 X35.437 Y19.255 A111.826 F1000.0 ; Cut to next point
G1 X35.421 Y19.295 A111.657 F1000.0 ; Cut to next point
G1 X35.406 Y19.335 A111.515 F1000.0 ; Cut to next point
G1 X35.390 Y19.374 A111.374 F1000.0 ; Cut to next point
G1 X35.374 Y19.414 A111.233 F1000.0 ; Cut to next point
G1 X35.302 Y19.605 A110.824 F1000.0 ; Cut to next point
G1 X35.231 Y19.797 A110.149 F1000.0 ; Cut to next point
G1 X35.163 Y19.990 A109.474 F1000.0 ; Cut to next point
G1 X35.097 Y20.184 A108.799 F1000.0 ; Cut to next point
G1 X35.051 Y20.323 A108.219 F1000.0 ; Cut to next point
G1 X35.007 Y20.463 A107.734 F1000.0 ; Cut to next point
G1 X34.963 Y20.603 A107.249 F1000.0 ; Cut to next point
G1 X34.921 Y20.743 A106.765 F1000.0 ; Cut to next point
G1 X34.824 Y21.081 A105.942 F1000.0 ; Cut to next point
G1 X34.735 Y21.421 A104.783 F1000.0 ; Cut to next point
G1 X34.652 Y21.762 A103.624 F1000.0 ; Cut to next point
G1 X34.576 Y22.105 A102.464 F1000.0 ; Cut to next point
G1 X34.556 Y22.201 A101.721 F1000.0 ; Cut to next point
G1 X34.537 Y22.297 A101.396 F1000.0 ; Cut to next point
G1 X34.518 Y22.394 A101.071 F1000.0 ; Cut to next point
G1 X34.500 Y22.491 A100.746 F1000.0 ; Cut to next point
G1 X34.463 Y22.693 A100.244 F1000.0 ; Cut to next point
G1 X34.429 Y22.896 A99.563 F1000.0 ; Cut to next point
G1 X34.397 Y23.100 A98.883 F1000.0 ; Cut to next point
G1 X34.368 Y23.304 A98.203 F1000.0 ; Cut to next point
G1 X34.361 Y23.350 A97.786 F1000.0 ; Cut to next point
G1 X34.355 Y23.397 A97.631 F1000.0 ; Cut to next point
G1 X34.349 Y23.443 A97.476 F1000.0 ; Cut to next point
G1 X34.343 Y23.489 A97.321 F1000.0 ; Cut to next point
G1 X34.338 Y23.529 A97.178 F1000.0 ; Cut to next point
G1 X34.333 Y23.568 A97.048 F1000.0 ; Cut to next point
G1 X34.329 Y23.607 A96.919 F1000.0 ; Cut to next point
G1 X34.324 Y23.646 A96.791 F1000.0 ; Cut to next point
G1 X34.292 Y23.934 A96.254 F1000.0 ; Cut to next point
G1 X34.266 Y24.223 A95.300 F1000.0 ; Cut to next point
G1 X34.244 Y24.512 A94.332 F1000.0 ; Cut to next point
G1 X34.227 Y24.801 A93.348 F1000.0 ; Cut to next point
G1 X34.226 Y24.823 A92.816 F1000.0 ; Cut to next point
G1 X34.225 Y24.845 A92.759 F1000.0 ; Cut to next point
G1 X34.224 Y24.867 A92.721 F1000.0 ; Cut to next point
G1 X34.223 Y24.889 A92.702 F1000.0 ; Cut to next point
G1 X34.207 Y25.156 A93.408 F1000.0 ; Cut to next point
G1 X34.190 Y25.424 A93.630 F1000.0 ; Cut to next point
G1 X34.171 Y25.691 A94.073 F1000.0 ; Cut to next point
G1 X34.148 Y25.958 A94.739 F1000.0 ; Cut to next point
G1 X34.129 Y26.163 A95.477 F1000.0 ; Cut to next point
G1 X34.107 Y26.367 A96.103 F1000.0 ; Cut to next point
G1 X34.083 Y26.571 A96.674 F1000.0 ; Cut to next point
G1 X34.057 Y26.775 A97.192 F1000.0 ; Cut to next point
