; Fabric CNC Toolpath
; Generated by ToolpathGenerator

G20 ; Set units to inches
G90 ; Set absolute positioning
G28 ; Home all axes

G0 Z5.0 ; Move to safe height

; Shape: merged_shape_0
G0 X17.927 Y25.046 ; Move to start
G0 Z-2.0 ; Plunge to cutting height
G1 X17.938 Y25.099 A78.184 F1000.0 ; Cut to next point
G1 X17.949 Y25.151 A78.149 F1000.0 ; Cut to next point
G1 X17.960 Y25.204 A78.083 F1000.0 ; Cut to next point
G1 X17.971 Y25.256 A77.984 F1000.0 ; Cut to next point
G1 X17.983 Y25.308 A77.850 F1000.0 ; Cut to next point
G1 X17.994 Y25.359 A77.696 F1000.0 ; Cut to next point
G1 X18.005 Y25.411 A77.539 F1000.0 ; Cut to next point
G1 X18.017 Y25.463 A77.394 F1000.0 ; Cut to next point
G1 X18.029 Y25.515 A77.264 F1000.0 ; Cut to next point
G1 X18.041 Y25.567 A77.147 F1000.0 ; Cut to next point
G1 X18.053 Y25.619 A77.036 F1000.0 ; Cut to next point
G1 X18.065 Y25.671 A76.932 F1000.0 ; Cut to next point
G1 X18.077 Y25.723 A76.831 F1000.0 ; Cut to next point
G1 X18.089 Y25.775 A76.729 F1000.0 ; Cut to next point
G1 X18.101 Y25.827 A76.627 F1000.0 ; Cut to next point
G1 X18.114 Y25.879 A76.527 F1000.0 ; Cut to next point
G1 X18.126 Y25.931 A76.429 F1000.0 ; Cut to next point
G1 X18.139 Y25.983 A76.335 F1000.0 ; Cut to next point
G1 X18.152 Y26.035 A76.244 F1000.0 ; Cut to next point
G1 X18.165 Y26.087 A76.157 F1000.0 ; Cut to next point
G1 X18.177 Y26.139 A76.073 F1000.0 ; Cut to next point
G1 X18.190 Y26.191 A75.992 F1000.0 ; Cut to next point
G1 X18.203 Y26.243 A75.914 F1000.0 ; Cut to next point
G1 X18.217 Y26.295 A75.840 F1000.0 ; Cut to next point
G1 X18.230 Y26.347 A75.769 F1000.0 ; Cut to next point
G1 X18.243 Y26.399 A75.701 F1000.0 ; Cut to next point
G1 X18.256 Y26.451 A75.636 F1000.0 ; Cut to next point
G1 X18.270 Y26.503 A75.574 F1000.0 ; Cut to next point
G1 X18.283 Y26.555 A75.515 F1000.0 ; Cut to next point
G1 X18.297 Y26.607 A75.459 F1000.0 ; Cut to next point
G1 X18.310 Y26.659 A75.407 F1000.0 ; Cut to next point
G1 X18.324 Y26.711 A75.358 F1000.0 ; Cut to next point
G1 X18.337 Y26.763 A75.312 F1000.0 ; Cut to next point
G1 X18.351 Y26.815 A75.269 F1000.0 ; Cut to next point
G1 X18.365 Y26.867 A75.229 F1000.0 ; Cut to next point
G1 X18.379 Y26.919 A75.192 F1000.0 ; Cut to next point
G1 X18.392 Y26.971 A75.159 F1000.0 ; Cut to next point
G1 X18.406 Y27.023 A75.128 F1000.0 ; Cut to next point
G1 X18.420 Y27.075 A75.101 F1000.0 ; Cut to next point
G1 X18.434 Y27.127 A75.077 F1000.0 ; Cut to next point
G1 X18.448 Y27.179 A75.057 F1000.0 ; Cut to next point
G1 X18.462 Y27.232 A75.039 F1000.0 ; Cut to next point
G1 X18.476 Y27.284 A75.024 F1000.0 ; Cut to next point
G1 X18.490 Y27.336 A75.013 F1000.0 ; Cut to next point
G1 X18.504 Y27.388 A75.004 F1000.0 ; Cut to next point
G1 X18.518 Y27.440 A74.999 F1000.0 ; Cut to next point
G1 X18.532 Y27.492 A74.997 F1000.0 ; Cut to next point
G1 X18.546 Y27.545 A74.997 F1000.0 ; Cut to next point
G1 X18.560 Y27.597 A74.997 F1000.0 ; Cut to next point
G1 X18.574 Y27.649 A74.997 F1000.0 ; Cut to next point
G1 X18.588 Y27.701 A74.997 F1000.0 ; Cut to next point
G1 X18.602 Y27.754 A74.997 F1000.0 ; Cut to next point
G1 X18.616 Y27.806 A74.997 F1000.0 ; Cut to next point
G1 X18.630 Y27.858 A74.997 F1000.0 ; Cut to next point
G1 X18.644 Y27.910 A74.997 F1000.0 ; Cut to next point
G0 Z5.0 ; Raise Z for corner
G0 A146.280 ; Rotate Z for corner
G0 X18.600 Y27.939 ; Move to next point
G1 Z-2.0 F200.0 ; Lower Z to cutting height
G0 Z5.0 ; Raise Z for corner
G0 A-179.998 ; Rotate Z for corner
G0 X18.549 Y27.939 ; Move to next point
G1 Z-2.0 F200.0 ; Lower Z to cutting height
G1 X18.498 Y27.939 A-179.998 F1000.0 ; Cut to next point
G1 X18.446 Y27.939 A-179.998 F1000.0 ; Cut to next point
G1 X18.395 Y27.939 A-179.998 F1000.0 ; Cut to next point
G1 X18.344 Y27.939 A-179.998 F1000.0 ; Cut to next point
G1 X18.293 Y27.939 A-179.998 F1000.0 ; Cut to next point
G1 X18.241 Y27.939 A-179.998 F1000.0 ; Cut to next point
G1 X18.190 Y27.939 A-179.998 F1000.0 ; Cut to next point
G1 X18.139 Y27.939 A-179.998 F1000.0 ; Cut to next point
G1 X18.088 Y27.939 A-179.998 F1000.0 ; Cut to next point
G1 X18.036 Y27.939 A-179.998 F1000.0 ; Cut to next point
G1 X17.985 Y27.939 A-179.998 F1000.0 ; Cut to next point
G1 X17.934 Y27.939 A-179.998 F1000.0 ; Cut to next point
G1 X17.883 Y27.939 A-179.998 F1000.0 ; Cut to next point
G1 X17.831 Y27.939 A-179.998 F1000.0 ; Cut to next point
G1 X17.780 Y27.939 A-179.998 F1000.0 ; Cut to next point
G1 X17.729 Y27.939 A-179.998 F1000.0 ; Cut to next point
G1 X17.678 Y27.939 A-179.998 F1000.0 ; Cut to next point
G1 X17.627 Y27.939 A-179.998 F1000.0 ; Cut to next point
G1 X17.575 Y27.939 A-179.998 F1000.0 ; Cut to next point
G1 X17.524 Y27.939 A-179.998 F1000.0 ; Cut to next point
G1 X17.473 Y27.939 A-179.998 F1000.0 ; Cut to next point
G1 X17.422 Y27.939 A-179.998 F1000.0 ; Cut to next point
G1 X17.370 Y27.939 A-179.998 F1000.0 ; Cut to next point
G1 X17.319 Y27.939 A-179.998 F1000.0 ; Cut to next point
G1 X17.268 Y27.939 A-179.998 F1000.0 ; Cut to next point
G1 X17.217 Y27.939 A-179.998 F1000.0 ; Cut to next point
G1 X17.165 Y27.939 A-179.998 F1000.0 ; Cut to next point
G1 X17.114 Y27.939 A-179.998 F1000.0 ; Cut to next point
G1 X17.063 Y27.939 A-179.998 F1000.0 ; Cut to next point
G1 X17.012 Y27.939 A-179.998 F1000.0 ; Cut to next point
G1 X16.960 Y27.939 A-179.998 F1000.0 ; Cut to next point
G1 X16.909 Y27.939 A-179.998 F1000.0 ; Cut to next point
G1 X16.858 Y27.939 A-179.998 F1000.0 ; Cut to next point
G1 X16.807 Y27.939 A-179.998 F1000.0 ; Cut to next point
G1 X16.755 Y27.939 A-179.998 F1000.0 ; Cut to next point
G1 X16.704 Y27.939 A-179.998 F1000.0 ; Cut to next point
G1 X16.653 Y27.939 A-179.998 F1000.0 ; Cut to next point
G1 X16.602 Y27.939 A-179.998 F1000.0 ; Cut to next point
G1 X16.550 Y27.939 A-179.998 F1000.0 ; Cut to next point
G1 X16.499 Y27.939 A-179.998 F1000.0 ; Cut to next point
G1 X16.448 Y27.939 A-179.998 F1000.0 ; Cut to next point
G1 X16.397 Y27.939 A-179.998 F1000.0 ; Cut to next point
G1 X16.345 Y27.939 A-179.998 F1000.0 ; Cut to next point
G1 X16.294 Y27.939 A-179.998 F1000.0 ; Cut to next point
G1 X16.243 Y27.939 A-179.998 F1000.0 ; Cut to next point
G1 X16.192 Y27.939 A-179.998 F1000.0 ; Cut to next point
G1 X16.140 Y27.939 A-179.998 F1000.0 ; Cut to next point
G1 X16.089 Y27.939 A-179.998 F1000.0 ; Cut to next point
G1 X16.038 Y27.939 A-179.998 F1000.0 ; Cut to next point
G1 X15.987 Y27.939 A-179.998 F1000.0 ; Cut to next point
G1 X15.935 Y27.939 A-179.998 F1000.0 ; Cut to next point
G1 X15.884 Y27.939 A-179.998 F1000.0 ; Cut to next point
G1 X15.833 Y27.939 A-179.998 F1000.0 ; Cut to next point
G1 X15.782 Y27.939 A-179.998 F1000.0 ; Cut to next point
G1 X15.730 Y27.939 A-179.998 F1000.0 ; Cut to next point
G1 X15.679 Y27.939 A-179.998 F1000.0 ; Cut to next point
G1 X15.628 Y27.939 A-179.998 F1000.0 ; Cut to next point
G1 X15.577 Y27.939 A-179.998 F1000.0 ; Cut to next point
G1 X15.525 Y27.939 A-179.998 F1000.0 ; Cut to next point
G1 X15.474 Y27.939 A-179.998 F1000.0 ; Cut to next point
G1 X15.394 Y27.939 A-179.999 F1000.0 ; Cut to next point
G1 X15.339 Y27.939 A-179.999 F1000.0 ; Cut to next point
G1 X15.284 Y27.939 A-179.999 F1000.0 ; Cut to next point
G1 X15.229 Y27.939 A-179.999 F1000.0 ; Cut to next point
G1 X15.174 Y27.939 A-179.999 F1000.0 ; Cut to next point
G1 X15.119 Y27.939 A-179.999 F1000.0 ; Cut to next point
G1 X15.064 Y27.939 A-179.999 F1000.0 ; Cut to next point
G1 X15.009 Y27.939 A-179.999 F1000.0 ; Cut to next point
G1 X14.954 Y27.939 A-179.999 F1000.0 ; Cut to next point
G1 X14.899 Y27.939 A-179.999 F1000.0 ; Cut to next point
G1 X14.844 Y27.939 A-179.999 F1000.0 ; Cut to next point
G1 X14.789 Y27.939 A-179.999 F1000.0 ; Cut to next point
G1 X14.734 Y27.939 A-179.999 F1000.0 ; Cut to next point
G1 X14.679 Y27.939 A-179.999 F1000.0 ; Cut to next point
G1 X14.624 Y27.939 A-179.999 F1000.0 ; Cut to next point
G1 X14.569 Y27.939 A-179.999 F1000.0 ; Cut to next point
G1 X14.514 Y27.939 A-179.999 F1000.0 ; Cut to next point
G1 X14.459 Y27.939 A-179.999 F1000.0 ; Cut to next point
G1 X14.404 Y27.939 A-179.999 F1000.0 ; Cut to next point
G1 X14.349 Y27.939 A-179.999 F1000.0 ; Cut to next point
G1 X14.294 Y27.939 A-179.999 F1000.0 ; Cut to next point
G1 X14.239 Y27.939 A-179.999 F1000.0 ; Cut to next point
G1 X14.184 Y27.939 A-179.999 F1000.0 ; Cut to next point
G1 X14.129 Y27.939 A-179.999 F1000.0 ; Cut to next point
G1 X14.074 Y27.939 A-179.999 F1000.0 ; Cut to next point
G1 X14.019 Y27.939 A-179.999 F1000.0 ; Cut to next point
G1 X13.964 Y27.939 A-179.999 F1000.0 ; Cut to next point
G1 X13.909 Y27.939 A-179.999 F1000.0 ; Cut to next point
G1 X13.854 Y27.939 A-179.999 F1000.0 ; Cut to next point
G1 X13.799 Y27.939 A-180.000 F1000.0 ; Cut to next point
G1 X13.744 Y27.939 A-180.000 F1000.0 ; Cut to next point
G1 X13.689 Y27.939 A-180.000 F1000.0 ; Cut to next point
G1 X13.634 Y27.939 A-180.000 F1000.0 ; Cut to next point
G1 X13.579 Y27.939 A-180.000 F1000.0 ; Cut to next point
G1 X13.524 Y27.939 A-180.000 F1000.0 ; Cut to next point
G1 X13.469 Y27.939 A-180.000 F1000.0 ; Cut to next point
G1 X13.414 Y27.939 A-180.000 F1000.0 ; Cut to next point
G1 X13.359 Y27.939 A-180.000 F1000.0 ; Cut to next point
G1 X13.304 Y27.939 A-180.000 F1000.0 ; Cut to next point
G1 X13.249 Y27.939 A-180.000 F1000.0 ; Cut to next point
G1 X13.194 Y27.939 A-180.000 F1000.0 ; Cut to next point
G1 X13.139 Y27.939 A-180.000 F1000.0 ; Cut to next point
G1 X13.084 Y27.939 A-180.000 F1000.0 ; Cut to next point
G1 X13.029 Y27.939 A-180.000 F1000.0 ; Cut to next point
G1 X12.974 Y27.939 A-180.000 F1000.0 ; Cut to next point
G1 X12.919 Y27.939 A-180.000 F1000.0 ; Cut to next point
G1 X12.864 Y27.939 A-180.000 F1000.0 ; Cut to next point
G1 X12.809 Y27.939 A-180.000 F1000.0 ; Cut to next point
G1 X12.754 Y27.939 A180.000 F1000.0 ; Cut to next point
G1 X12.699 Y27.939 A180.000 F1000.0 ; Cut to next point
G1 X12.644 Y27.939 A180.000 F1000.0 ; Cut to next point
G1 X12.589 Y27.939 A180.000 F1000.0 ; Cut to next point
G1 X12.534 Y27.939 A180.000 F1000.0 ; Cut to next point
G1 X12.479 Y27.939 A180.000 F1000.0 ; Cut to next point
G1 X12.424 Y27.939 A180.000 F1000.0 ; Cut to next point
G1 X12.369 Y27.939 A180.000 F1000.0 ; Cut to next point
G1 X12.314 Y27.939 A180.000 F1000.0 ; Cut to next point
G1 X12.259 Y27.939 A180.000 F1000.0 ; Cut to next point
G1 X12.204 Y27.939 A180.000 F1000.0 ; Cut to next point
G1 X12.149 Y27.939 A180.000 F1000.0 ; Cut to next point
G1 X12.094 Y27.939 A180.000 F1000.0 ; Cut to next point
G1 X12.039 Y27.939 A180.000 F1000.0 ; Cut to next point
G1 X11.984 Y27.939 A180.000 F1000.0 ; Cut to next point
G1 X11.929 Y27.939 A180.000 F1000.0 ; Cut to next point
G1 X11.874 Y27.939 A180.000 F1000.0 ; Cut to next point
G1 X11.819 Y27.939 A180.000 F1000.0 ; Cut to next point
G1 X11.764 Y27.939 A180.000 F1000.0 ; Cut to next point
G1 X11.709 Y27.939 A179.999 F1000.0 ; Cut to next point
G1 X11.654 Y27.939 A179.999 F1000.0 ; Cut to next point
G1 X11.599 Y27.939 A179.999 F1000.0 ; Cut to next point
G1 X11.544 Y27.939 A179.999 F1000.0 ; Cut to next point
G1 X11.489 Y27.939 A179.999 F1000.0 ; Cut to next point
G1 X11.434 Y27.939 A179.999 F1000.0 ; Cut to next point
G1 X11.379 Y27.939 A179.999 F1000.0 ; Cut to next point
G1 X11.324 Y27.939 A179.999 F1000.0 ; Cut to next point
G1 X11.269 Y27.939 A179.999 F1000.0 ; Cut to next point
G1 X11.214 Y27.939 A179.999 F1000.0 ; Cut to next point
G1 X11.159 Y27.939 A179.999 F1000.0 ; Cut to next point
G1 X11.104 Y27.939 A179.999 F1000.0 ; Cut to next point
G1 X11.049 Y27.939 A179.999 F1000.0 ; Cut to next point
G1 X10.994 Y27.939 A179.999 F1000.0 ; Cut to next point
G1 X10.939 Y27.939 A179.999 F1000.0 ; Cut to next point
G1 X10.884 Y27.939 A179.999 F1000.0 ; Cut to next point
G1 X10.829 Y27.939 A179.999 F1000.0 ; Cut to next point
G1 X10.774 Y27.939 A179.999 F1000.0 ; Cut to next point
G1 X10.719 Y27.939 A179.999 F1000.0 ; Cut to next point
G1 X10.664 Y27.939 A179.999 F1000.0 ; Cut to next point
G1 X10.609 Y27.939 A179.999 F1000.0 ; Cut to next point
G1 X10.554 Y27.939 A179.999 F1000.0 ; Cut to next point
G1 X10.499 Y27.939 A179.999 F1000.0 ; Cut to next point
G1 X10.444 Y27.939 A179.999 F1000.0 ; Cut to next point
G1 X10.389 Y27.939 A179.999 F1000.0 ; Cut to next point
G1 X10.334 Y27.939 A179.999 F1000.0 ; Cut to next point
G1 X10.279 Y27.939 A179.999 F1000.0 ; Cut to next point
G1 X10.224 Y27.939 A179.999 F1000.0 ; Cut to next point
G1 X10.169 Y27.939 A179.999 F1000.0 ; Cut to next point
G1 X10.114 Y27.939 A179.999 F1000.0 ; Cut to next point
G1 X10.059 Y27.939 A179.999 F1000.0 ; Cut to next point
G1 X10.004 Y27.939 A179.999 F1000.0 ; Cut to next point
G1 X9.949 Y27.939 A179.999 F1000.0 ; Cut to next point
G1 X9.897 Y27.939 A180.000 F1000.0 ; Cut to next point
G1 X9.846 Y27.939 A179.999 F1000.0 ; Cut to next point
G1 X9.795 Y27.939 A179.998 F1000.0 ; Cut to next point
G1 X9.744 Y27.939 A179.998 F1000.0 ; Cut to next point
G1 X9.692 Y27.939 A179.998 F1000.0 ; Cut to next point
G1 X9.641 Y27.939 A179.998 F1000.0 ; Cut to next point
G1 X9.590 Y27.939 A179.998 F1000.0 ; Cut to next point
G1 X9.539 Y27.939 A179.998 F1000.0 ; Cut to next point
G1 X9.487 Y27.939 A179.998 F1000.0 ; Cut to next point
G1 X9.436 Y27.939 A179.998 F1000.0 ; Cut to next point
G1 X9.385 Y27.939 A179.998 F1000.0 ; Cut to next point
G1 X9.334 Y27.939 A179.998 F1000.0 ; Cut to next point
G1 X9.283 Y27.939 A179.998 F1000.0 ; Cut to next point
G1 X9.231 Y27.939 A179.998 F1000.0 ; Cut to next point
G1 X9.180 Y27.939 A179.998 F1000.0 ; Cut to next point
G1 X9.129 Y27.939 A179.998 F1000.0 ; Cut to next point
G1 X9.078 Y27.939 A179.998 F1000.0 ; Cut to next point
G1 X9.026 Y27.939 A179.998 F1000.0 ; Cut to next point
G1 X8.975 Y27.939 A179.998 F1000.0 ; Cut to next point
G1 X8.924 Y27.939 A179.998 F1000.0 ; Cut to next point
G1 X8.873 Y27.939 A179.998 F1000.0 ; Cut to next point
G1 X8.821 Y27.939 A179.998 F1000.0 ; Cut to next point
G1 X8.770 Y27.939 A179.998 F1000.0 ; Cut to next point
G1 X8.719 Y27.939 A179.998 F1000.0 ; Cut to next point
G1 X8.668 Y27.939 A179.998 F1000.0 ; Cut to next point
G1 X8.616 Y27.939 A179.998 F1000.0 ; Cut to next point
G1 X8.565 Y27.939 A179.998 F1000.0 ; Cut to next point
G1 X8.514 Y27.939 A179.998 F1000.0 ; Cut to next point
G1 X8.463 Y27.939 A179.998 F1000.0 ; Cut to next point
G1 X8.411 Y27.939 A179.998 F1000.0 ; Cut to next point
G1 X8.360 Y27.939 A179.998 F1000.0 ; Cut to next point
G1 X8.309 Y27.939 A179.998 F1000.0 ; Cut to next point
G1 X8.258 Y27.939 A179.998 F1000.0 ; Cut to next point
G1 X8.206 Y27.939 A179.998 F1000.0 ; Cut to next point
G1 X8.155 Y27.939 A179.998 F1000.0 ; Cut to next point
G1 X8.104 Y27.939 A179.998 F1000.0 ; Cut to next point
G1 X8.053 Y27.939 A179.998 F1000.0 ; Cut to next point
G1 X8.001 Y27.939 A179.998 F1000.0 ; Cut to next point
G1 X7.950 Y27.939 A179.998 F1000.0 ; Cut to next point
G1 X7.899 Y27.939 A179.998 F1000.0 ; Cut to next point
G1 X7.848 Y27.939 A179.998 F1000.0 ; Cut to next point
G1 X7.796 Y27.939 A179.998 F1000.0 ; Cut to next point
G1 X7.745 Y27.939 A179.998 F1000.0 ; Cut to next point
G1 X7.694 Y27.939 A179.998 F1000.0 ; Cut to next point
G1 X7.643 Y27.939 A179.998 F1000.0 ; Cut to next point
G1 X7.591 Y27.939 A179.998 F1000.0 ; Cut to next point
G1 X7.540 Y27.939 A179.998 F1000.0 ; Cut to next point
G1 X7.489 Y27.939 A179.998 F1000.0 ; Cut to next point
G1 X7.438 Y27.939 A179.998 F1000.0 ; Cut to next point
G1 X7.386 Y27.939 A179.998 F1000.0 ; Cut to next point
G1 X7.335 Y27.939 A179.998 F1000.0 ; Cut to next point
G1 X7.284 Y27.939 A179.998 F1000.0 ; Cut to next point
G1 X7.233 Y27.939 A179.998 F1000.0 ; Cut to next point
G1 X7.181 Y27.939 A179.998 F1000.0 ; Cut to next point
G1 X7.130 Y27.939 A179.998 F1000.0 ; Cut to next point
G1 X7.079 Y27.939 A179.998 F1000.0 ; Cut to next point
G1 X7.028 Y27.939 A179.998 F1000.0 ; Cut to next point
G1 X6.976 Y27.939 A179.998 F1000.0 ; Cut to next point
G1 X6.925 Y27.939 A179.998 F1000.0 ; Cut to next point
G1 X6.874 Y27.939 A179.998 F1000.0 ; Cut to next point
